;FLAVOR:Marlin
;TIME:12742
;Filament used: 55.5439m
;Layer height: 0.4
;POSTPROCESSED
;Generated with Cura_SteamEngine 4.0.0
M140 S70
M105
M190 S70
M104 S230
M105
M109 S230
M82 ;absolute extrusion mode
; Ender 3 Custom Start G-code
G28 ; Home all axes
G92 E0 ; Reset Extruder
G1 Z2.0 F3000 ; Move Z Axis up little to prevent scratching of Heat Bed
G1 X0.1 Y20 Z0.3 F5000.0 ; Move to start position
G1 X0.1 Y200.0 Z0.3 F1500.0 E15 ; Draw the first line
G1 X0.4 Y200.0 Z0.3 F5000.0 ; Move to side a little
G1 X0.4 Y20 Z0.3 F1500.0 E30 ; Draw the second line
G92 E0 ; Reset Extruder
G1 Z2.0 F3000 ; Move Z Axis up little to prevent scratching of Heat Bed
; End of custom start GCode
G92 E0
G1 F3000 E-10
;LAYER_COUNT:71
;LAYER:0
M107
M204 S5000
M205 X30 Y30
G0 F3600 X43.727 Y29.675 Z0.4
M204 S500
M205 X20 Y20
;TYPE:SKIRT
G1 F3000 E0
G1 F1500 X44.373 Y28.856 E0.15141
G1 X45.08 Y28.09 E0.30271
G1 X45.844 Y27.379 E0.4542
G1 X46.667 Y26.724 E0.60687
G1 X47.496 Y26.115 E0.75618
G1 X48.36 Y25.53 E0.90763
G1 X49.266 Y25.013 E1.05904
G1 X50.208 Y24.567 E1.21032
G1 X51.182 Y24.195 E1.36166
G1 X52.182 Y23.898 E1.51307
G1 X53.202 Y23.679 E1.6645
G1 X54.235 Y23.539 E1.81581
G1 X54.94 Y23.489 E1.9184
G1 X64.633 Y23.055 E3.32674
G1 X65.273 Y23.041 E3.41966
G1 X68.338 Y23.048 E3.86454
G1 X74.386 Y22.779 E4.74327
G1 X75.143 Y22.767 E4.85316
G1 X81.678 Y22.84 E5.80177
G1 X82.097 Y22.851 E5.86261
G1 X86.06 Y23.017 E6.43834
G1 X91.011 Y23.025 E7.15698
G1 X91.428 Y23.032 E7.21751
G1 X102.687 Y23.395 E8.8526
G1 X109.129 Y23.271 E9.78782
G1 X109.678 Y23.271 E9.86751
G1 X114.941 Y23.382 E10.6316
G1 X117.636 Y23.333 E11.02284
G1 X124.671 Y22.829 E12.04658
G1 X125.903 Y22.796 E12.22547
G1 X136.939 Y23.006 E13.82763
G1 X142.865 Y22.91 E14.6879
G1 X144.209 Y22.955 E14.88309
G1 X146.537 Y23.148 E15.22215
G1 X151.531 Y23.358 E15.94767
G1 X156.438 Y23.286 E16.66
G1 X161.715 Y22.913 E17.42786
G1 X162.757 Y22.879 E17.57919
G1 X163.752 Y22.922 E17.72374
G1 X166.451 Y23.136 E18.11673
G1 X171.518 Y23.321 E18.85269
G1 X174.279 Y23.302 E19.25346
G1 X175.322 Y23.335 E19.40493
G1 X176.173 Y23.422 E19.52909
G1 X178.164 Y23.688 E19.82065
G1 X185.021 Y24.28 E20.81964
G1 X186.056 Y24.41 E20.97105
G1 X187.078 Y24.618 E21.12244
G1 X188.081 Y24.904 E21.27382
G1 X189.059 Y25.267 E21.42524
G1 X190.006 Y25.703 E21.57657
G1 X190.917 Y26.21 E21.7279
G1 X191.787 Y26.785 E21.87927
G1 X192.61 Y27.426 E22.03068
G1 X193.381 Y28.128 E22.18203
G1 X194.097 Y28.887 E22.33348
G1 X194.752 Y29.698 E22.4848
G1 X195.527 Y30.856 E22.68705
G1 X198.145 Y35.238 E23.42796
G1 X202.087 Y40.959 E24.4364
G1 X202.646 Y41.839 E24.58773
G1 X203.135 Y42.76 E24.73908
G1 X203.552 Y43.716 E24.89047
G1 X203.808 Y44.428 E25.0003
G1 X204.367 Y46.128 E25.26005
G1 X204.655 Y47.13 E25.41138
G1 X204.865 Y48.152 E25.56282
G1 X204.996 Y49.186 E25.7141
G1 X205.047 Y50.228 E25.86553
G1 X205.019 Y51.271 E26.01697
G1 X204.91 Y52.308 E26.16832
G1 X204.723 Y53.334 E26.3197
G1 X204.457 Y54.342 E26.47102
G1 X204.265 Y54.925 E26.56011
G1 X202.13 Y60.941 E27.48669
G1 X200.651 Y65.718 E28.21254
G1 X199.452 Y70.54 E28.93376
G1 X198.969 Y72.9 E29.28341
G1 X198.579 Y75.144 E29.61401
G1 X197.928 Y80.096 E30.33897
G1 X197.563 Y85.022 E31.05594
G1 X197.471 Y89.055 E31.64148
G1 X197.447 Y205.909 E48.60276
G1 X197.407 Y206.951 E48.75411
G1 X197.287 Y207.987 E48.90549
G1 X197.088 Y209.011 E49.05691
G1 X196.711 Y210.319 E49.25449
G1 X196.605 Y210.628 E49.30191
G1 X196.229 Y211.601 E49.45332
G1 X195.78 Y212.542 E49.60465
G1 X195.26 Y213.446 E49.75603
G1 X194.672 Y214.307 E49.90737
G1 X193.795 Y215.374 E50.10784
G1 X193.488 Y215.711 E50.17401
G1 X192.756 Y216.454 E50.3254
G1 X191.97 Y217.139 E50.47674
G1 X191.134 Y217.762 E50.62807
G1 X190.252 Y218.319 E50.77948
G1 X189.33 Y218.807 E50.9309
G1 X188.374 Y219.223 E51.08223
G1 X187.389 Y219.564 E51.23353
G1 X186.639 Y219.769 E51.34638
G1 X186.173 Y219.882 E51.41598
G1 X185.151 Y220.089 E51.56734
G1 X184.116 Y220.216 E51.71869
G1 X182.969 Y220.265 E51.88533
G1 X52.68 Y220.276 E70.79669
G1 X51.638 Y220.236 E70.94805
G1 X50.827 Y220.149 E71.06644
G1 X49.663 Y219.989 E71.23698
G1 X48.636 Y219.808 E71.38835
G1 X47.626 Y219.548 E71.53973
G1 X46.639 Y219.212 E71.69106
G1 X45.68 Y218.801 E71.84251
G1 X44.756 Y218.318 E71.99384
G1 X43.872 Y217.765 E72.14519
G1 X43.032 Y217.146 E72.29665
G1 X42.243 Y216.465 E72.44793
G1 X41.508 Y215.725 E72.59932
G1 X40.831 Y214.931 E72.75077
G1 X40.218 Y214.088 E72.90206
G1 X39.718 Y213.284 E73.03949
G1 X39.356 Y212.653 E73.14508
G1 X38.873 Y211.729 E73.29642
G1 X38.461 Y210.771 E73.44778
G1 X38.124 Y209.784 E73.59917
G1 X37.863 Y208.774 E73.75058
G1 X37.681 Y207.747 E73.90197
G1 X37.578 Y206.709 E74.05338
G1 X37.553 Y205.899 E74.17101
G1 X37.49 Y144.896 E83.02555
G1 X37.214 Y140.014 E83.7353
G1 X36.663 Y135.164 E84.44381
G1 X35.835 Y130.331 E85.15553
G1 X34.729 Y125.524 E85.8715
G1 X34.122 Y123.318 E86.2036
G1 X32.612 Y118.622 E86.91959
G1 X30.044 Y112.124 E87.93375
G1 X29.698 Y111.14 E88.08515
G1 X29.486 Y110.377 E88.2001
G1 X28.785 Y107.53 E88.62568
G1 X28.575 Y106.508 E88.77712
G1 X28.444 Y105.474 E88.9284
G1 X28.392 Y104.432 E89.07984
G1 X28.42 Y103.389 E89.23128
G1 X28.494 Y102.605 E89.34559
G1 X28.762 Y100.44 E89.66223
G1 X29.18 Y95.468 E90.38646
G1 X29.314 Y90.577 E91.09665
G1 X29.169 Y85.65 E91.81211
G1 X28.834 Y81.474 E92.4202
G1 X28.79 Y80.432 E92.57158
G1 X28.827 Y79.39 E92.72293
G1 X29.028 Y77.855 E92.94763
G1 X29.346 Y76.175 E93.19581
G1 X30.108 Y71.183 E93.92879
G1 X30.571 Y66.317 E94.63828
G1 X30.757 Y61.441 E95.34654
G1 X30.65 Y55.936 E96.14574
G1 X30.669 Y54.893 E96.29715
G1 X30.769 Y53.855 E96.44852
G1 X30.948 Y52.828 E96.59983
G1 X31.308 Y51.483 E96.80193
G1 X31.865 Y49.762 E97.06449
G1 X32.224 Y48.783 E97.21584
G1 X32.657 Y47.834 E97.36725
G1 X33.161 Y46.921 E97.51862
G1 X33.795 Y45.965 E97.68513
G1 X35.415 Y43.731 E98.08568
G1 X38.154 Y39.584 E98.80705
G1 X40.641 Y35.311 E99.52468
G1 X42.633 Y31.449 E100.15542
G1 X43.146 Y30.541 E100.30679
G1 X43.727 Y29.675 E100.45816
M204 S5000
M205 X30 Y30
G0 F3600 X44.41 Y30.097
M204 S500
M205 X20 Y20
G1 F1500 X45.041 Y29.307 E100.60492
G1 X45.733 Y28.569 E100.75176
G1 X46.481 Y27.887 E100.89869
G1 X47.141 Y27.368 E101.02056
G1 X47.97 Y26.759 E101.16987
G1 X48.808 Y26.193 E101.31665
G1 X49.689 Y25.695 E101.46354
G1 X50.606 Y25.268 E101.61036
G1 X51.554 Y24.914 E101.75725
G1 X52.527 Y24.637 E101.90409
G1 X53.519 Y24.437 E102.05097
G1 X54.975 Y24.288 E102.26342
G1 X64.668 Y23.854 E103.67176
G1 X65.271 Y23.841 E103.7593
G1 X68.372 Y23.848 E104.20941
G1 X74.422 Y23.579 E105.08843
G1 X75.134 Y23.567 E105.19179
G1 X81.669 Y23.64 E106.1404
G1 X82.063 Y23.65 E106.19761
G1 X86.05 Y23.817 E106.77683
G1 X91.01 Y23.825 E107.49677
G1 X91.403 Y23.832 E107.55382
G1 X102.658 Y24.195 E109.18833
G1 X109.145 Y24.07 E110.13009
G1 X109.662 Y24.071 E110.20513
G1 X114.938 Y24.183 E110.97111
G1 X117.67 Y24.133 E111.36772
G1 X124.728 Y23.627 E112.39482
G1 X125.887 Y23.596 E112.5631
G1 X136.936 Y23.806 E114.16715
G1 X142.878 Y23.71 E115.02974
G1 X144.143 Y23.752 E115.21345
G1 X146.486 Y23.946 E115.5547
G1 X151.527 Y24.159 E116.28705
G1 X156.471 Y24.086 E117.00475
G1 X161.772 Y23.711 E117.77611
G1 X162.783 Y23.679 E117.92293
G1 X163.689 Y23.719 E118.05456
G1 X166.405 Y23.935 E118.45003
G1 X171.517 Y24.121 E119.19253
G1 X174.285 Y24.102 E119.59431
G1 X175.296 Y24.135 E119.74113
G1 X176.067 Y24.215 E119.85364
G1 X178.075 Y24.483 E120.14769
G1 X184.952 Y25.077 E121.1496
G1 X185.956 Y25.204 E121.29649
G1 X186.947 Y25.41 E121.44341
G1 X187.918 Y25.693 E121.59021
G1 X188.864 Y26.052 E121.73708
G1 X189.778 Y26.485 E121.88388
G1 X190.656 Y26.989 E122.03082
G1 X191.491 Y27.56 E122.17765
G1 X192.278 Y28.195 E122.32443
G1 X193.013 Y28.891 E122.47136
G1 X193.69 Y29.643 E122.61823
G1 X194.306 Y30.445 E122.76501
G1 X194.84 Y31.266 E122.90717
G1 X197.466 Y35.663 E123.65055
G1 X201.429 Y41.413 E124.66418
G1 X201.969 Y42.268 E124.81096
G1 X202.441 Y43.163 E124.95783
G1 X202.84 Y44.092 E125.10458
G1 X203.048 Y44.678 E125.19484
G1 X203.607 Y46.378 E125.45459
G1 X203.885 Y47.351 E125.60147
G1 X204.085 Y48.342 E125.74822
G1 X204.207 Y49.347 E125.89516
G1 X204.248 Y50.358 E126.04203
G1 X204.209 Y51.369 E126.18889
G1 X204.091 Y52.373 E126.33562
G1 X203.894 Y53.366 E126.48256
G1 X203.511 Y54.658 E126.67816
G1 X201.362 Y60.712 E127.61061
G1 X199.885 Y65.482 E128.33541
G1 X198.669 Y70.375 E129.06723
G1 X198.185 Y72.74 E129.41762
G1 X197.788 Y75.023 E129.75397
G1 X197.131 Y80.021 E130.48567
G1 X196.765 Y84.965 E131.20525
G1 X196.671 Y89.08 E131.80269
G1 X196.647 Y205.909 E148.76034
G1 X196.607 Y206.92 E148.9072
G1 X196.487 Y207.924 E149.05397
G1 X196.288 Y208.916 E149.20083
G1 X195.954 Y210.059 E149.37367
G1 X195.848 Y210.368 E149.42109
G1 X195.483 Y211.312 E149.56799
G1 X195.043 Y212.223 E149.71484
G1 X194.534 Y213.097 E149.86165
G1 X193.956 Y213.928 E150.00857
G1 X193.203 Y214.835 E150.17968
G1 X192.896 Y215.172 E150.24585
G1 X192.186 Y215.892 E150.39262
G1 X191.421 Y216.554 E150.53947
G1 X190.606 Y217.154 E150.68636
G1 X189.746 Y217.687 E150.83322
G1 X188.847 Y218.151 E150.98007
G1 X187.914 Y218.542 E151.1269
G1 X186.953 Y218.859 E151.27378
G1 X186.45 Y218.991 E151.34927
G1 X185.984 Y219.104 E151.41887
G1 X184.993 Y219.304 E151.56561
G1 X183.988 Y219.424 E151.71252
G1 X182.969 Y219.465 E151.86055
G1 X52.68 Y219.476 E170.7719
G1 X51.669 Y219.436 E170.91877
G1 X50.936 Y219.357 E171.02578
G1 X49.772 Y219.197 E171.19632
G1 X48.776 Y219.019 E171.34318
G1 X47.797 Y218.764 E171.49002
G1 X46.841 Y218.432 E171.63691
G1 X45.915 Y218.026 E171.78367
G1 X45.023 Y217.548 E171.93056
G1 X44.172 Y217 E172.07748
G1 X43.367 Y216.388 E172.22426
G1 X42.613 Y215.713 E172.37115
G1 X41.914 Y214.981 E172.51806
G1 X41.276 Y214.197 E172.66478
G1 X40.701 Y213.364 E172.81169
G1 X40.412 Y212.886 E172.89277
G1 X40.05 Y212.255 E172.99836
G1 X39.582 Y211.358 E173.14522
G1 X39.186 Y210.427 E173.29207
G1 X38.865 Y209.467 E173.43899
G1 X38.62 Y208.486 E173.58576
G1 X38.454 Y207.488 E173.73261
G1 X38.367 Y206.48 E173.87946
G1 X38.353 Y205.898 E173.96396
G1 X38.29 Y144.887 E182.81967
G1 X38.01 Y139.932 E183.54003
G1 X37.455 Y135.044 E184.25408
G1 X36.623 Y130.19 E184.96891
G1 X35.499 Y125.304 E185.69664
G1 X34.89 Y123.093 E186.02951
G1 X33.368 Y118.358 E186.75143
G1 X30.788 Y111.83 E187.77028
G1 X30.454 Y110.875 E187.91713
G1 X30.263 Y110.185 E188.02105
G1 X29.562 Y107.338 E188.44663
G1 X29.359 Y106.347 E188.59346
G1 X29.235 Y105.343 E188.7403
G1 X29.191 Y104.332 E188.88718
G1 X29.227 Y103.321 E189.03402
G1 X29.288 Y102.703 E189.12416
G1 X29.558 Y100.528 E189.44228
G1 X29.98 Y95.504 E190.17408
G1 X30.114 Y90.576 E190.88964
G1 X29.969 Y85.621 E191.60917
G1 X29.631 Y81.41 E192.22236
G1 X29.59 Y80.399 E192.36922
G1 X29.629 Y79.388 E192.51608
G1 X29.814 Y78.004 E192.71875
G1 X30.135 Y76.308 E192.96929
G1 X30.903 Y71.271 E193.70886
G1 X31.368 Y66.388 E194.42083
G1 X31.557 Y61.456 E195.13723
G1 X31.449 Y55.92 E195.94093
G1 X31.47 Y54.909 E196.08771
G1 X31.57 Y53.902 E196.23459
G1 X31.749 Y52.906 E196.38148
G1 X32.069 Y51.73 E196.55838
G1 X32.626 Y50.009 E196.82094
G1 X32.975 Y49.059 E196.96784
G1 X33.399 Y48.14 E197.11475
G1 X33.893 Y47.257 E197.26161
G1 X34.443 Y46.434 E197.40529
G1 X36.073 Y44.187 E197.80821
G1 X38.838 Y40 E198.53651
G1 X41.336 Y35.706 E199.25758
G1 X43.344 Y31.815 E199.89313
G1 X43.843 Y30.935 E200.03996
G1 X44.41 Y30.097 E200.18683
M204 S5000
M205 X30 Y30
G0 F3600 X45.091 Y30.521
M204 S500
M205 X20 Y20
G1 F1500 X45.707 Y29.76 E200.32894
G1 X46.384 Y29.051 E200.47123
G1 X47.116 Y28.4 E200.61342
G1 X47.615 Y28.013 E200.70508
G1 X48.444 Y27.404 E200.85438
G1 X49.256 Y26.857 E200.99649
G1 X50.11 Y26.378 E201.13862
G1 X51.001 Y25.97 E201.28086
G1 X51.922 Y25.636 E201.42306
G1 X52.867 Y25.378 E201.56525
G1 X53.83 Y25.199 E201.70742
G1 X55.011 Y25.087 E201.87961
G1 X64.704 Y24.653 E203.28795
G1 X65.269 Y24.641 E203.36998
G1 X68.384 Y24.648 E203.82212
G1 X74.457 Y24.378 E204.70448
G1 X75.125 Y24.367 E204.80146
G1 X81.66 Y24.44 E205.75007
G1 X82.029 Y24.45 E205.80365
G1 X86.014 Y24.617 E206.38258
G1 X91.008 Y24.625 E207.10745
G1 X91.377 Y24.631 E207.16102
G1 X102.666 Y24.995 E208.80046
G1 X109.16 Y24.87 E209.74324
G1 X109.645 Y24.871 E209.81363
G1 X114.936 Y24.983 E210.58179
G1 X117.706 Y24.933 E210.98392
G1 X124.786 Y24.425 E212.01422
G1 X125.872 Y24.396 E212.17191
G1 X136.934 Y24.606 E213.77784
G1 X142.891 Y24.51 E214.6426
G1 X144.077 Y24.549 E214.81484
G1 X146.461 Y24.747 E215.16207
G1 X151.505 Y24.959 E215.89485
G1 X156.502 Y24.886 E216.62024
G1 X161.828 Y24.509 E217.39524
G1 X162.807 Y24.48 E217.5374
G1 X163.625 Y24.517 E217.65626
G1 X166.358 Y24.734 E218.0542
G1 X171.494 Y24.921 E218.80018
G1 X174.29 Y24.902 E219.20603
G1 X175.269 Y24.936 E219.34821
G1 X175.961 Y25.008 E219.4492
G1 X178.008 Y25.281 E219.74895
G1 X184.883 Y25.875 E220.75057
G1 X185.855 Y25.999 E220.8928
G1 X186.814 Y26.201 E221.03505
G1 X187.752 Y26.482 E221.17718
G1 X188.665 Y26.838 E221.31942
G1 X189.545 Y27.267 E221.46152
G1 X190.388 Y27.767 E221.60378
G1 X191.187 Y28.333 E221.74591
G1 X191.937 Y28.963 E221.88808
G1 X192.633 Y29.653 E222.03033
G1 X193.271 Y30.396 E222.17248
G1 X193.846 Y31.189 E222.31466
G1 X194.153 Y31.676 E222.39822
G1 X196.794 Y36.098 E223.14583
G1 X200.77 Y41.867 E224.16281
G1 X201.292 Y42.695 E224.30488
G1 X201.746 Y43.564 E224.44719
G1 X202.289 Y44.928 E224.66029
G1 X202.848 Y46.628 E224.92004
G1 X203.115 Y47.57 E225.06216
G1 X203.305 Y48.531 E225.20435
G1 X203.416 Y49.504 E225.34649
G1 X203.448 Y50.483 E225.48867
G1 X203.399 Y51.462 E225.63095
G1 X203.27 Y52.433 E225.77313
G1 X203.063 Y53.39 E225.91525
G1 X202.757 Y54.39 E226.06704
G1 X200.608 Y60.446 E226.99977
G1 X199.11 Y65.284 E227.73489
G1 X197.89 Y70.188 E228.4684
G1 X197.401 Y72.58 E228.82278
G1 X196.997 Y74.901 E229.16474
G1 X196.334 Y79.946 E229.90331
G1 X195.965 Y84.927 E230.62828
G1 X195.871 Y89.062 E231.22863
G1 X195.847 Y205.908 E248.18874
G1 X195.807 Y206.887 E248.33096
G1 X195.687 Y207.859 E248.47312
G1 X195.488 Y208.819 E248.61543
G1 X195.198 Y209.8 E248.76391
G1 X195.092 Y210.109 E248.81133
G1 X194.736 Y211.022 E248.95357
G1 X194.308 Y211.902 E249.0956
G1 X193.809 Y212.745 E249.23779
G1 X193.242 Y213.545 E249.38012
G1 X192.612 Y214.296 E249.5224
G1 X192.305 Y214.633 E249.58857
G1 X191.616 Y215.33 E249.73083
G1 X190.873 Y215.968 E249.87298
G1 X190.08 Y216.543 E250.01516
G1 X189.243 Y217.052 E250.15735
G1 X188.367 Y217.491 E250.29957
G1 X187.459 Y217.857 E250.44167
G1 X186.262 Y218.214 E250.62298
G1 X185.796 Y218.327 E250.69258
G1 X184.835 Y218.519 E250.83482
G1 X183.862 Y218.632 E250.977
G1 X182.969 Y218.665 E251.10671
G1 X52.68 Y218.676 E270.01807
G1 X51.701 Y218.636 E270.16029
G1 X51.045 Y218.564 E270.25608
G1 X49.881 Y218.404 E270.42662
G1 X48.917 Y218.231 E270.56878
G1 X47.97 Y217.98 E270.71098
G1 X47.046 Y217.653 E270.85325
G1 X46.153 Y217.251 E270.9954
G1 X45.295 Y216.778 E271.1376
G1 X44.479 Y216.237 E271.27971
G1 X43.709 Y215.63 E271.42203
G1 X42.992 Y214.963 E271.56417
G1 X42.331 Y214.24 E271.70636
G1 X41.732 Y213.465 E271.84854
G1 X41.106 Y212.487 E272.01708
G1 X40.744 Y211.856 E272.12267
G1 X40.292 Y210.988 E272.26472
G1 X39.912 Y210.085 E272.40692
G1 X39.607 Y209.154 E272.54912
G1 X39.379 Y208.201 E272.69135
G1 X39.229 Y207.233 E272.83354
G1 X39.153 Y205.897 E273.02777
G1 X39.09 Y144.859 E281.8874
G1 X38.807 Y139.865 E282.61344
G1 X38.249 Y134.944 E283.33229
G1 X37.405 Y130.019 E284.05757
G1 X36.278 Y125.123 E284.78681
G1 X35.652 Y122.846 E285.12958
G1 X34.124 Y118.095 E285.85397
G1 X31.532 Y111.536 E286.87765
G1 X31.21 Y110.611 E287.01981
G1 X31.04 Y109.994 E287.11271
