;FLAVOR:Marlin
;TIME:12501
;Filament used: 54.9886m
;Layer height: 0.4
;POSTPROCESSED
;Generated with Cura_SteamEngine 4.0.0
M140 S70
M105
M190 S70
M104 S230
M105
M109 S230
M82 ;absolute extrusion mode
; Ender 3 Custom Start G-code
G28 ; Home all axes
G92 E0 ; Reset Extruder
G1 Z2.0 F3000 ; Move Z Axis up little to prevent scratching of Heat Bed
G1 X0.1 Y20 Z0.3 F5000.0 ; Move to start position
G1 X0.1 Y200.0 Z0.3 F1500.0 E15 ; Draw the first line
G1 X0.4 Y200.0 Z0.3 F5000.0 ; Move to side a little
G1 X0.4 Y20 Z0.3 F1500.0 E30 ; Draw the second line
G92 E0 ; Reset Extruder
G1 Z2.0 F3000 ; Move Z Axis up little to prevent scratching of Heat Bed
; End of custom start GCode
G92 E0
G1 F3000 E-10
;LAYER_COUNT:71
;LAYER:0
M107
M204 S5000
M205 X30 Y30
G0 F3600 X39.966 Y26.541 Z0.4
M204 S500
M205 X20 Y20
;TYPE:SKIRT
G1 F3000 E0
G1 F1500 X40.562 Y25.685 E0.1514
G1 X41.221 Y24.877 E0.30274
G1 X41.941 Y24.122 E0.45417
G1 X42.716 Y23.424 E0.60556
G1 X43.685 Y22.688 E0.78218
G1 X43.915 Y22.529 E0.82277
G1 X44.795 Y21.969 E0.97417
G1 X45.716 Y21.479 E1.12559
G1 X46.671 Y21.06 E1.27696
G1 X47.655 Y20.716 E1.42827
G1 X48.709 Y20.438 E1.58649
G1 X48.989 Y20.376 E1.62811
G1 X50.015 Y20.189 E1.77949
G1 X51.052 Y20.082 E1.93081
G1 X51.929 Y20.054 E2.05817
G1 X182.989 Y20.054 E21.08144
G1 X184.031 Y20.094 E21.23279
G1 X185.067 Y20.214 E21.38417
G1 X186.309 Y20.465 E21.56809
G1 X186.75 Y20.576 E21.6341
G1 X187.75 Y20.869 E21.78535
G1 X188.726 Y21.238 E21.93681
G1 X189.67 Y21.681 E22.08816
G1 X190.578 Y22.195 E22.23961
G1 X191.443 Y22.777 E22.39094
G1 X192.262 Y23.423 E22.54235
G1 X193.133 Y24.235 E22.71519
G1 X193.409 Y24.516 E22.77236
G1 X194.11 Y25.288 E22.92372
G1 X194.751 Y26.111 E23.07513
G1 X195.326 Y26.98 E23.22638
G1 X195.834 Y27.891 E23.37778
G1 X196.353 Y29.044 E23.56131
G1 X196.493 Y29.398 E23.61657
G1 X196.839 Y30.382 E23.76797
G1 X197.109 Y31.39 E23.91943
G1 X197.3 Y32.415 E24.07077
G1 X197.413 Y33.452 E24.22218
G1 X197.446 Y34.394 E24.359
G1 X197.508 Y171.011 E44.18886
G1 X197.784 Y175.889 E44.89803
G1 X198.359 Y180.948 E45.63707
G1 X199.519 Y189.372 E46.87135
G1 X199.621 Y190.41 E47.02274
G1 X199.644 Y191.431 E47.17097
G1 X199.538 Y198.522 E48.20034
G1 X199.483 Y199.564 E48.3518
G1 X199.348 Y200.598 E48.50316
G1 X199.134 Y201.618 E48.65443
G1 X198.798 Y202.748 E48.82555
G1 X197.819 Y205.59 E49.26185
G1 X197.442 Y206.563 E49.41331
G1 X196.992 Y207.503 E49.56458
G1 X196.47 Y208.406 E49.71598
G1 X195.881 Y209.267 E49.86739
G1 X195.228 Y210.08 E50.01875
G1 X194.514 Y210.84 E50.17011
G1 X193.745 Y211.544 E50.32144
G1 X193.076 Y212.075 E50.44542
G1 X192.066 Y212.826 E50.6281
G1 X191.206 Y213.415 E50.7794
G1 X190.303 Y213.937 E50.9308
G1 X189.363 Y214.389 E51.08219
G1 X188.391 Y214.767 E51.23357
G1 X187.393 Y215.069 E51.38491
G1 X185.918 Y215.369 E51.60339
G1 X181.964 Y215.947 E52.18341
G1 X180.927 Y216.058 E52.33479
G1 X179.997 Y216.09 E52.46986
G1 X51.165 Y216.091 E71.16974
G1 X50.123 Y216.051 E71.32109
G1 X49.087 Y215.931 E71.47247
G1 X48.063 Y215.733 E71.62386
G1 X47.058 Y215.456 E71.77517
G1 X46.076 Y215.103 E71.92664
G1 X45.125 Y214.676 E72.07795
G1 X44.209 Y214.177 E72.22936
G1 X43.334 Y213.61 E72.3807
G1 X42.505 Y212.977 E72.53209
G1 X41.727 Y212.283 E72.68342
G1 X41.004 Y211.531 E72.83484
G1 X40.341 Y210.726 E72.98621
G1 X39.742 Y209.872 E73.13762
G1 X39.21 Y208.975 E73.289
G1 X38.749 Y208.04 E73.44031
G1 X38.36 Y207.072 E73.59174
G1 X38.046 Y206.078 E73.74304
G1 X37.81 Y205.062 E73.89444
G1 X37.652 Y204.031 E74.04584
G1 X37.565 Y202.587 E74.25581
G1 X37.491 Y192.175 E75.76714
G1 X37.213 Y187.259 E76.48184
G1 X36.661 Y182.403 E77.19122
G1 X35.836 Y177.586 E77.90059
G1 X34.726 Y172.766 E78.61852
G1 X34.121 Y170.564 E78.94998
G1 X32.588 Y165.798 E79.67667
G1 X30.213 Y159.574 E80.64362
G1 X29.952 Y158.824 E80.75888
G1 X29.538 Y157.514 E80.9583
G1 X29.262 Y156.509 E81.10957
G1 X29.045 Y155.354 E81.28015
G1 X28.537 Y151.826 E81.79752
G1 X28.428 Y150.789 E81.94887
G1 X28.413 Y149.255 E82.17154
G1 X28.661 Y143.929 E82.94544
G1 X28.61 Y138.939 E83.66978
G1 X28.494 Y136.676 E83.99868
G1 X28.48 Y135.634 E84.14994
G1 X28.547 Y134.593 E84.30135
G1 X28.693 Y133.56 E84.45278
G1 X28.877 Y132.701 E84.58029
G1 X29.463 Y130.343 E84.93297
G1 X29.754 Y129.341 E85.08441
G1 X30.096 Y128.422 E85.22674
G1 X31.572 Y124.857 E85.7868
G1 X32.397 Y122.666 E86.12662
G1 X33.937 Y117.972 E86.84368
G1 X35.231 Y113.122 E87.57228
G1 X35.711 Y110.957 E87.89416
G1 X36.585 Y106.042 E88.61876
G1 X37.168 Y101.185 E89.32881
G1 X37.477 Y96.247 E90.04696
G1 X37.53 Y93.206 E90.48843
G1 X37.573 Y34.323 E99.03525
G1 X37.614 Y33.281 E99.18662
G1 X37.734 Y32.245 E99.338
G1 X37.934 Y31.221 E99.48944
G1 X38.211 Y30.216 E99.64075
G1 X38.565 Y29.235 E99.79213
G1 X39.192 Y27.898 E100.00648
G1 X39.438 Y27.44 E100.08194
G1 X39.966 Y26.541 E100.23327
M204 S5000
M205 X30 Y30
G0 F3600 X40.656 Y26.947
M204 S500
M205 X20 Y20
G1 F1500 X41.237 Y26.118 E100.38021
G1 X41.881 Y25.338 E100.52702
G1 X42.586 Y24.612 E100.67391
G1 X43.345 Y23.943 E100.82077
G1 X44.14 Y23.346 E100.96508
G1 X44.37 Y23.187 E101.00566
G1 X45.225 Y22.645 E101.1526
G1 X46.119 Y22.172 E101.2994
G1 X47.048 Y21.772 E101.44622
G1 X48.006 Y21.445 E101.59315
G1 X48.882 Y21.219 E101.72446
G1 X49.162 Y21.157 E101.76609
G1 X50.157 Y20.977 E101.91285
G1 X51.164 Y20.877 E102.05974
G1 X51.929 Y20.854 E102.17083
G1 X182.989 Y20.854 E121.1941
G1 X184 Y20.894 E121.34096
G1 X185.005 Y21.014 E121.48787
G1 X186.113 Y21.241 E121.65203
G1 X186.554 Y21.352 E121.71804
G1 X187.525 Y21.638 E121.86497
G1 X188.47 Y21.999 E122.0118
G1 X189.383 Y22.434 E122.1586
G1 X190.26 Y22.939 E122.30549
G1 X191.093 Y23.513 E122.45232
G1 X191.879 Y24.15 E122.59917
G1 X192.562 Y24.796 E122.73563
G1 X192.838 Y25.077 E122.7928
G1 X193.518 Y25.826 E122.93964
G1 X194.136 Y26.626 E123.08637
G1 X194.69 Y27.473 E123.23327
G1 X195.174 Y28.361 E123.38007
G1 X195.609 Y29.339 E123.53543
G1 X195.749 Y29.693 E123.59069
G1 X196.084 Y30.647 E123.73745
G1 X196.342 Y31.626 E123.8844
G1 X196.522 Y32.621 E124.03117
G1 X196.623 Y33.628 E124.17807
G1 X196.646 Y34.394 E124.2893
G1 X196.708 Y171.039 E144.12323
G1 X196.986 Y175.953 E144.83764
G1 X197.566 Y181.064 E145.58426
G1 X198.726 Y189.481 E146.81753
G1 X198.825 Y190.488 E146.9644
G1 X198.845 Y191.419 E147.09956
G1 X198.739 Y198.51 E148.12893
G1 X198.683 Y199.521 E148.2759
G1 X198.549 Y200.523 E148.42264
G1 X198.335 Y201.512 E148.56951
G1 X198.042 Y202.488 E148.71742
G1 X197.063 Y205.33 E149.15373
G1 X196.696 Y206.273 E149.3006
G1 X196.256 Y207.184 E149.44745
G1 X195.745 Y208.057 E149.59428
G1 X195.166 Y208.887 E149.74117
G1 X194.524 Y209.669 E149.88802
G1 X193.823 Y210.398 E150.03482
G1 X193.065 Y211.069 E150.18176
G1 X192.599 Y211.433 E150.26759
G1 X191.589 Y212.184 E150.45028
G1 X190.754 Y212.755 E150.5971
G1 X189.876 Y213.258 E150.74398
G1 X188.961 Y213.691 E150.89091
G1 X188.015 Y214.05 E151.03778
G1 X187.044 Y214.333 E151.18458
G1 X185.802 Y214.577 E151.3683
G1 X181.848 Y215.155 E151.94832
G1 X180.842 Y215.262 E152.09516
G1 X179.997 Y215.29 E152.21788
G1 X51.165 Y215.291 E170.91776
G1 X50.154 Y215.251 E171.06462
G1 X49.15 Y215.131 E171.21139
G1 X48.157 Y214.933 E171.35836
G1 X47.184 Y214.656 E171.5052
G1 X46.236 Y214.304 E171.65198
G1 X45.318 Y213.878 E171.79888
G1 X44.437 Y213.38 E171.94577
G1 X43.598 Y212.815 E172.09259
G1 X42.806 Y212.185 E172.23948
G1 X42.067 Y211.495 E172.38623
G1 X41.384 Y210.748 E172.53315
G1 X40.763 Y209.95 E172.67992
G1 X40.206 Y209.105 E172.82682
G1 X39.718 Y208.219 E172.97364
G1 X39.301 Y207.297 E173.12052
G1 X38.959 Y206.345 E173.26735
G1 X38.693 Y205.369 E173.41418
G1 X38.504 Y204.375 E173.56104
G1 X38.395 Y203.369 E173.70792
G1 X38.365 Y202.582 E173.82223
G1 X38.291 Y192.165 E175.33429
G1 X38.009 Y187.177 E176.05945
G1 X37.455 Y182.297 E176.77233
G1 X36.62 Y177.431 E177.48895
G1 X35.496 Y172.545 E178.21667
G1 X34.889 Y170.339 E178.54877
G1 X33.343 Y165.532 E179.2817
G1 X30.961 Y159.289 E180.25159
G1 X30.715 Y158.583 E180.36011
G1 X30.301 Y157.273 E180.55952
G1 X30.034 Y156.297 E180.70639
G1 X29.837 Y155.24 E180.86246
G1 X29.329 Y151.712 E181.37983
G1 X29.224 Y150.706 E181.52664
G1 X29.212 Y149.293 E181.73174
G1 X29.461 Y143.941 E182.50942
G1 X29.41 Y138.915 E183.23898
G1 X29.293 Y136.636 E183.57021
G1 X29.281 Y135.624 E183.71711
G1 X29.349 Y134.614 E183.86405
G1 X29.497 Y133.614 E184.01078
G1 X29.654 Y132.894 E184.11774
G1 X30.24 Y130.536 E184.47041
G1 X30.522 Y129.564 E184.61731
G1 X30.835 Y128.728 E184.74689
G1 X32.31 Y125.164 E185.30675
G1 X33.154 Y122.924 E185.6542
G1 X34.706 Y118.196 E186.37649
G1 X36.009 Y113.313 E187.11006
G1 X36.498 Y111.104 E187.43845
G1 X37.375 Y106.17 E188.16584
G1 X37.964 Y101.261 E188.88349
G1 X38.277 Y96.267 E189.60979
G1 X38.33 Y93.22 E190.05213
G1 X38.373 Y34.324 E198.60084
G1 X38.414 Y33.313 E198.74771
G1 X38.534 Y32.308 E198.89462
G1 X38.734 Y31.316 E199.04151
G1 X39.011 Y30.343 E199.18835
G1 X39.364 Y29.395 E199.33518
G1 X39.897 Y28.276 E199.51509
G1 X40.143 Y27.818 E199.59055
G1 X40.656 Y26.947 E199.73727
M204 S5000
M205 X30 Y30
G0 F3600 X41.346 Y27.353
M204 S500
M205 X20 Y20
G1 F1500 X41.911 Y26.554 E199.87931
G1 X42.54 Y25.802 E200.02161
G1 X43.228 Y25.105 E200.16377
G1 X43.971 Y24.466 E200.30601
G1 X44.595 Y24.004 E200.41871
G1 X44.825 Y23.845 E200.45929
G1 X45.653 Y23.321 E200.60152
G1 X46.521 Y22.867 E200.7437
G1 X47.423 Y22.485 E200.88589
G1 X48.353 Y22.178 E201.02804
G1 X49.055 Y22 E201.13316
G1 X49.335 Y21.938 E201.17478
G1 X50.299 Y21.765 E201.31694
G1 X51.274 Y21.672 E201.45911
G1 X51.929 Y21.654 E201.55422
G1 X182.989 Y21.654 E220.57748
G1 X183.968 Y21.694 E220.7197
G1 X184.94 Y21.814 E220.86186
G1 X185.918 Y22.017 E221.00684
G1 X186.359 Y22.128 E221.07285
G1 X187.298 Y22.406 E221.21499
G1 X188.212 Y22.759 E221.35721
G1 X189.094 Y23.186 E221.49944
G1 X189.938 Y23.683 E221.64161
G1 X190.739 Y24.247 E221.78381
G1 X191.49 Y24.875 E221.9259
G1 X191.991 Y25.356 E222.02671
G1 X192.267 Y25.637 E222.08388
G1 X192.924 Y26.364 E222.22611
G1 X193.52 Y27.141 E222.36825
G1 X194.051 Y27.965 E222.51054
G1 X194.512 Y28.829 E222.65268
G1 X194.865 Y29.633 E222.78014
G1 X195.005 Y29.987 E222.83539
G1 X195.328 Y30.912 E222.9776
G1 X195.574 Y31.86 E223.11976
G1 X195.742 Y32.825 E223.26194
G1 X195.831 Y33.8 E223.40405
G1 X195.846 Y34.395 E223.49044
G1 X195.908 Y171.049 E243.32567
G1 X196.19 Y176.035 E244.05055
G1 X196.77 Y181.138 E244.79601
G1 X197.934 Y189.59 E246.03439
G1 X198.028 Y190.565 E246.17657
G1 X198.045 Y191.407 E246.29881
G1 X197.939 Y198.498 E247.32818
G1 X197.884 Y199.476 E247.47036
G1 X197.75 Y200.447 E247.61263
G1 X197.537 Y201.403 E247.7548
G1 X197.286 Y202.227 E247.87983
G1 X196.307 Y205.069 E248.31613
G1 X195.95 Y205.982 E248.45842
G1 X195.52 Y206.862 E248.60059
G1 X195.02 Y207.704 E248.74273
G1 X194.453 Y208.503 E248.88494
G1 X193.822 Y209.253 E249.0272
G1 X193.133 Y209.948 E249.16925
G1 X192.121 Y210.791 E249.36043
G1 X191.111 Y211.542 E249.54312
G1 X190.302 Y212.094 E249.68527
G1 X189.45 Y212.578 E249.8275
G1 X188.562 Y212.991 E249.96965
G1 X187.643 Y213.33 E250.11183
G1 X186.699 Y213.593 E250.25407
G1 X185.687 Y213.786 E250.40361
G1 X181.733 Y214.364 E250.98363
G1 X180.758 Y214.466 E251.12592
G1 X179.997 Y214.49 E251.23644
G1 X51.165 Y214.491 E269.93631
G1 X50.186 Y214.451 E270.07853
G1 X49.214 Y214.331 E270.22069
G1 X48.255 Y214.133 E270.36282
G1 X47.315 Y213.857 E270.50502
G1 X46.401 Y213.505 E270.64719
G1 X45.518 Y213.079 E270.78949
G1 X44.673 Y212.584 E270.93164
G1 X43.872 Y212.02 E271.07383
G1 X43.119 Y211.394 E271.21596
G1 X42.42 Y210.708 E271.35812
G1 X41.779 Y209.967 E271.50034
G1 X41.2 Y209.177 E271.6425
G1 X40.688 Y208.342 E271.78467
G1 X40.246 Y207.468 E271.92683
G1 X39.876 Y206.56 E272.06915
G1 X39.582 Y205.626 E272.21128
G1 X39.365 Y204.671 E272.35343
G1 X39.226 Y203.701 E272.49566
G1 X39.165 Y202.576 E272.6592
G1 X39.091 Y192.135 E274.17474
G1 X38.807 Y187.113 E274.90484
G1 X38.246 Y182.178 E275.62577
G1 X37.406 Y177.277 E276.34752
G1 X36.275 Y172.365 E277.07915
G1 X35.651 Y170.093 E277.42114
G1 X34.103 Y165.283 E278.15457
G1 X31.708 Y159.004 E279.13001
G1 X31.478 Y158.342 E279.23173
G1 X31.064 Y157.032 E279.43115
G1 X30.807 Y156.087 E279.5733
G1 X30.628 Y155.126 E279.71519
G1 X30.12 Y151.598 E280.23255
G1 X30.021 Y150.624 E280.37466
G1 X30.011 Y149.33 E280.56249
G1 X30.261 Y143.952 E281.34394
G1 X30.21 Y138.891 E282.07858
G1 X30.092 Y136.595 E282.41228
G1 X30.082 Y135.615 E282.55454
G1 X30.151 Y134.638 E282.6967
G1 X30.301 Y133.67 E282.83888
G1 X30.43 Y133.087 E282.92555
G1 X31.016 Y130.729 E283.27822
G1 X31.291 Y129.789 E283.42038
G1 X31.574 Y129.034 E283.53742
G1 X33.064 Y125.434 E284.10294
G1 X33.904 Y123.204 E284.44883
G1 X35.472 Y118.426 E285.17874
G1 X36.786 Y113.504 E285.91819
G1 X37.279 Y111.274 E286.24968
G1 X38.167 Y106.282 E286.98564
G1 X38.762 Y101.318 E287.71132
G1 X39.077 Y96.308 E288.43996
G1 X39.13 Y93.234 E288.88621
G1 X39.173 Y34.324 E297.43696
G1 X39.214 Y33.346 E297.57904
G1 X39.334 Y32.373 E297.72134
G1 X39.533 Y31.414 E297.8635
G1 X39.81 Y30.475 E298.00561
G1 X40.163 Y29.561 E298.14782
G1 X40.601 Y28.655 E298.29389
G1 X40.847 Y28.197 E298.36935
G1 X41.346 Y27.353 E298.51167
M204 S5000
M205 X30 Y30
G0 F3600 X42.035 Y27.761
M204 S500
M205 X20 Y20
G1 F1500 X42.584 Y26.991 E298.64893
G1 X43.197 Y26.27 E298.7863
G1 X43.869 Y25.603 E298.92373
G1 X44.594 Y24.995 E299.06107
G1 X45.05 Y24.662 E299.14302
G1 X45.28 Y24.503 E299.18361
G1 X46.081 Y23.998 E299.32105
G1 X46.921 Y23.563 E299.45836
G1 X47.795 Y23.2 E299.59572
G1 X48.696 Y22.912 E299.73302
G1 X49.228 Y22.781 E299.81255
G1 X49.508 Y22.719 E299.85417
G1 X50.439 Y22.553 E299.99144
G1 X51.382 Y22.467 E300.12888
G1 X51.929 Y22.454 E300.2083
G1 X182.989 Y22.454 E319.23157
G1 X183.935 Y22.494 E319.369
G1 X184.873 Y22.614 E319.50626
G1 X185.723 Y22.793 E319.63235
G1 X186.164 Y22.904 E319.69835
G1 X187.071 Y23.173 E319.83567
G1 X187.952 Y23.519 E319.97306
G1 X188.801 Y23.937 E320.11042
G1 X189.612 Y24.425 E320.2478
G1 X190.378 Y24.981 E320.38519
G1 X191.42 Y25.917 E320.58849
G1 X191.696 Y26.198 E320.64566
G1 X192.33 Y26.9 E320.78296
G1 X192.903 Y27.654 E320.92042
G1 X193.41 Y28.453 E321.05777
G1 X193.847 Y29.292 E321.19508
G1 X194.121 Y29.927 E321.29547
G1 X194.261 Y30.281 E321.35072
G1 X194.572 Y31.175 E321.48811
G1 X194.806 Y32.092 E321.62548
G1 X194.961 Y33.025 E321.76276
G1 X195.046 Y34.395 E321.962
G1 X195.108 Y171.076 E341.80115
G1 X195.392 Y176.084 E342.52923
G1 X195.983 Y181.296 E343.29059
G1 X197.141 Y189.7 E344.52195
G1 X197.231 Y190.642 E344.65931
G1 X197.245 Y191.395 E344.76862
G1 X197.139 Y198.486 E345.79799
G1 X197.085 Y199.431 E345.93538
G1 X196.951 Y200.368 E346.07277
G1 X196.739 Y201.29 E346.21009
G1 X196.529 Y201.967 E346.31297
G1 X195.55 Y204.809 E346.74928
G1 X195.205 Y205.69 E346.88661
G1 X194.786 Y206.538 E347.0239
G1 X194.297 Y207.349 E347.16136
G1 X193.741 Y208.115 E347.29875
G1 X193.123 Y208.831 E347.43603
G1 X192.446 Y209.493 E347.57347
G1 X191.644 Y210.149 E347.72386
G1 X190.634 Y210.9 E347.90655
G1 X189.851 Y211.432 E348.04395
G1 X189.027 Y211.896 E348.18121
G1 X188.166 Y212.289 E348.31859
G1 X187.275 Y212.608 E348.45596
G1 X186.36 Y212.85 E348.59334
G1 X185.571 Y212.994 E348.70975
G1 X181.617 Y213.572 E349.28977
G1 X180.676 Y213.669 E349.42708
G1 X179.997 Y213.69 E349.52568
G1 X51.165 Y213.691 E368.22556
G1 X50.22 Y213.651 E368.36285
G1 X49.281 Y213.531 E368.50025
G1 X48.355 Y213.333 E368.6377
G1 X47.45 Y213.057 E368.77503
G1 X46.572 Y212.706 E368.91228
G1 X45.726 Y212.281 E369.0497
G1 X44.918 Y211.787 E369.18716
G1 X44.156 Y211.227 E369.32442
G1 X43.443 Y210.604 E369.46186
