;FLAVOR:Marlin
;TIME:361
;Filament used: 0.641742m
;Layer height: 0.4
;POSTPROCESSED
;Generated with Cura_SteamEngine 4.0.0
M140 S70
M105
M190 S70
M104 S230
M105
M109 S230
M82 ;absolute extrusion mode
; Ender 3 Custom Start G-code
G28 ; Home all axes
G92 E0 ; Reset Extruder
G1 Z2.0 F3000 ; Move Z Axis up little to prevent scratching of Heat Bed
G1 X0.1 Y20 Z0.3 F5000.0 ; Move to start position
G1 X0.1 Y200.0 Z0.3 F1500.0 E15 ; Draw the first line
G1 X0.4 Y200.0 Z0.3 F5000.0 ; Move to side a little
G1 X0.4 Y20 Z0.3 F1500.0 E30 ; Draw the second line
G92 E0 ; Reset Extruder
G1 Z2.0 F3000 ; Move Z Axis up little to prevent scratching of Heat Bed
; End of custom start GCode
G92 E0
G1 F2400 E-5
;LAYER_COUNT:31
;LAYER:0
M107
M204 S5000
M205 X30 Y30
G0 F3600 X101.717 Y102.071 Z0.4
M204 S500
M205 X20 Y20
;TYPE:SKIRT
G1 F2400 E0
G1 F1500 X102.469 Y101.348 E0.13879
G1 X103.274 Y100.685 E0.27753
G1 X104.128 Y100.086 E0.41631
G1 X105.025 Y99.554 E0.55506
G1 X105.96 Y99.093 E0.69375
G1 X106.928 Y98.704 E0.83254
G1 X107.922 Y98.39 E0.97122
G1 X108.938 Y98.154 E1.10999
G1 X109.969 Y97.996 E1.24876
G1 X111.51 Y97.909 E1.4541
G1 X123.492 Y97.91 E3.04819
G1 X124.534 Y97.95 E3.18692
G1 X125.57 Y98.07 E3.32567
G1 X126.594 Y98.269 E3.46446
G1 X127.599 Y98.545 E3.60311
G1 X128.581 Y98.898 E3.74194
G1 X129.532 Y99.325 E3.88063
G1 X130.448 Y99.824 E4.01941
G1 X131.323 Y100.392 E4.15819
G1 X132.152 Y101.024 E4.29688
G1 X132.93 Y101.719 E4.43567
G1 X133.653 Y102.471 E4.57446
G1 X134.315 Y103.276 E4.71312
G1 X134.914 Y104.13 E4.85189
G1 X135.446 Y105.027 E4.99064
G1 X135.908 Y105.962 E5.12939
G1 X136.297 Y106.93 E5.26818
G1 X136.61 Y107.925 E5.40696
G1 X136.846 Y108.94 E5.54559
G1 X137.004 Y109.971 E5.68436
G1 X137.091 Y111.51 E5.88944
G1 X137.091 Y123.491 E7.48339
G1 X137.051 Y124.533 E7.62213
G1 X136.931 Y125.569 E7.76088
G1 X136.733 Y126.593 E7.89963
G1 X136.456 Y127.598 E8.03833
G1 X136.103 Y128.58 E8.17716
G1 X135.676 Y129.531 E8.31585
G1 X135.177 Y130.447 E8.45462
G1 X134.61 Y131.322 E8.59333
G1 X133.977 Y132.151 E8.7321
G1 X133.283 Y132.929 E8.8708
G1 X132.531 Y133.652 E9.00959
G1 X131.726 Y134.315 E9.14833
G1 X130.872 Y134.914 E9.28711
G1 X129.975 Y135.446 E9.42586
G1 X129.04 Y135.907 E9.56455
G1 X128.072 Y136.296 E9.70334
G1 X127.078 Y136.61 E9.84203
G1 X126.062 Y136.846 E9.98079
G1 X125.031 Y137.004 E10.11956
G1 X123.491 Y137.091 E10.32477
G1 X111.509 Y137.091 E11.91886
G1 X110.467 Y137.051 E12.05759
G1 X109.431 Y136.931 E12.19634
G1 X108.407 Y136.733 E12.3351
G1 X107.402 Y136.456 E12.47379
G1 X106.42 Y136.103 E12.61262
G1 X105.469 Y135.676 E12.75131
G1 X104.553 Y135.177 E12.89009
G1 X103.678 Y134.61 E13.0288
G1 X102.849 Y133.977 E13.16757
G1 X102.071 Y133.283 E13.30627
G1 X101.348 Y132.531 E13.44506
G1 X100.685 Y131.726 E13.5838
G1 X100.086 Y130.872 E13.72258
G1 X99.554 Y129.975 E13.86133
G1 X99.093 Y129.04 E14.00002
G1 X98.704 Y128.072 E14.13881
G1 X98.39 Y127.078 E14.27749
G1 X98.154 Y126.062 E14.41626
G1 X97.996 Y125.031 E14.55503
G1 X97.909 Y123.491 E14.76024
G1 X97.909 Y111.509 E16.35433
G1 X97.949 Y110.467 E16.49306
G1 X98.069 Y109.431 E16.63181
G1 X98.267 Y108.407 E16.77057
G1 X98.544 Y107.402 E16.90926
G1 X98.897 Y106.42 E17.04809
G1 X99.324 Y105.469 E17.18678
G1 X99.823 Y104.553 E17.32555
G1 X100.39 Y103.678 E17.46427
G1 X101.023 Y102.849 E17.60303
G1 X101.717 Y102.071 E17.74174
M204 S5000
M205 X30 Y30
G0 F3600 X102.505 Y102.411
M204 S500
M205 X20 Y20
G1 F1500 X103.252 Y101.728 E17.8764
G1 X104.05 Y101.107 E18.01092
G1 X104.895 Y100.55 E18.14557
G1 X105.781 Y100.062 E18.28014
G1 X106.703 Y99.645 E18.41476
G1 X107.655 Y99.303 E18.54934
G1 X108.632 Y99.037 E18.68406
G1 X109.626 Y98.848 E18.81867
G1 X110.631 Y98.739 E18.95316
G1 X111.51 Y98.709 E19.07017
G1 X123.492 Y98.71 E20.66426
G1 X124.503 Y98.75 E20.79887
G1 X125.508 Y98.87 E20.93352
G1 X126.5 Y99.069 E21.06813
G1 X127.473 Y99.345 E21.20269
G1 X128.421 Y99.698 E21.33727
G1 X129.339 Y100.124 E21.47191
G1 X130.22 Y100.621 E21.60648
G1 X131.059 Y101.187 E21.74113
G1 X131.85 Y101.817 E21.87566
G1 X132.59 Y102.507 E22.01027
G1 X133.272 Y103.254 E22.14484
G1 X133.894 Y104.052 E22.27945
G1 X134.451 Y104.897 E22.41409
G1 X134.939 Y105.783 E22.54866
G1 X135.355 Y106.705 E22.68323
G1 X135.697 Y107.657 E22.81781
G1 X135.964 Y108.634 E22.95256
G1 X136.152 Y109.628 E23.08715
G1 X136.261 Y110.633 E23.22164
G1 X136.291 Y111.51 E23.33838
G1 X136.291 Y123.491 E24.93234
G1 X136.251 Y124.502 E25.06695
G1 X136.131 Y125.507 E25.20161
G1 X135.933 Y126.499 E25.33619
G1 X135.656 Y127.472 E25.47078
G1 X135.304 Y128.42 E25.60531
G1 X134.878 Y129.338 E25.73995
G1 X134.38 Y130.219 E25.87459
G1 X133.815 Y131.058 E26.00916
G1 X133.185 Y131.85 E26.1438
G1 X132.495 Y132.589 E26.27831
G1 X131.748 Y133.272 E26.41297
G1 X130.95 Y133.893 E26.5475
G1 X130.105 Y134.45 E26.68214
G1 X129.219 Y134.938 E26.81672
G1 X128.297 Y135.355 E26.95134
G1 X127.345 Y135.697 E27.08592
G1 X126.368 Y135.963 E27.22063
G1 X125.374 Y136.152 E27.35524
G1 X124.369 Y136.261 E27.48973
G1 X123.491 Y136.291 E27.60661
G1 X111.509 Y136.291 E29.2007
G1 X110.498 Y136.251 E29.33531
G1 X109.493 Y136.131 E29.46997
G1 X108.501 Y135.933 E29.60455
G1 X107.528 Y135.656 E29.73914
G1 X106.58 Y135.304 E29.87368
G1 X105.662 Y134.878 E30.00832
G1 X104.781 Y134.38 E30.14295
G1 X103.942 Y133.815 E30.27753
G1 X103.15 Y133.185 E30.41216
G1 X102.411 Y132.495 E30.54667
G1 X101.728 Y131.748 E30.68134
G1 X101.107 Y130.95 E30.81586
G1 X100.55 Y130.105 E30.95051
G1 X100.062 Y129.219 E31.08508
G1 X99.645 Y128.297 E31.2197
G1 X99.303 Y127.345 E31.35428
G1 X99.037 Y126.368 E31.48899
G1 X98.848 Y125.374 E31.62361
G1 X98.739 Y124.369 E31.7581
G1 X98.709 Y123.491 E31.87497
G1 X98.709 Y111.509 E33.46907
G1 X98.749 Y110.498 E33.60367
G1 X98.869 Y109.493 E33.73833
G1 X99.067 Y108.501 E33.87291
G1 X99.344 Y107.528 E34.0075
G1 X99.696 Y106.58 E34.14204
G1 X100.122 Y105.662 E34.27668
G1 X100.62 Y104.781 E34.41132
G1 X101.185 Y103.942 E34.54589
G1 X101.815 Y103.15 E34.68053
G1 X102.505 Y102.411 E34.81504
M204 S5000
M205 X30 Y30
G0 F3600 X102.606 Y103.463
M204 S500
M205 X20 Y20
G1 F1500 X103.292 Y102.764 E34.94533
G1 X104.033 Y102.122 E35.07577
G1 X104.823 Y101.544 E35.206
G1 X105.658 Y101.032 E35.33631
G1 X106.533 Y100.59 E35.46673
G1 X107.44 Y100.22 E35.59705
G1 X108.374 Y99.926 E35.72732
G1 X109.329 Y99.709 E35.85762
G1 X110.299 Y99.57 E35.98798
G1 X111.51 Y99.509 E36.1493
G1 X123.492 Y99.51 E37.74339
G1 X124.471 Y99.55 E37.87375
G1 X125.443 Y99.67 E38.00404
G1 X126.402 Y99.868 E38.13432
G1 X127.342 Y100.145 E38.2647
G1 X128.256 Y100.497 E38.395
G1 X129.139 Y100.922 E38.52537
G1 X129.983 Y101.418 E38.65561
G1 X130.785 Y101.981 E38.78598
G1 X131.538 Y102.608 E38.91634
G1 X132.237 Y103.294 E39.04664
G1 X132.878 Y104.035 E39.17699
G1 X133.457 Y104.825 E39.3073
G1 X133.969 Y105.66 E39.43761
G1 X134.411 Y106.534 E39.56791
G1 X134.78 Y107.442 E39.6983
G1 X135.075 Y108.376 E39.82861
G1 X135.292 Y109.331 E39.95891
G1 X135.43 Y110.301 E40.08925
G1 X135.491 Y111.51 E40.25031
G1 X135.491 Y123.491 E41.84426
G1 X135.451 Y124.47 E41.97462
G1 X135.331 Y125.442 E42.10492
G1 X135.133 Y126.401 E42.23519
G1 X134.857 Y127.341 E42.36553
G1 X134.505 Y128.255 E42.49584
G1 X134.079 Y129.138 E42.62627
G1 X133.584 Y129.983 E42.75656
G1 X133.02 Y130.784 E42.88689
G1 X132.394 Y131.537 E43.01716
G1 X131.708 Y132.236 E43.14746
G1 X130.967 Y132.878 E43.2779
G1 X130.177 Y133.456 E43.40813
G1 X129.342 Y133.968 E43.53844
G1 X128.467 Y134.41 E43.66886
G1 X127.56 Y134.78 E43.79918
G1 X126.626 Y135.074 E43.92945
G1 X125.671 Y135.291 E44.05974
G1 X124.701 Y135.43 E44.19011
G1 X123.491 Y135.491 E44.35129
G1 X111.509 Y135.491 E45.94539
G1 X110.53 Y135.451 E46.07574
G1 X109.558 Y135.331 E46.20604
G1 X108.599 Y135.133 E46.33632
G1 X107.659 Y134.857 E46.46665
G1 X106.745 Y134.505 E46.59696
G1 X105.862 Y134.079 E46.72739
G1 X105.017 Y133.584 E46.85768
G1 X104.216 Y133.02 E46.98801
G1 X103.463 Y132.394 E47.11829
G1 X102.764 Y131.708 E47.24858
G1 X102.122 Y130.967 E47.37902
G1 X101.544 Y130.177 E47.50925
G1 X101.032 Y129.342 E47.63956
G1 X100.59 Y128.467 E47.76998
G1 X100.22 Y127.56 E47.9003
G1 X99.926 Y126.626 E48.03057
G1 X99.709 Y125.671 E48.16086
G1 X99.57 Y124.701 E48.29123
G1 X99.509 Y123.491 E48.45242
G1 X99.509 Y111.509 E50.04651
G1 X99.549 Y110.53 E50.17686
G1 X99.669 Y109.558 E50.30716
G1 X99.867 Y108.599 E50.43744
G1 X100.143 Y107.659 E50.56777
G1 X100.495 Y106.745 E50.69808
G1 X100.921 Y105.862 E50.82851
G1 X101.416 Y105.017 E50.9588
G1 X101.98 Y104.216 E51.08913
G1 X102.606 Y103.463 E51.21941
M204 S5000
M205 X30 Y30
G0 F3600 X103.396 Y103.787
M204 S500
M205 X20 Y20
G1 F1500 X104.077 Y103.13 E51.3453
G1 X104.811 Y102.533 E51.47117
G1 X105.593 Y101.999 E51.59715
G1 X106.417 Y101.534 E51.72303
G1 X107.277 Y101.139 E51.84894
G1 X108.167 Y100.819 E51.97476
G1 X109.082 Y100.575 E52.10075
G1 X110.013 Y100.409 E52.22656
G1 X110.956 Y100.323 E52.35254
G1 X111.51 Y100.309 E52.42627
G1 X123.492 Y100.31 E54.02036
G1 X124.437 Y100.35 E54.1462
G1 X125.376 Y100.47 E54.27214
G1 X126.301 Y100.668 E54.39799
G1 X127.207 Y100.944 E54.52399
G1 X128.085 Y101.296 E54.64984
G1 X128.931 Y101.72 E54.77574
G1 X129.738 Y102.214 E54.90162
G1 X130.501 Y102.775 E55.02761
G1 X131.213 Y103.398 E55.15348
G1 X131.871 Y104.079 E55.27946
G1 X132.468 Y104.813 E55.40534
G1 X133.001 Y105.594 E55.53113
G1 X133.467 Y106.418 E55.65708
G1 X133.861 Y107.279 E55.78305
G1 X134.181 Y108.169 E55.90887
G1 X134.425 Y109.084 E56.03486
G1 X134.591 Y110.015 E56.16067
G1 X134.677 Y110.958 E56.28665
G1 X134.691 Y111.51 E56.36011
G1 X134.691 Y123.491 E57.95407
G1 X134.651 Y124.437 E58.08004
G1 X134.531 Y125.375 E58.20585
G1 X134.333 Y126.301 E58.33183
G1 X134.057 Y127.206 E58.45771
G1 X133.706 Y128.085 E58.58363
G1 X133.281 Y128.931 E58.70959
G1 X132.787 Y129.738 E58.83547
G1 X132.227 Y130.5 E58.96128
G1 X131.604 Y131.213 E59.08724
G1 X130.923 Y131.87 E59.21314
G1 X130.189 Y132.467 E59.33901
G1 X129.407 Y133.001 E59.46499
G1 X128.583 Y133.466 E59.59087
G1 X127.723 Y133.861 E59.71677
G1 X126.833 Y134.181 E59.8426
G1 X125.918 Y134.425 E59.96859
G1 X124.987 Y134.591 E60.0944
G1 X124.044 Y134.677 E60.22038
G1 X123.491 Y134.691 E60.29397
G1 X111.509 Y134.691 E61.88806
G1 X110.563 Y134.651 E62.01403
G1 X109.625 Y134.531 E62.13984
G1 X108.699 Y134.333 E62.26582
G1 X107.794 Y134.057 E62.3917
G1 X106.915 Y133.706 E62.51762
G1 X106.069 Y133.281 E62.64358
G1 X105.262 Y132.787 E62.76946
G1 X104.5 Y132.227 E62.89527
G1 X103.787 Y131.604 E63.02124
G1 X103.13 Y130.923 E63.14713
G1 X102.533 Y130.189 E63.273
G1 X101.999 Y129.407 E63.39898
G1 X101.534 Y128.583 E63.52486
G1 X101.139 Y127.723 E63.65076
G1 X100.819 Y126.833 E63.77659
G1 X100.575 Y125.918 E63.90258
G1 X100.409 Y124.987 E64.02839
G1 X100.323 Y124.044 E64.15437
G1 X100.309 Y123.491 E64.22796
G1 X100.309 Y111.509 E65.82206
G1 X100.349 Y110.563 E65.94802
G1 X100.469 Y109.625 E66.07383
G1 X100.667 Y108.699 E66.19981
G1 X100.943 Y107.794 E66.32569
G1 X101.294 Y106.915 E66.45161
G1 X101.719 Y106.069 E66.57757
G1 X102.213 Y105.262 E66.70345
G1 X102.773 Y104.5 E66.82926
G1 X103.396 Y103.787 E66.95523
M204 S5000
M205 X30 Y30
G0 F3600 X104.185 Y104.126
M204 S500
M205 X20 Y20
G1 F1500 X104.86 Y103.512 E67.07662
G1 X105.586 Y102.961 E67.19788
G1 X106.357 Y102.475 E67.31913
G1 X107.169 Y102.058 E67.44057
G1 X108.013 Y101.714 E67.56183
G1 X108.885 Y101.446 E67.68319
G1 X109.776 Y101.254 E67.80445
G1 X110.681 Y101.142 E67.92577
G1 X111.51 Y101.109 E68.03615
G1 X123.492 Y101.11 E69.63024
G1 X124.403 Y101.15 E69.75156
G1 X125.307 Y101.27 E69.87288
G1 X126.197 Y101.468 E69.99419
G1 X127.066 Y101.744 E70.11549
G1 X127.908 Y102.095 E70.23685
G1 X128.716 Y102.518 E70.35819
G1 X129.483 Y103.01 E70.47942
G1 X130.205 Y103.568 E70.60082
G1 X130.875 Y104.186 E70.72209
G1 X131.488 Y104.861 E70.84339
G1 X132.04 Y105.587 E70.96473
G1 X132.526 Y106.359 E71.08609
G1 X132.942 Y107.17 E71.20736
G1 X133.286 Y108.015 E71.32873
G1 X133.555 Y108.886 E71.45001
G1 X133.746 Y109.778 E71.57137
G1 X133.858 Y110.683 E71.69269
G1 X133.891 Y111.51 E71.80281
G1 X133.891 Y123.491 E73.39677
G1 X133.851 Y124.402 E73.51808
G1 X133.731 Y125.306 E73.63941
G1 X133.533 Y126.196 E73.76071
G1 X133.257 Y127.065 E73.88201
G1 X132.907 Y127.907 E74.00332
G1 X132.484 Y128.715 E74.12466
G1 X131.992 Y129.483 E74.246
G1 X131.434 Y130.204 E74.3673
G1 X130.815 Y130.874 E74.48865
G1 X130.14 Y131.488 E74.61005
G1 X129.414 Y132.039 E74.7313
G1 X128.643 Y132.525 E74.85256
G1 X127.831 Y132.942 E74.974
G1 X126.987 Y133.286 E75.09525
G1 X126.115 Y133.554 E75.21662
G1 X125.224 Y133.746 E75.33788
G1 X124.319 Y133.858 E75.4592
G1 X123.491 Y133.891 E75.56944
G1 X111.509 Y133.891 E77.16354
G1 X110.598 Y133.851 E77.28485
G1 X109.694 Y133.731 E77.40618
G1 X108.804 Y133.533 E77.52748
G1 X107.935 Y133.257 E77.64878
G1 X107.093 Y132.907 E77.77009
G1 X106.285 Y132.484 E77.89143
G1 X105.517 Y131.992 E78.01277
G1 X104.796 Y131.434 E78.13407
G1 X104.126 Y130.815 E78.25542
G1 X103.512 Y130.14 E78.37682
G1 X102.961 Y129.414 E78.49808
G1 X102.475 Y128.643 E78.61933
G1 X102.058 Y127.831 E78.74077
G1 X101.714 Y126.987 E78.86202
G1 X101.446 Y126.115 E78.98339
G1 X101.254 Y125.224 E79.10465
G1 X101.142 Y124.319 E79.22597
G1 X101.109 Y123.491 E79.33622
G1 X101.109 Y111.509 E80.93031
G1 X101.149 Y110.598 E81.05162
G1 X101.269 Y109.694 E81.17295
G1 X101.467 Y108.804 E81.29425
G1 X101.743 Y107.935 E81.41555
G1 X102.093 Y107.093 E81.53686
G1 X102.516 Y106.285 E81.6582
G1 X103.008 Y105.517 E81.77954
G1 X103.566 Y104.796 E81.90084
G1 X104.185 Y104.126 E82.02219
M204 S5000
M205 X30 Y30
G1 F2400 E77.02219
;MESH:Prova dado.stl
G0 F3600 X112.714 Y110.835
G0 X112.714 Y112.714
G0 X112.77 Y112.77
G0 X111.9 Y111.9
M204 S500
M205 X20 Y20
;TYPE:WALL-OUTER
G1 F2400 E82.02219
G1 F1500 X123.1 Y111.9 E83.51225
G1 X123.1 Y123.1 E85.0023
G1 X111.9 Y123.1 E86.49236
G1 X111.9 Y111.9 E87.98241
M204 S5000
M205 X30 Y30
G0 F3600 X112.1 Y111.9
G0 X112.78 Y112.78
G1 F2400 E82.98241
G0 F3600 X112.78 Y112.8
G0 X114.799 Y115.198
G0 X115.508 Y115.751
M204 S500
M205 X20 Y20
G1 F2400 E87.98241
G1 F1500 X115.311 Y116.005 E88.02518
G1 X115.147 Y116.279 E88.06766
G1 X115.017 Y116.573 E88.11043
G1 X114.925 Y116.873 E88.15217
G1 X114.891 Y117.034 E88.17407
G1 X114.867 Y117.2 E88.19638
G1 X114.85 Y117.507 E88.23729
G1 X114.856 Y117.679 E88.26018
G1 X114.895 Y117.992 E88.30215
G1 X114.974 Y118.301 E88.34458
G1 X115.088 Y118.599 E88.38703
G1 X115.238 Y118.882 E88.42964
G1 X115.422 Y119.145 E88.47234
G1 X115.635 Y119.383 E88.51483
G1 X115.871 Y119.591 E88.55669
G1 X116.01 Y119.692 E88.57954
G1 X116.279 Y119.853 E88.62125
G1 X116.573 Y119.983 E88.66402
G1 X116.873 Y120.075 E88.70577
G1 X117.034 Y120.109 E88.72766
G1 X117.2 Y120.133 E88.74997
G1 X117.513 Y120.151 E88.79168
G1 X117.832 Y120.13 E88.83421
G1 X118.147 Y120.071 E88.87685
G1 X118.452 Y119.974 E88.91943
G1 X118.744 Y119.841 E88.96212
G1 X119.017 Y119.673 E89.00477
G1 X119.267 Y119.475 E89.04719
G1 X119.492 Y119.249 E89.08962
G1 X119.689 Y118.995 E89.13239
G1 X119.853 Y118.721 E89.17487
G1 X119.983 Y118.427 E89.21764
G1 X120.075 Y118.127 E89.25938
G1 X120.109 Y117.966 E89.28128
G1 X120.133 Y117.8 E89.30359
G1 X120.151 Y117.487 E89.3453
G1 X120.13 Y117.168 E89.38783
G1 X120.071 Y116.853 E89.43047
G1 X119.974 Y116.548 E89.47305
G1 X119.841 Y116.256 E89.51574
G1 X119.673 Y115.983 E89.55838
G1 X119.475 Y115.733 E89.60081
G1 X119.249 Y115.508 E89.64324
G1 X118.995 Y115.311 E89.686
G1 X118.721 Y115.147 E89.72849
G1 X118.427 Y115.017 E89.77125
G1 X118.127 Y114.925 E89.813
G1 X117.966 Y114.891 E89.83489
G1 X117.8 Y114.867 E89.85721
