;FLAVOR:Marlin
;TIME:2242
;Filament used: 7.41718m
;Layer height: 0.4
;POSTPROCESSED
;Generated with Cura_SteamEngine 4.0.0
M140 S70
M105
M190 S70
M104 S230
M105
M109 S230
M82 ;absolute extrusion mode
; Ender 3 Custom Start G-code
G28 ; Home all axes
G92 E0 ; Reset Extruder
G1 Z2.0 F3000 ; Move Z Axis up little to prevent scratching of Heat Bed
G1 X0.1 Y20 Z0.3 F5000.0 ; Move to start position
G1 X0.1 Y200.0 Z0.3 F1500.0 E15 ; Draw the first line
G1 X0.4 Y200.0 Z0.3 F5000.0 ; Move to side a little
G1 X0.4 Y20 Z0.3 F1500.0 E30 ; Draw the second line
G92 E0 ; Reset Extruder
G1 Z2.0 F3000 ; Move Z Axis up little to prevent scratching of Heat Bed
; End of custom start GCode
G92 E0
G1 F2400 E-5
;LAYER_COUNT:66
;LAYER:0
M107
M204 S5000
M205 X30 Y30
G0 F3600 X61.274 Y93.079 Z0.4
M204 S500
M205 X20 Y20
;TYPE:SKIRT
G1 F2400 E0
G1 F1500 X62.171 Y92.548 E0.13868
G1 X63.107 Y92.087 E0.27749
G1 X64.075 Y91.7 E0.41618
G1 X65.07 Y91.387 E0.55495
G1 X66.086 Y91.152 E0.69369
G1 X67.117 Y90.995 E0.83244
G1 X68.644 Y90.909 E1.03591
G1 X166.359 Y90.91 E14.03597
G1 X167.401 Y90.95 E14.1747
G1 X168.437 Y91.07 E14.31345
G1 X169.461 Y91.268 E14.45221
G1 X170.467 Y91.545 E14.59103
G1 X171.448 Y91.898 E14.72973
G1 X172.399 Y92.325 E14.86842
G1 X173.315 Y92.824 E15.0072
G1 X174.19 Y93.391 E15.14591
G1 X175.019 Y94.024 E15.28468
G1 X175.797 Y94.718 E15.42338
G1 X176.52 Y95.47 E15.56217
G1 X177.183 Y96.275 E15.70091
G1 X177.782 Y97.129 E15.83969
G1 X178.314 Y98.026 E15.97844
G1 X178.776 Y98.961 E16.11719
G1 X179.164 Y99.929 E16.25593
G1 X179.478 Y100.924 E16.39474
G1 X179.736 Y102.056 E16.5492
G1 X180.877 Y108.276 E17.39052
G1 X181.025 Y109.308 E17.52923
G1 X181.1 Y110.737 E17.7196
G1 X181.09 Y130.282 E20.31988
G1 X181.049 Y131.324 E20.45862
G1 X180.929 Y132.36 E20.59737
G1 X180.73 Y133.384 E20.73615
G1 X180.453 Y134.389 E20.87484
G1 X180.099 Y135.37 E21.01359
G1 X179.672 Y136.321 E21.15228
G1 X179.173 Y137.237 E21.29106
G1 X178.605 Y138.112 E21.42984
G1 X177.972 Y138.941 E21.56861
G1 X177.242 Y139.755 E21.71408
G1 X177.033 Y139.97 E21.75397
G1 X176.278 Y140.689 E21.89267
G1 X175.47 Y141.348 E22.03139
G1 X174.614 Y141.944 E22.17016
G1 X173.714 Y142.472 E22.30898
G1 X172.777 Y142.93 E22.44773
G1 X171.808 Y143.314 E22.5864
G1 X170.812 Y143.624 E22.72518
G1 X169.795 Y143.856 E22.86396
G1 X168.764 Y144.009 E23.00262
G1 X167.282 Y144.09 E23.20009
G1 X69.341 Y144.1 E36.23021
G1 X68.875 Y144.092 E36.29221
G1 X67.181 Y144.034 E36.51772
G1 X66.14 Y143.958 E36.65658
G1 X65.109 Y143.803 E36.79529
G1 X64.093 Y143.57 E36.93397
G1 X63.097 Y143.259 E37.07278
G1 X62.129 Y142.873 E37.21143
G1 X61.192 Y142.413 E37.3503
G1 X60.294 Y141.884 E37.48896
G1 X59.439 Y141.287 E37.62769
G1 X58.632 Y140.626 E37.76647
G1 X57.878 Y139.905 E37.90527
G1 X57.182 Y139.129 E38.04395
G1 X56.637 Y138.427 E38.16219
G1 X56.505 Y138.245 E38.1921
G1 X55.925 Y137.378 E38.33087
G1 X55.414 Y136.469 E38.46961
G1 X54.974 Y135.523 E38.60841
G1 X54.607 Y134.547 E38.74713
G1 X54.317 Y133.545 E38.88591
G1 X54.104 Y132.524 E39.02467
G1 X53.97 Y131.49 E39.16338
G1 X53.915 Y130.449 E39.30207
G1 X53.941 Y129.406 E39.44088
G1 X54.025 Y128.525 E39.55862
G1 X54.508 Y124.772 E40.06204
G1 X54.909 Y119.834 E40.72115
G1 X55.034 Y115.101 E41.35105
G1 X55.044 Y104.496 E42.76195
G1 X55.085 Y103.454 E42.90069
G1 X55.206 Y102.418 E43.03945
G1 X55.405 Y101.395 E43.1781
G1 X55.683 Y100.39 E43.31683
G1 X56.037 Y99.409 E43.45558
G1 X56.465 Y98.457 E43.59445
G1 X56.964 Y97.542 E43.7331
G1 X57.532 Y96.667 E43.87189
G1 X58.166 Y95.839 E44.01063
G1 X58.861 Y95.062 E44.14932
G1 X59.614 Y94.34 E44.28811
G1 X60.419 Y93.678 E44.42677
G1 X61.274 Y93.079 E44.56566
M204 S5000
M205 X30 Y30
G0 F3600 X62.04 Y93.544
M204 S500
M205 X20 Y20
G1 F1500 X62.927 Y93.057 E44.70029
G1 X63.849 Y92.641 E44.83486
G1 X64.802 Y92.299 E44.96956
G1 X65.778 Y92.034 E45.10411
G1 X66.772 Y91.847 E45.23867
G1 X67.778 Y91.738 E45.37329
G1 X68.644 Y91.709 E45.48857
G1 X166.359 Y91.71 E58.48863
G1 X167.37 Y91.75 E58.62324
G1 X168.375 Y91.87 E58.75789
G1 X169.367 Y92.068 E58.89247
G1 X170.34 Y92.345 E59.02706
G1 X171.288 Y92.697 E59.1616
G1 X172.206 Y93.123 E59.29624
G1 X173.087 Y93.621 E59.43088
G1 X173.926 Y94.186 E59.56545
G1 X174.718 Y94.816 E59.70009
G1 X175.457 Y95.507 E59.83469
G1 X176.14 Y96.253 E59.96925
G1 X176.761 Y97.052 E60.10388
G1 X177.318 Y97.896 E60.23842
G1 X177.806 Y98.783 E60.3731
G1 X178.223 Y99.705 E60.50773
G1 X178.565 Y100.657 E60.64231
G1 X178.831 Y101.633 E60.77689
G1 X178.949 Y102.2 E60.85394
G1 X180.09 Y108.42 E61.69526
G1 X180.233 Y109.422 E61.82992
G1 X180.3 Y110.737 E62.0051
G1 X180.29 Y130.282 E64.60537
G1 X180.249 Y131.292 E64.73986
G1 X180.129 Y132.297 E64.87451
G1 X179.93 Y133.289 E65.00912
G1 X179.653 Y134.262 E65.14371
G1 X179.3 Y135.21 E65.27829
G1 X178.874 Y136.128 E65.41293
G1 X178.376 Y137.008 E65.54745
G1 X177.81 Y137.847 E65.6821
G1 X177.18 Y138.639 E65.81674
G1 X176.668 Y139.197 E65.91749
G1 X176.459 Y139.412 E65.95738
G1 X175.726 Y140.109 E66.09195
G1 X174.94 Y140.746 E66.22655
G1 X174.106 Y141.319 E66.36117
G1 X173.229 Y141.824 E66.49581
G1 X172.315 Y142.258 E66.63042
G1 X171.37 Y142.619 E66.765
G1 X170.4 Y142.904 E66.89951
G1 X169.409 Y143.112 E67.03422
G1 X168.406 Y143.24 E67.16874
G1 X167.282 Y143.29 E67.31843
G1 X69.341 Y143.3 E80.34855
G1 X68.902 Y143.293 E80.40697
G1 X67.208 Y143.235 E80.63247
G1 X66.199 Y143.16 E80.76708
G1 X65.199 Y143.006 E80.90169
G1 X64.214 Y142.773 E81.03635
G1 X63.251 Y142.464 E81.1709
G1 X62.315 Y142.079 E81.30555
G1 X61.413 Y141.622 E81.44007
G1 X60.549 Y141.095 E81.57472
G1 X59.73 Y140.501 E81.70932
G1 X58.961 Y139.844 E81.84388
G1 X58.245 Y139.129 E81.9785
G1 X57.284 Y137.957 E82.18014
G1 X57.152 Y137.775 E82.21005
G1 X56.591 Y136.933 E82.34466
G1 X56.098 Y136.05 E82.4792
G1 X55.677 Y135.13 E82.6138
G1 X55.329 Y134.18 E82.74841
G1 X55.057 Y133.205 E82.88307
G1 X54.864 Y132.212 E83.01766
G1 X54.749 Y131.207 E83.15223
G1 X54.714 Y130.196 E83.28682
G1 X54.759 Y129.185 E83.42146
G1 X54.819 Y128.627 E83.49612
G1 X55.302 Y124.874 E83.99954
G1 X55.707 Y119.884 E84.66559
G1 X55.834 Y115.084 E85.30441
G1 X55.844 Y104.497 E86.71291
G1 X55.885 Y103.486 E86.84753
G1 X56.006 Y102.482 E86.98207
G1 X56.205 Y101.49 E87.11667
G1 X56.482 Y100.517 E87.25126
G1 X56.836 Y99.569 E87.38589
G1 X57.263 Y98.652 E87.52047
G1 X57.761 Y97.771 E87.65511
G1 X58.327 Y96.933 E87.78964
G1 X58.958 Y96.141 E87.92436
G1 X59.649 Y95.403 E88.05887
G1 X60.396 Y94.721 E88.19344
G1 X61.195 Y94.1 E88.32807
G1 X62.04 Y93.544 E88.46264
M204 S5000
M205 X30 Y30
G0 F3600 X61.968 Y94.538
M204 S500
M205 X20 Y20
G1 F1500 X62.803 Y94.026 E88.59295
G1 X63.678 Y93.585 E88.72331
G1 X64.585 Y93.216 E88.85358
G1 X65.52 Y92.923 E88.98394
G1 X66.475 Y92.707 E89.1142
G1 X67.445 Y92.569 E89.24455
G1 X68.644 Y92.509 E89.40427
G1 X166.359 Y92.51 E102.40432
G1 X167.338 Y92.55 E102.53468
G1 X168.31 Y92.67 E102.66498
G1 X169.269 Y92.868 E102.79525
G1 X170.209 Y93.144 E102.92559
G1 X171.123 Y93.496 E103.0559
G1 X172.006 Y93.922 E103.18633
G1 X172.851 Y94.418 E103.31668
G1 X173.652 Y94.981 E103.44694
G1 X174.405 Y95.607 E103.57722
G1 X175.105 Y96.293 E103.70761
G1 X175.746 Y97.034 E103.83796
G1 X176.324 Y97.824 E103.96819
G1 X176.836 Y98.66 E104.09861
G1 X177.279 Y99.534 E104.22897
G1 X177.648 Y100.441 E104.35924
G1 X177.942 Y101.375 E104.48951
G1 X178.162 Y102.345 E104.62184
G1 X179.303 Y108.565 E105.46316
G1 X179.44 Y109.535 E105.59349
G1 X179.5 Y110.736 E105.75347
G1 X179.49 Y130.281 E108.35375
G1 X179.45 Y131.26 E108.48411
G1 X179.329 Y132.232 E108.61442
G1 X179.13 Y133.191 E108.74472
G1 X178.854 Y134.131 E108.87506
G1 X178.501 Y135.045 E109.00541
G1 X178.075 Y135.927 E109.13572
G1 X177.579 Y136.772 E109.26608
G1 X177.016 Y137.573 E109.39634
G1 X176.094 Y138.639 E109.58384
G1 X175.885 Y138.854 E109.62374
G1 X175.175 Y139.528 E109.75398
G1 X174.411 Y140.142 E109.88438
G1 X173.6 Y140.691 E110.01467
G1 X172.747 Y141.173 E110.14502
G1 X171.857 Y141.583 E110.27538
G1 X170.937 Y141.919 E110.40569
G1 X169.993 Y142.18 E110.53599
G1 X169.03 Y142.362 E110.66638
G1 X168.056 Y142.465 E110.79668
G1 X167.282 Y142.49 E110.89971
G1 X69.341 Y142.5 E123.92983
G1 X68.929 Y142.493 E123.98465
G1 X67.235 Y142.435 E124.21016
G1 X66.259 Y142.362 E124.34037
G1 X65.291 Y142.209 E124.47075
G1 X64.339 Y141.977 E124.60111
G1 X63.409 Y141.669 E124.73145
G1 X62.508 Y141.286 E124.8617
G1 X61.64 Y140.831 E124.99208
G1 X60.813 Y140.306 E125.1224
G1 X60.031 Y139.716 E125.25273
G1 X59.3 Y139.064 E125.38304
G1 X58.624 Y138.355 E125.51337
G1 X57.932 Y137.487 E125.66106
G1 X57.8 Y137.305 E125.69097
G1 X57.258 Y136.49 E125.82119
G1 X56.784 Y135.632 E125.9516
G1 X56.381 Y134.739 E126.08194
G1 X56.053 Y133.816 E126.21226
G1 X55.801 Y132.87 E126.3425
G1 X55.627 Y131.905 E126.47296
G1 X55.533 Y130.93 E126.60327
G1 X55.518 Y129.951 E126.73354
G1 X55.612 Y128.729 E126.89659
G1 X56.097 Y124.957 E127.40255
G1 X56.507 Y119.914 E128.07569
G1 X56.634 Y115.105 E128.71571
G1 X56.644 Y104.498 E130.12687
G1 X56.685 Y103.519 E130.25723
G1 X56.805 Y102.547 E130.38752
G1 X57.005 Y101.588 E130.51786
G1 X57.282 Y100.648 E130.64823
G1 X57.635 Y99.734 E130.77858
G1 X58.061 Y98.852 E130.9089
G1 X58.558 Y98.008 E131.0392
G1 X59.121 Y97.207 E131.16946
G1 X59.749 Y96.455 E131.2998
G1 X60.435 Y95.756 E131.4301
G1 X61.177 Y95.116 E131.56047
G1 X61.968 Y94.538 E131.6908
M204 S5000
M205 X30 Y30
G0 F3600 X62.736 Y94.994
M204 S500
M205 X20 Y20
G1 F1500 X63.561 Y94.529 E131.81679
G1 X64.422 Y94.135 E131.94277
G1 X65.312 Y93.816 E132.06855
G1 X66.227 Y93.573 E132.1945
G1 X67.159 Y93.408 E132.32042
G1 X68.101 Y93.322 E132.44627
G1 X68.644 Y93.309 E132.51853
G1 X166.359 Y93.31 E145.51859
G1 X167.305 Y93.35 E145.64455
G1 X168.243 Y93.47 E145.77036
G1 X169.169 Y93.668 E145.89634
G1 X170.074 Y93.944 E146.02222
G1 X170.953 Y94.295 E146.14814
G1 X171.799 Y94.72 E146.2741
G1 X172.606 Y95.214 E146.39998
G1 X173.368 Y95.774 E146.52579
G1 X174.081 Y96.397 E146.65176
G1 X174.738 Y97.078 E146.77765
G1 X175.335 Y97.812 E146.90352
G1 X175.869 Y98.594 E147.0295
G1 X176.334 Y99.418 E147.15538
G1 X176.729 Y100.278 E147.28128
G1 X177.049 Y101.169 E147.40724
G1 X177.375 Y102.489 E147.58813
G1 X178.516 Y108.709 E148.42945
G1 X178.647 Y109.646 E148.55532
G1 X178.7 Y110.736 E148.7005
G1 X178.69 Y130.281 E151.30078
G1 X178.65 Y131.226 E151.42662
G1 X178.529 Y132.165 E151.55258
G1 X178.33 Y133.09 E151.67845
G1 X178.054 Y133.995 E151.80433
G1 X177.702 Y134.874 E151.9303
G1 X177.278 Y135.72 E152.0562
G1 X176.783 Y136.526 E152.18204
G1 X176.222 Y137.289 E152.30803
G1 X175.521 Y138.082 E152.44884
G1 X175.312 Y138.297 E152.48874
G1 X174.624 Y138.947 E152.61466
G1 X173.884 Y139.537 E152.74057
G1 X173.097 Y140.062 E152.86643
G1 X172.268 Y140.519 E152.99237
G1 X171.403 Y140.904 E153.11833
G1 X170.51 Y141.215 E153.24414
G1 X169.593 Y141.449 E153.37004
G1 X168.659 Y141.605 E153.49603
G1 X167.282 Y141.69 E153.67957
G1 X69.341 Y141.7 E166.70969
G1 X68.957 Y141.693 E166.76079
G1 X67.263 Y141.635 E166.98629
G1 X66.319 Y141.563 E167.11225
G1 X65.385 Y141.411 E167.23814
G1 X64.467 Y141.181 E167.36405
G1 X63.572 Y140.875 E167.48989
G1 X62.706 Y140.493 E167.61581
G1 X61.875 Y140.041 E167.74166
G1 X61.085 Y139.519 E167.86764
G1 X60.342 Y138.933 E167.99353
G1 X59.651 Y138.286 E168.11947
G1 X59.018 Y137.583 E168.24533
G1 X58.58 Y137.018 E168.34044
G1 X58.448 Y136.836 E168.37035
G1 X57.925 Y136.047 E168.49628
G1 X57.47 Y135.217 E168.62221
G1 X57.088 Y134.351 E168.74813
G1 X56.78 Y133.456 E168.87406
G1 X56.548 Y132.539 E168.9999
G1 X56.395 Y131.605 E169.12582
G1 X56.321 Y130.661 E169.25179
G1 X56.327 Y129.715 E169.37765
G1 X56.405 Y128.831 E169.49572
G1 X56.896 Y125.017 E170.00732
G1 X57.306 Y119.964 E170.68178
G1 X57.434 Y115.127 E171.32553
G1 X57.444 Y104.499 E172.73948
G1 X57.485 Y103.553 E172.86546
G1 X57.605 Y102.614 E172.9914
G1 X57.805 Y101.689 E173.1173
G1 X58.081 Y100.784 E173.24318
G1 X58.434 Y99.906 E173.36908
G1 X58.859 Y99.06 E173.49503
G1 X59.354 Y98.254 E173.62087
G1 X59.915 Y97.492 E173.74676
G1 X60.538 Y96.78 E173.87263
G1 X61.22 Y96.123 E173.99861
G1 X61.954 Y95.526 E174.12449
G1 X62.736 Y94.994 E174.25032
M204 S5000
M205 X30 Y30
G0 F3600 X62.729 Y95.955
M204 S500
M205 X20 Y20
G1 F1500 X63.501 Y95.47 E174.37161
G1 X64.312 Y95.054 E174.49287
G1 X65.157 Y94.711 E174.6142
G1 X66.029 Y94.443 E174.73557
G1 X66.921 Y94.253 E174.8569
G1 X67.826 Y94.141 E174.97822
G1 X68.644 Y94.109 E175.08713
G1 X166.359 Y94.11 E188.08719
G1 X167.27 Y94.15 E188.20851
G1 X168.174 Y94.27 E188.32983
G1 X169.064 Y94.468 E188.45113
G1 X169.934 Y94.744 E188.57256
G1 X170.775 Y95.094 E188.69375
G1 X171.583 Y95.517 E188.81509
G1 X172.351 Y96.01 E188.9365
G1 X173.072 Y96.567 E189.05772
G1 X173.742 Y97.186 E189.17907
G1 X174.356 Y97.861 E189.30047
G1 X174.907 Y98.587 E189.42172
G1 X175.393 Y99.358 E189.54298
G1 X175.81 Y100.17 E189.66442
G1 X176.154 Y101.014 E189.78567
G1 X176.422 Y101.886 E189.90704
G1 X176.588 Y102.634 E190.00897
G1 X177.729 Y108.854 E190.85029
G1 X177.854 Y109.757 E190.97158
G1 X177.9 Y110.735 E191.10183
G1 X177.89 Y130.28 E193.70211
G1 X177.85 Y131.191 E193.82343
G1 X177.729 Y132.095 E193.94477
G1 X177.531 Y132.985 E194.06607
G1 X177.255 Y133.854 E194.18737
G1 X176.904 Y134.696 E194.30874
G1 X176.48 Y135.504 E194.43013
G1 X175.987 Y136.271 E194.55144
G1 X175.43 Y136.992 E194.67265
G1 X174.947 Y137.524 E194.76825
G1 X174.738 Y137.739 E194.80814
G1 X174.075 Y138.365 E194.92945
G1 X173.359 Y138.929 E195.05071
G1 X172.596 Y139.429 E195.17207
G1 X171.792 Y139.861 E195.2935
G1 X170.954 Y140.22 E195.41479
G1 X170.088 Y140.504 E195.53604
G1 X169.2 Y140.711 E195.65735
G1 X168.297 Y140.84 E195.7787
G1 X167.282 Y140.89 E195.9139
G1 X69.341 Y140.9 E208.94403
G1 X68.984 Y140.894 E208.99153
G1 X67.29 Y140.836 E209.21703
G1 X66.381 Y140.765 E209.33833
G1 X65.482 Y140.614 E209.45961
G1 X64.599 Y140.386 E209.58094
G1 X63.739 Y140.08 E209.70238
G1 X62.91 Y139.701 E209.82365
G1 X62.117 Y139.251 E209.94496
G1 X61.367 Y138.732 E210.0663
G1 X60.665 Y138.151 E210.18753
G1 X60.016 Y137.509 E210.30898
G1 X59.227 Y136.548 E210.4744
G1 X59.095 Y136.366 E210.50431
G1 X58.593 Y135.605 E210.6256
G1 X58.159 Y134.803 E210.74692
G1 X57.797 Y133.966 E210.86824
G1 X57.509 Y133.1 E210.98966
G1 X57.299 Y132.213 E211.11093
G1 X57.167 Y131.311 E211.23221
G1 X57.115 Y130.4 E211.35361
G1 X57.143 Y129.489 E211.47487
G1 X57.199 Y128.933 E211.54921
G1 X57.69 Y125.119 E212.06082
G1 X58.106 Y119.995 E212.74476
G1 X58.234 Y115.15 E213.38956
G1 X58.244 Y104.499 E214.80658
G1 X58.285 Y103.588 E214.9279
G1 X58.405 Y102.684 E215.04923
G1 X58.605 Y101.795 E215.17045
G1 X58.881 Y100.925 E215.29189
G1 X59.232 Y100.084 E215.41313
G1 X59.656 Y99.277 E215.53441
G1 X60.149 Y98.509 E215.65582
G1 X60.707 Y97.788 E215.77712
G1 X61.327 Y97.119 E215.89846
G1 X62.002 Y96.506 E216.01977
G1 X62.729 Y95.955 E216.14113
M204 S5000
M205 X30 Y30
G1 F2400 E211.14113
G0 F3600 X166.407 Y103.839
G0 X167.028 Y104.46
G0 X167.02 Y109.747
G0 X163.9 Y111.9
M204 S500
M205 X20 Y20
;TYPE:SUPPORT
G1 F2400 E216.14113
G1 F1500 X166.713 Y111.9 E216.51538
G1 X167.1 Y111.513 E216.58819
G1 X167.1 Y130.1 E219.06101
G1 X163.9 Y130.1 E219.48674
G1 X163.9 Y111.9 E221.90808
M204 S5000
M205 X30 Y30
G1 F2400 E216.90808
G0 F3600 X167.02 Y109.747
G0 X168.153 Y109.747
G0 X168.165 Y120
G0 X164.22 Y120
M204 S500
M205 X20 Y20
G1 F2400 E221.90808
G1 F1500 X166.78 Y120 E222.24866
M204 S5000
M205 X30 Y30
G1 F2400 E217.24866
G0 F3600 X168.165 Y120
G0 X168.165 Y128
G0 X166.78 Y128
M204 S500
M205 X20 Y20
G1 F2400 E222.24866
G1 F1500 X164.22 Y128 E222.58925
M204 S5000
M205 X30 Y30
