;FLAVOR:Marlin
;TIME:332
;Filament used: 1.0923m
;Layer height: 0.4
;Generated with Cura_SteamEngine 4.0.0
M140 S70
M105
M190 S70
M104 S230
M105
M109 S230
M82 ;absolute extrusion mode
; Ender 3 Custom Start G-code
G28 ; Home all axes
G92 E0 ; Reset Extruder
G1 Z2.0 F3000 ; Move Z Axis up little to prevent scratching of Heat Bed
G1 X0.1 Y20 Z0.3 F5000.0 ; Move to start position
G1 X0.1 Y200.0 Z0.3 F1500.0 E15 ; Draw the first line
G1 X0.4 Y200.0 Z0.3 F5000.0 ; Move to side a little
G1 X0.4 Y20 Z0.3 F1500.0 E30 ; Draw the second line
G92 E0 ; Reset Extruder
G1 Z2.0 F3000 ; Move Z Axis up little to prevent scratching of Heat Bed
; End of custom start GCode
G92 E0
G1 F3000 E-10
;LAYER_COUNT:13
;LAYER:0
M107
M204 S5000
M205 X30 Y30
G0 F3600 X85.39 Y55.915 Z0.4
M204 S500
M205 X20 Y20
;TYPE:SKIRT
G1 F3000 E0
G1 F1500 X86.023 Y55.086 E0.1514
G1 X86.717 Y54.308 E0.30272
G1 X87.469 Y53.585 E0.45414
G1 X88.274 Y52.922 E0.60551
G1 X89.128 Y52.323 E0.75692
G1 X90.025 Y51.791 E0.9083
G1 X90.96 Y51.33 E1.05961
G1 X91.928 Y50.941 E1.21104
G1 X92.922 Y50.627 E1.36234
G1 X93.938 Y50.391 E1.51374
G1 X94.969 Y50.233 E1.66514
G1 X96.509 Y50.146 E1.88902
G1 X126.494 Y50.147 E6.24133
G1 X127.537 Y50.187 E6.39283
G1 X128.573 Y50.307 E6.54421
G1 X129.596 Y50.506 E6.69548
G1 X130.602 Y50.782 E6.84689
G1 X131.583 Y51.135 E6.99822
G1 X132.535 Y51.562 E7.14967
G1 X133.451 Y52.061 E7.30107
G1 X134.62 Y52.841 E7.50506
G1 X139.572 Y56.531 E8.40145
G1 X143.637 Y59.193 E9.10674
G1 X147.85 Y61.624 E9.81275
G1 X153.32 Y64.357 E10.7003
G1 X154.234 Y64.859 E10.85166
G1 X155.107 Y65.429 E11.003
G1 X155.934 Y66.064 E11.15434
G1 X156.71 Y66.761 E11.30574
G1 X157.43 Y67.515 E11.45706
G1 X158.091 Y68.323 E11.60859
G1 X158.687 Y69.178 E11.75987
G1 X159.216 Y70.077 E11.91127
G1 X159.675 Y71.013 E12.06259
G1 X160.061 Y71.982 E12.21399
G1 X160.371 Y72.978 E12.3654
G1 X160.604 Y73.994 E12.5167
G1 X160.758 Y75.026 E12.66815
G1 X160.841 Y76.524 E12.88592
G1 X160.84 Y88.511 E14.62582
G1 X160.8 Y89.553 E14.77718
G1 X160.68 Y90.589 E14.92856
G1 X160.481 Y91.613 E15.07997
G1 X160.205 Y92.618 E15.23125
G1 X159.852 Y93.6 E15.38271
G1 X159.425 Y94.551 E15.53403
G1 X158.785 Y95.699 E15.7248
G1 X155.291 Y101.311 E16.68436
G1 X152.983 Y105.585 E17.3894
G1 X150.916 Y109.994 E18.0962
G1 X149.042 Y114.657 E18.82564
G1 X148.312 Y116.728 E19.14438
G1 X146.847 Y121.516 E19.87115
G1 X145.659 Y126.363 E20.59552
G1 X145.195 Y128.668 E20.9368
G1 X144.812 Y130.916 E21.26779
G1 X143.992 Y137.631 E22.24971
G1 X143.826 Y138.66 E22.401
G1 X143.581 Y139.674 E22.55242
G1 X143.26 Y140.666 E22.70376
G1 X142.864 Y141.631 E22.85516
G1 X142.395 Y142.562 E23.00647
G1 X141.855 Y143.455 E23.15795
G1 X141.249 Y144.304 E23.30935
G1 X140.58 Y145.104 E23.46072
G1 X139.852 Y145.85 E23.61202
G1 X139.068 Y146.538 E23.76342
G1 X138.234 Y147.164 E23.91478
G1 X137.355 Y147.725 E24.06614
G1 X136.435 Y148.216 E24.2175
G1 X135.48 Y148.635 E24.36888
G1 X134.496 Y148.98 E24.52023
G1 X133.488 Y149.249 E24.67166
G1 X132.463 Y149.439 E24.82297
G1 X131.426 Y149.551 E24.97437
G1 X130.495 Y149.583 E25.10958
G1 X100.512 Y149.59 E29.46159
G1 X99.47 Y149.55 E29.61295
G1 X98.434 Y149.431 E29.76431
G1 X97.41 Y149.232 E29.91573
G1 X96.405 Y148.956 E30.067
G1 X95.423 Y148.603 E30.21847
G1 X94.472 Y148.176 E30.36978
G1 X93.556 Y147.678 E30.52112
G1 X92.68 Y147.111 E30.67258
G1 X91.851 Y146.478 E30.82398
G1 X91.073 Y145.784 E30.9753
G1 X90.35 Y145.032 E31.12672
G1 X89.687 Y144.227 E31.27809
G1 X89.088 Y143.374 E31.42938
G1 X88.556 Y142.477 E31.58076
G1 X88.094 Y141.542 E31.73214
G1 X87.705 Y140.574 E31.88356
G1 X87.391 Y139.58 E32.03487
G1 X87.155 Y138.564 E32.18627
G1 X86.997 Y137.533 E32.33766
G1 X86.909 Y135.985 E32.56272
G1 X86.911 Y130.995 E33.28701
G1 X86.951 Y129.952 E33.43851
G1 X87.072 Y128.917 E33.58976
G1 X87.231 Y128.065 E33.71557
G1 X88.659 Y121.605 E34.67587
G1 X89.026 Y119.447 E34.9936
G1 X89.659 Y114.503 E35.71707
G1 X90.004 Y109.632 E36.42587
G1 X90.074 Y104.74 E37.13601
G1 X89.866 Y99.86 E37.84498
G1 X89.384 Y94.998 E38.55416
G1 X88.61 Y90.062 E39.27937
G1 X88.154 Y87.788 E39.61601
G1 X87.626 Y85.493 E39.95783
G1 X86.298 Y80.67 E40.68394
G1 X84.701 Y75.934 E41.40939
G1 X83.8 Y73.568 E41.77688
G1 X83.466 Y72.58 E41.92826
G1 X83.209 Y71.57 E42.07953
G1 X83.031 Y70.542 E42.23096
G1 X82.931 Y69.504 E42.38233
G1 X82.909 Y68.727 E42.49515
G1 X82.909 Y63.746 E43.21814
G1 X82.949 Y62.704 E43.3695
G1 X83.069 Y61.668 E43.52088
G1 X83.267 Y60.644 E43.67226
G1 X83.544 Y59.639 E43.82358
G1 X83.897 Y58.657 E43.97504
G1 X84.324 Y57.706 E44.12636
G1 X84.823 Y56.79 E44.27776
G1 X85.39 Y55.915 E44.4291
M204 S5000
M205 X30 Y30
G0 F3600 X86.185 Y56.179
M204 S500
M205 X20 Y20
G1 F1500 X86.815 Y55.387 E44.57599
G1 X87.505 Y54.648 E44.72275
G1 X88.252 Y53.965 E44.86966
G1 X89.05 Y53.344 E45.01643
G1 X89.895 Y52.787 E45.16333
G1 X90.781 Y52.299 E45.31015
G1 X91.703 Y51.882 E45.45703
G1 X92.655 Y51.54 E45.60386
G1 X93.632 Y51.274 E45.75083
G1 X94.626 Y51.085 E45.8977
G1 X95.631 Y50.976 E46.04443
G1 X96.509 Y50.946 E46.17194
G1 X126.494 Y50.947 E50.52424
G1 X127.505 Y50.987 E50.6711
G1 X128.51 Y51.107 E50.81802
G1 X129.502 Y51.305 E50.96484
G1 X130.475 Y51.582 E51.11169
G1 X131.424 Y51.934 E51.2586
G1 X132.341 Y52.361 E51.40543
G1 X133.222 Y52.858 E51.55225
G1 X134.142 Y53.483 E51.71369
G1 X139.11 Y57.185 E52.61298
G1 X143.218 Y59.875 E53.32572
G1 X147.476 Y62.332 E54.03927
G1 X152.962 Y65.073 E54.92942
G1 X153.849 Y65.56 E55.0763
G1 X154.694 Y66.117 E55.2232
G1 X155.492 Y66.738 E55.36997
G1 X156.24 Y67.42 E55.51689
G1 X156.93 Y68.159 E55.66365
G1 X157.561 Y68.95 E55.81052
G1 X158.127 Y69.789 E55.95742
G1 X158.624 Y70.67 E56.10424
G1 X159.051 Y71.587 E56.25106
G1 X159.404 Y72.535 E56.3979
G1 X159.681 Y73.509 E56.54488
G1 X159.88 Y74.5 E56.69159
G1 X160 Y75.505 E56.8385
G1 X160.041 Y76.524 E56.98653
G1 X160.04 Y88.511 E58.72643
G1 X160 Y89.522 E58.87329
G1 X159.88 Y90.527 E59.02021
G1 X159.681 Y91.519 E59.16706
G1 X159.405 Y92.492 E59.31387
G1 X159.052 Y93.44 E59.4607
G1 X158.626 Y94.358 E59.60759
G1 X158.106 Y95.276 E59.76073
G1 X154.598 Y100.91 E60.72407
G1 X152.273 Y105.216 E61.43437
G1 X150.178 Y109.684 E62.15065
G1 X148.297 Y114.366 E62.88303
G1 X147.549 Y116.488 E63.20961
G1 X146.076 Y121.302 E63.94034
G1 X144.879 Y126.186 E64.67023
G1 X144.405 Y128.54 E65.01877
G1 X144.021 Y130.792 E65.35037
G1 X143.198 Y137.534 E66.33623
G1 X143.036 Y138.533 E66.48312
G1 X142.795 Y139.515 E66.62989
G1 X142.478 Y140.476 E66.77677
G1 X142.085 Y141.409 E66.92372
G1 X141.621 Y142.307 E67.07044
G1 X141.086 Y143.166 E67.21732
G1 X140.486 Y143.981 E67.36422
G1 X139.823 Y144.745 E67.51105
G1 X139.102 Y145.455 E67.65793
G1 X138.327 Y146.105 E67.80474
G1 X137.503 Y146.692 E67.95159
G1 X136.635 Y147.212 E68.09846
G1 X135.729 Y147.663 E68.24536
G1 X134.79 Y148.04 E68.39223
G1 X133.825 Y148.342 E68.539
G1 X132.838 Y148.566 E68.6859
G1 X131.837 Y148.712 E68.83273
G1 X130.495 Y148.783 E69.0278
G1 X100.512 Y148.79 E73.37981
G1 X99.501 Y148.75 E73.52667
G1 X98.496 Y148.631 E73.67356
G1 X97.504 Y148.432 E73.82042
G1 X96.531 Y148.156 E73.96722
G1 X95.583 Y147.804 E74.114
G1 X94.665 Y147.378 E74.2609
G1 X93.784 Y146.881 E74.40772
G1 X92.945 Y146.316 E74.55454
G1 X92.153 Y145.686 E74.70143
G1 X91.413 Y144.996 E74.84829
G1 X90.73 Y144.249 E74.99521
G1 X90.108 Y143.451 E75.14207
G1 X89.552 Y142.606 E75.28889
G1 X89.063 Y141.72 E75.43577
G1 X88.646 Y140.798 E75.58265
G1 X88.304 Y139.846 E75.72948
G1 X88.037 Y138.87 E75.87635
G1 X87.849 Y137.876 E76.02319
G1 X87.739 Y136.871 E76.16994
G1 X87.709 Y135.985 E76.29861
G1 X87.711 Y130.995 E77.02291
G1 X87.751 Y129.984 E77.16977
G1 X87.871 Y128.979 E77.31668
G1 X88.013 Y128.238 E77.42619
G1 X89.443 Y121.767 E78.38811
G1 X89.818 Y119.566 E78.71219
G1 X90.455 Y114.588 E79.44064
G1 X90.804 Y109.665 E80.157
G1 X90.874 Y104.717 E80.87527
G1 X90.666 Y99.818 E81.587
G1 X90.177 Y94.883 E82.30682
G1 X89.402 Y89.947 E83.03205
G1 X88.929 Y87.587 E83.38142
G1 X88.401 Y85.289 E83.72366
G1 X87.068 Y80.448 E84.45248
G1 X85.462 Y75.685 E85.18207
G1 X84.547 Y73.284 E85.55502
G1 X84.225 Y72.325 E85.70186
G1 X83.979 Y71.343 E85.8488
G1 X83.812 Y70.345 E85.99567
G1 X83.724 Y69.338 E86.14239
G1 X83.709 Y68.727 E86.23111
G1 X83.709 Y63.746 E86.95409
G1 X83.749 Y62.735 E87.10096
G1 X83.869 Y61.73 E87.24787
G1 X84.067 Y60.738 E87.39469
G1 X84.344 Y59.765 E87.54154
G1 X84.696 Y58.817 E87.68832
G1 X85.122 Y57.899 E87.83521
G1 X85.62 Y57.018 E87.98211
G1 X86.185 Y56.179 E88.12892
M204 S5000
M205 X30 Y30
G0 F3600 X86.98 Y56.453
M204 S500
M205 X20 Y20
G1 F1500 X87.606 Y55.7 E88.27106
G1 X88.292 Y55.001 E88.41322
G1 X89.033 Y54.359 E88.55553
G1 X89.823 Y53.781 E88.69761
G1 X90.658 Y53.269 E88.83978
G1 X91.533 Y52.827 E88.98207
G1 X92.44 Y52.457 E89.12425
G1 X93.374 Y52.163 E89.26638
G1 X94.329 Y51.946 E89.40853
G1 X95.299 Y51.807 E89.55076
G1 X96.509 Y51.746 E89.72662
G1 X126.494 Y51.747 E94.07892
G1 X127.473 Y51.787 E94.22114
G1 X128.445 Y51.907 E94.36329
G1 X129.405 Y52.105 E94.50557
G1 X130.345 Y52.382 E94.64781
G1 X131.259 Y52.733 E94.78992
G1 X132.141 Y53.159 E94.9321
G1 X132.986 Y53.655 E95.07432
G1 X133.664 Y54.124 E95.19398
G1 X138.663 Y57.849 E96.09887
G1 X142.793 Y60.554 E96.81547
G1 X147.082 Y63.029 E97.53424
G1 X152.605 Y65.788 E98.43036
G1 X153.462 Y66.262 E98.57251
G1 X154.279 Y66.803 E98.71474
G1 X155.048 Y67.41 E98.85694
G1 X155.765 Y68.077 E98.99908
G1 X156.426 Y68.8 E99.14127
G1 X157.025 Y69.575 E99.28345
G1 X157.559 Y70.396 E99.4256
G1 X158.024 Y71.258 E99.56777
G1 X158.418 Y72.155 E99.70997
G1 X158.737 Y73.082 E99.85227
G1 X158.979 Y74.031 E99.99442
G1 X159.144 Y74.996 E100.13652
G1 X159.228 Y75.972 E100.27871
G1 X159.241 Y76.524 E100.35886
G1 X159.24 Y88.511 E102.09876
G1 X159.2 Y89.49 E102.24098
G1 X159.08 Y90.462 E102.38314
G1 X158.882 Y91.421 E102.52527
G1 X158.605 Y92.361 E102.66751
G1 X158.253 Y93.275 E102.80968
G1 X157.828 Y94.158 E102.95192
G1 X157.427 Y94.853 E103.06839
G1 X153.906 Y100.508 E104.03531
G1 X151.552 Y104.868 E104.75451
G1 X149.448 Y109.355 E105.47384
G1 X147.548 Y114.082 E106.21331
G1 X146.793 Y116.226 E106.54324
G1 X145.304 Y121.092 E107.28186
G1 X144.101 Y125.999 E108.0152
G1 X143.62 Y128.391 E108.36935
G1 X143.228 Y130.684 E108.70701
G1 X142.404 Y137.437 E109.69447
G1 X142.245 Y138.404 E109.83671
G1 X142.009 Y139.354 E109.9788
G1 X141.695 Y140.282 E110.121
G1 X141.307 Y141.182 E110.26326
G1 X140.847 Y142.047 E110.40546
G1 X140.318 Y142.871 E110.54759
G1 X139.724 Y143.65 E110.68978
G1 X139.068 Y144.377 E110.83191
G1 X138.354 Y145.049 E110.97423
G1 X137.589 Y145.66 E111.11634
G1 X136.776 Y146.206 E111.25849
G1 X135.921 Y146.685 E111.40074
G1 X135.03 Y147.092 E111.54292
G1 X134.109 Y147.425 E111.68508
G1 X133.163 Y147.682 E111.82736
G1 X132.2 Y147.861 E111.96954
G1 X131.226 Y147.961 E112.11166
G1 X130.495 Y147.983 E112.21781
G1 X100.512 Y147.99 E116.56982
G1 X99.533 Y147.95 E116.71204
G1 X98.561 Y147.831 E116.85418
G1 X97.601 Y147.632 E116.99648
G1 X96.662 Y147.356 E117.13854
G1 X95.747 Y147.005 E117.28079
G1 X94.865 Y146.58 E117.4229
G1 X94.02 Y146.084 E117.56512
G1 X93.218 Y145.521 E117.70735
G1 X92.465 Y144.895 E117.84948
G1 X91.765 Y144.209 E117.99175
G1 X91.124 Y143.468 E118.13396
G1 X90.546 Y142.678 E118.27604
G1 X90.033 Y141.843 E118.41829
G1 X89.591 Y140.969 E118.56045
G1 X89.221 Y140.062 E118.70263
G1 X88.926 Y139.128 E118.8448
G1 X88.709 Y138.172 E118.98709
G1 X88.57 Y137.203 E119.12918
G1 X88.509 Y135.985 E119.3062
G1 X88.511 Y130.995 E120.03049
G1 X88.551 Y130.016 E120.17271
G1 X88.671 Y129.044 E120.31487
G1 X88.794 Y128.41 E120.40861
G1 X90.226 Y121.929 E121.37201
G1 X90.61 Y119.679 E121.70332
G1 X91.252 Y114.66 E122.43776
G1 X91.604 Y109.697 E123.15994
G1 X91.674 Y104.712 E123.88359
G1 X91.463 Y99.741 E124.60577
G1 X90.974 Y94.803 E125.32603
G1 X90.186 Y89.786 E126.06317
G1 X89.721 Y87.462 E126.40718
G1 X89.174 Y85.086 E126.76108
G1 X87.832 Y80.212 E127.49486
G1 X86.209 Y75.398 E128.23225
G1 X85.295 Y72.999 E128.60488
G1 X84.984 Y72.07 E128.74708
G1 X84.75 Y71.119 E128.88924
G1 X84.594 Y70.152 E129.03141
G1 X84.509 Y68.727 E129.23861
G1 X84.509 Y63.746 E129.9616
G1 X84.549 Y62.767 E130.10382
G1 X84.669 Y61.795 E130.24598
G1 X84.867 Y60.836 E130.38811
G1 X85.143 Y59.896 E130.53031
G1 X85.495 Y58.982 E130.67248
G1 X85.921 Y58.099 E130.81478
G1 X86.416 Y57.254 E130.95693
G1 X86.98 Y56.453 E131.09912
M204 S5000
M205 X30 Y30
G0 F3600 X87.213 Y57.499
M204 S500
M205 X20 Y20
G1 F1500 X87.773 Y56.737 E131.23638
G1 X88.396 Y56.024 E131.37381
G1 X89.077 Y55.367 E131.51116
G1 X89.811 Y54.77 E131.64849
G1 X90.593 Y54.236 E131.78594
G1 X91.417 Y53.771 E131.92327
G1 X92.277 Y53.376 E132.06064
G1 X93.167 Y53.056 E132.19792
G1 X94.082 Y52.812 E132.33537
G1 X95.013 Y52.646 E132.47264
G1 X95.956 Y52.56 E132.61008
G1 X96.509 Y52.546 E132.69037
G1 X126.494 Y52.547 E137.04268
G1 X127.44 Y52.587 E137.18011
G1 X128.379 Y52.707 E137.31751
G1 X129.304 Y52.905 E137.45482
G1 X130.209 Y53.181 E137.59215
G1 X131.088 Y53.533 E137.72959
G1 X131.934 Y53.957 E137.86694
G1 X132.741 Y54.451 E138.00428
G1 X133.186 Y54.766 E138.08342
G1 X138.194 Y58.497 E138.98988
G1 X142.382 Y61.24 E139.71655
G1 X146.708 Y63.737 E140.44156
G1 X152.247 Y66.504 E141.34027
G1 X153.075 Y66.962 E141.47762
G1 X153.861 Y67.489 E141.61498
G1 X154.6 Y68.08 E141.75232
G1 X155.287 Y68.732 E141.8898
G1 X155.916 Y69.439 E142.02716
G1 X156.483 Y70.196 E142.16444
G1 X156.984 Y70.999 E142.30182
G1 X157.416 Y71.841 E142.43918
G1 X157.774 Y72.717 E142.57654
G1 X158.058 Y73.62 E142.71394
G1 X158.265 Y74.543 E142.85124
G1 X158.392 Y75.481 E142.98863
G1 X158.441 Y76.524 E143.14019
G1 X158.44 Y88.511 E144.8801
G1 X158.4 Y89.456 E145.01738
G1 X158.28 Y90.395 E145.15479
G1 X158.082 Y91.32 E145.29209
G1 X157.806 Y92.226 E145.42956
G1 X157.454 Y93.104 E145.56687
G1 X157.03 Y93.95 E145.70422
G1 X156.748 Y94.43 E145.78503
G1 X153.213 Y100.107 E146.75573
G1 X150.842 Y104.499 E147.48019
G1 X148.711 Y109.044 E148.20881
G1 X146.8 Y113.799 E148.95265
G1 X146.027 Y115.993 E149.29029
G1 X144.534 Y120.873 E150.03103
G1 X143.315 Y125.844 E150.77394
G1 X142.835 Y128.23 E151.12721
G1 X142.434 Y130.581 E151.47338
G1 X141.609 Y137.34 E152.46173
G1 X141.455 Y138.274 E152.59913
G1 X141.223 Y139.191 E152.73642
G1 X140.914 Y140.086 E152.87386
G1 X140.53 Y140.951 E153.01123
G1 X140.075 Y141.78 E153.14849
G1 X139.551 Y142.569 E153.28597
G1 X138.963 Y143.31 E153.42327
G1 X138.314 Y143.999 E153.56066
G1 X137.609 Y144.631 E153.69809
G1 X136.854 Y145.201 E153.8354
G1 X136.053 Y145.705 E153.97277
G1 X135.213 Y146.14 E154.11007
G1 X134.338 Y146.502 E154.24752
G1 X133.436 Y146.789 E154.38491
G1 X132.514 Y146.999 E154.52216
G1 X131.577 Y147.13 E154.65949
G1 X130.495 Y147.183 E154.81673
G1 X100.512 Y147.19 E159.16874
G1 X99.566 Y147.15 E159.30618
G1 X98.627 Y147.031 E159.44356
G1 X97.702 Y146.833 E159.58087
G1 X96.797 Y146.557 E159.7182
G1 X95.918 Y146.206 E159.85558
G1 X95.072 Y145.782 E159.99294
G1 X94.265 Y145.288 E160.13028
G1 X93.502 Y144.727 E160.26774
G1 X92.789 Y144.105 E160.40508
G1 X92.132 Y143.424 E160.54243
G1 X91.534 Y142.69 E160.67985
G1 X91.001 Y141.909 E160.81709
G1 X90.535 Y141.085 E160.9545
G1 X90.14 Y140.225 E161.09186
G1 X89.82 Y139.334 E161.22928
G1 X89.576 Y138.42 E161.36659
G1 X89.41 Y137.488 E161.504
G1 X89.323 Y136.546 E161.64131
G1 X89.309 Y135.986 E161.72262
G1 X89.311 Y130.996 E162.44692
G1 X89.351 Y130.05 E162.58435
G1 X89.471 Y129.111 E162.72175
G1 X89.575 Y128.583 E162.79986
G1 X91.013 Y122.075 E163.76728
G1 X91.402 Y119.795 E164.103
G1 X92.048 Y114.745 E164.84198
G1 X92.403 Y109.73 E165.57173
G1 X92.475 Y104.707 E166.30089
