;FLAVOR:Marlin
;TIME:12774
;Filament used: 52.2714m
;Layer height: 0.4
;POSTPROCESSED
;Generated with Cura_SteamEngine 4.0.0
M140 S70
M105
M190 S70
M104 S230
M105
M109 S230
M82 ;absolute extrusion mode
; Ender 3 Custom Start G-code
G28 ; Home all axes
G92 E0 ; Reset Extruder
G1 Z2.0 F3000 ; Move Z Axis up little to prevent scratching of Heat Bed
G1 X0.1 Y20 Z0.3 F5000.0 ; Move to start position
G1 X0.1 Y200.0 Z0.3 F1500.0 E15 ; Draw the first line
G1 X0.4 Y200.0 Z0.3 F5000.0 ; Move to side a little
G1 X0.4 Y20 Z0.3 F1500.0 E30 ; Draw the second line
G92 E0 ; Reset Extruder
G1 Z2.0 F3000 ; Move Z Axis up little to prevent scratching of Heat Bed
; End of custom start GCode
G92 E0
G1 F3000 E-10
;LAYER_COUNT:71
;LAYER:0
M107
M204 S5000
M205 X30 Y30
G0 F3600 X43.742 Y26.166 Z0.4
M204 S500
M205 X20 Y20
;TYPE:SKIRT
G1 F3000 E0
G1 F1500 X44.298 Y25.284 E0.13871
G1 X44.921 Y24.447 E0.27753
G1 X45.895 Y23.362 E0.47151
G1 X46.113 Y23.144 E0.51252
G1 X46.879 Y22.436 E0.65129
G1 X47.696 Y21.788 E0.79003
G1 X48.56 Y21.204 E0.92877
G1 X49.467 Y20.689 E1.06753
G1 X50.41 Y20.245 E1.2062
G1 X51.385 Y19.874 E1.34499
G1 X52.385 Y19.579 E1.4837
G1 X53.405 Y19.361 E1.62246
G1 X54.439 Y19.222 E1.76126
G1 X55.73 Y19.161 E1.93321
G1 X183.835 Y19.16 E18.97637
G1 X184.877 Y19.2 E19.1151
G1 X185.913 Y19.32 E19.25385
G1 X186.937 Y19.518 E19.39261
G1 X187.942 Y19.795 E19.5313
G1 X188.924 Y20.148 E19.67013
G1 X189.875 Y20.575 E19.80882
G1 X190.791 Y21.074 E19.94759
G1 X191.666 Y21.641 E20.08631
G1 X192.495 Y22.274 E20.22507
G1 X193.273 Y22.968 E20.36378
G1 X193.996 Y23.72 E20.50256
G1 X194.659 Y24.525 E20.64131
G1 X195.258 Y25.379 E20.78009
G1 X195.79 Y26.276 E20.91883
G1 X196.251 Y27.211 E21.05752
G1 X196.64 Y28.179 E21.19632
G1 X196.954 Y29.173 E21.335
G1 X197.19 Y30.189 E21.47377
G1 X197.348 Y31.22 E21.61253
G1 X197.435 Y32.757 E21.81735
G1 X197.47 Y194.133 E43.2869
G1 X197.469 Y194.257 E43.30339
G1 X197.413 Y200.564 E44.14251
G1 X197.364 Y201.605 E44.28116
G1 X197.235 Y202.64 E44.41992
G1 X197.027 Y203.662 E44.55868
G1 X196.604 Y205.065 E44.75363
G1 X196.531 Y205.267 E44.78221
G1 X196.14 Y206.234 E44.92098
G1 X195.675 Y207.167 E45.05967
G1 X195.14 Y208.063 E45.1985
G1 X194.538 Y208.914 E45.33719
G1 X193.795 Y209.804 E45.49143
G1 X193.488 Y210.141 E45.55208
G1 X192.756 Y210.884 E45.69084
G1 X191.97 Y211.569 E45.82955
G1 X191.134 Y212.192 E45.96826
G1 X190.252 Y212.749 E46.10704
G1 X189.33 Y213.237 E46.24583
G1 X188.374 Y213.653 E46.38453
G1 X187.389 Y213.994 E46.52321
G1 X186.639 Y214.199 E46.62665
G1 X186.173 Y214.312 E46.69044
G1 X185.151 Y214.519 E46.82917
G1 X184.116 Y214.646 E46.9679
G1 X182.969 Y214.695 E47.12064
G1 X52.68 Y214.706 E64.45436
G1 X51.638 Y214.666 E64.59309
G1 X50.827 Y214.579 E64.7016
G1 X49.663 Y214.419 E64.85792
G1 X48.636 Y214.238 E64.99666
G1 X47.626 Y213.978 E65.13541
G1 X46.639 Y213.642 E65.27412
G1 X45.68 Y213.231 E65.41293
G1 X44.756 Y212.748 E65.55164
G1 X43.872 Y212.195 E65.69036
G1 X43.032 Y211.576 E65.82918
G1 X42.243 Y210.895 E65.96784
G1 X41.508 Y210.155 E66.1066
G1 X40.831 Y209.361 E66.24542
G1 X40.218 Y208.518 E66.38409
G1 X39.718 Y207.714 E66.51006
G1 X39.356 Y207.083 E66.60684
G1 X38.873 Y206.159 E66.74555
G1 X38.461 Y205.201 E66.88429
G1 X38.124 Y204.214 E67.02304
G1 X37.863 Y203.204 E67.16183
G1 X37.681 Y202.177 E67.30059
G1 X37.578 Y201.139 E67.43936
G1 X37.553 Y200.321 E67.54824
G1 X37.492 Y64.855 E85.57071
G1 X37.218 Y60.012 E86.21606
G1 X36.503 Y53.941 E87.02933
G1 X36.421 Y52.902 E87.16799
G1 X36.41 Y52.351 E87.24131
G1 X36.41 Y41.964 E88.6232
G1 X36.45 Y40.922 E88.76193
G1 X36.57 Y39.886 E88.90068
G1 X36.768 Y38.862 E89.03944
G1 X37.045 Y37.857 E89.17813
G1 X37.398 Y36.875 E89.31696
G1 X37.825 Y35.924 E89.45565
G1 X38.324 Y35.008 E89.59443
G1 X38.606 Y34.554 E89.66553
G1 X41.176 Y30.599 E90.29304
G1 X43.742 Y26.166 E90.97448
M204 S5000
M205 X30 Y30
G0 F3600 X44.434 Y26.566
M204 S500
M205 X20 Y20
G1 F1500 X44.975 Y25.711 E91.10909
G1 X45.582 Y24.902 E91.24365
G1 X46.461 Y23.928 E91.4182
G1 X46.679 Y23.71 E91.45921
G1 X47.422 Y23.023 E91.59384
G1 X48.217 Y22.398 E91.72838
G1 X49.059 Y21.837 E91.86299
G1 X49.943 Y21.344 E91.99765
G1 X50.863 Y20.923 E92.13225
G1 X51.813 Y20.575 E92.26685
G1 X52.787 Y20.304 E92.40136
G1 X53.78 Y20.11 E92.53596
G1 X54.786 Y19.996 E92.67066
G1 X55.73 Y19.961 E92.79634
G1 X183.835 Y19.96 E109.8395
G1 X184.846 Y20 E109.9741
G1 X185.85 Y20.12 E110.10863
G1 X186.843 Y20.318 E110.24334
G1 X187.816 Y20.595 E110.37793
G1 X188.764 Y20.947 E110.51247
G1 X189.682 Y21.373 E110.64711
G1 X190.563 Y21.871 E110.78174
G1 X191.402 Y22.436 E110.91632
G1 X192.194 Y23.066 E111.05095
G1 X192.933 Y23.756 E111.18547
G1 X193.616 Y24.503 E111.32013
G1 X194.237 Y25.301 E111.45465
G1 X194.794 Y26.146 E111.5893
G1 X195.282 Y27.032 E111.72387
G1 X195.699 Y27.954 E111.85849
G1 X196.041 Y28.906 E111.99307
G1 X196.307 Y29.882 E112.12766
G1 X196.496 Y30.876 E112.26227
G1 X196.605 Y31.882 E112.39689
G1 X196.635 Y32.757 E112.51337
G1 X196.67 Y194.133 E133.98292
G1 X196.669 Y194.25 E133.99849
G1 X196.613 Y200.557 E134.83761
G1 X196.565 Y201.567 E134.97213
G1 X196.436 Y202.571 E135.1068
G1 X196.228 Y203.561 E135.24138
G1 X195.852 Y204.793 E135.41275
G1 X195.779 Y204.995 E135.44133
G1 X195.398 Y205.933 E135.57602
G1 X194.944 Y206.837 E135.71061
G1 X194.42 Y207.702 E135.84516
G1 X193.829 Y208.524 E135.97985
G1 X193.203 Y209.265 E136.1089
G1 X192.896 Y209.602 E136.16955
G1 X192.186 Y210.322 E136.30408
G1 X191.421 Y210.984 E136.43867
G1 X190.606 Y211.584 E136.57331
G1 X189.746 Y212.117 E136.70792
G1 X188.847 Y212.581 E136.84251
G1 X187.914 Y212.972 E136.9771
G1 X186.953 Y213.289 E137.11173
G1 X186.45 Y213.421 E137.18091
G1 X185.984 Y213.534 E137.24471
G1 X184.993 Y213.734 E137.37921
G1 X183.988 Y213.854 E137.51386
G1 X182.969 Y213.895 E137.64954
G1 X52.68 Y213.906 E154.98326
G1 X51.669 Y213.866 E155.11787
G1 X50.936 Y213.787 E155.21595
G1 X49.772 Y213.627 E155.37227
G1 X48.776 Y213.449 E155.50688
G1 X47.797 Y213.194 E155.64147
G1 X46.841 Y212.862 E155.77611
G1 X45.915 Y212.456 E155.91062
G1 X45.023 Y211.978 E156.04526
G1 X44.172 Y211.43 E156.17992
G1 X43.367 Y210.818 E156.31446
G1 X42.613 Y210.143 E156.44909
G1 X41.914 Y209.411 E156.58375
G1 X41.276 Y208.627 E156.71822
G1 X40.701 Y207.794 E156.85289
G1 X40.412 Y207.316 E156.9272
G1 X40.05 Y206.685 E157.02398
G1 X39.582 Y205.788 E157.15858
G1 X39.186 Y204.857 E157.29318
G1 X38.865 Y203.897 E157.42785
G1 X38.62 Y202.916 E157.56238
G1 X38.454 Y201.918 E157.69697
G1 X38.367 Y200.91 E157.83158
G1 X38.353 Y200.321 E157.90996
G1 X38.292 Y64.845 E175.93376
G1 X38.013 Y59.924 E176.58951
G1 X37.298 Y53.848 E177.40344
G1 X37.21 Y52.351 E177.60294
G1 X37.21 Y41.964 E178.98484
G1 X37.25 Y40.953 E179.11945
G1 X37.37 Y39.948 E179.2541
G1 X37.568 Y38.956 E179.38868
G1 X37.845 Y37.983 E179.52327
G1 X38.197 Y37.035 E179.65781
G1 X38.623 Y36.117 E179.79245
G1 X39.277 Y34.99 E179.9658
G1 X41.848 Y31.033 E180.59361
G1 X44.434 Y26.566 E181.2803
M204 S5000
M205 X30 Y30
G0 F3600 X45.127 Y26.967
M204 S500
M205 X20 Y20
G1 F1500 X45.651 Y26.14 E181.41055
G1 X46.242 Y25.359 E181.54085
G1 X47.027 Y24.494 E181.69626
G1 X47.245 Y24.276 E181.73727
G1 X47.965 Y23.612 E181.86758
G1 X48.737 Y23.009 E181.9979
G1 X49.556 Y22.471 E182.12827
G1 X50.416 Y22.002 E182.25859
G1 X51.311 Y21.604 E182.3889
G1 X52.236 Y21.281 E182.51925
G1 X53.184 Y21.034 E182.64959
G1 X54.149 Y20.866 E182.7799
G1 X55.124 Y20.776 E182.91017
G1 X55.73 Y20.761 E182.99082
G1 X183.835 Y20.76 E200.03397
G1 X184.814 Y20.8 E200.16433
G1 X185.786 Y20.92 E200.29463
G1 X186.745 Y21.118 E200.4249
G1 X187.685 Y21.394 E200.55524
G1 X188.599 Y21.746 E200.68555
G1 X189.482 Y22.172 E200.81598
G1 X190.327 Y22.667 E200.94627
G1 X191.128 Y23.231 E201.0766
G1 X191.881 Y23.857 E201.20687
G1 X192.58 Y24.543 E201.33717
G1 X193.221 Y25.284 E201.46752
G1 X193.8 Y26.074 E201.59783
G1 X194.312 Y26.909 E201.72814
G1 X194.754 Y27.783 E201.85844
G1 X195.124 Y28.691 E201.98889
G1 X195.418 Y29.625 E202.11916
G1 X195.635 Y30.58 E202.24945
G1 X195.774 Y31.55 E202.37982
G1 X195.835 Y32.757 E202.5406
G1 X195.87 Y194.133 E224.01015
G1 X195.87 Y194.243 E224.02479
G1 X195.814 Y200.55 E224.86391
G1 X195.765 Y201.528 E224.99418
G1 X195.637 Y202.499 E225.12448
G1 X195.429 Y203.457 E225.25491
G1 X195.1 Y204.521 E225.40307
G1 X195.027 Y204.723 E225.43165
G1 X194.656 Y205.63 E225.56202
G1 X194.213 Y206.504 E225.69238
G1 X193.701 Y207.339 E225.82269
G1 X193.121 Y208.129 E225.95308
G1 X192.612 Y208.726 E226.05745
G1 X192.305 Y209.063 E226.1181
G1 X191.616 Y209.76 E226.24849
G1 X190.873 Y210.398 E226.37878
G1 X190.08 Y210.973 E226.5091
G1 X189.243 Y211.482 E226.63943
G1 X188.367 Y211.921 E226.76979
G1 X187.459 Y212.287 E226.90003
G1 X186.262 Y212.644 E227.06621
G1 X185.796 Y212.757 E227.13001
G1 X184.835 Y212.949 E227.26039
G1 X183.862 Y213.062 E227.3907
G1 X182.969 Y213.095 E227.50959
G1 X52.68 Y213.106 E244.84331
G1 X51.701 Y213.066 E244.97366
G1 X51.045 Y212.994 E245.06146
G1 X49.881 Y212.834 E245.21778
G1 X48.917 Y212.661 E245.34808
G1 X47.97 Y212.41 E245.47842
G1 X47.046 Y212.083 E245.60882
G1 X46.153 Y211.681 E245.73911
G1 X45.295 Y211.208 E245.86945
G1 X44.479 Y210.667 E245.99971
G1 X43.709 Y210.06 E246.13015
G1 X42.992 Y209.393 E246.26043
G1 X42.331 Y208.67 E246.39076
G1 X41.732 Y207.895 E246.52108
G1 X41.106 Y206.917 E246.67556
G1 X40.744 Y206.286 E246.77234
G1 X40.292 Y205.418 E246.90254
G1 X39.912 Y204.515 E247.03288
G1 X39.607 Y203.584 E247.16322
G1 X39.379 Y202.631 E247.29358
G1 X39.229 Y201.663 E247.4239
G1 X39.153 Y200.32 E247.60286
G1 X39.092 Y64.817 E265.63026
G1 X38.812 Y59.866 E266.28999
G1 X38.092 Y53.754 E267.10876
G1 X38.01 Y52.351 E267.29574
G1 X38.01 Y41.964 E268.67763
G1 X38.05 Y40.985 E268.80798
G1 X38.17 Y40.013 E268.93828
G1 X38.368 Y39.054 E269.06856
G1 X38.644 Y38.114 E269.19889
G1 X38.996 Y37.2 E269.3292
G1 X39.422 Y36.317 E269.45963
G1 X39.948 Y35.426 E269.59728
G1 X42.535 Y31.444 E270.22904
G1 X45.127 Y26.967 E270.91728
M204 S5000
M205 X30 Y30
G0 F3600 X45.819 Y27.368
M204 S500
M205 X20 Y20
G1 F1500 X46.327 Y26.57 E271.04313
G1 X46.901 Y25.817 E271.1691
G1 X47.592 Y25.059 E271.30556
G1 X47.81 Y24.841 E271.34658
G1 X48.507 Y24.201 E271.47247
G1 X49.256 Y23.622 E271.59842
G1 X50.05 Y23.108 E271.72425
G1 X50.886 Y22.663 E271.85025
G1 X51.755 Y22.29 E271.97606
G1 X52.653 Y21.992 E272.10194
G1 X53.574 Y21.771 E272.22795
G1 X54.509 Y21.628 E272.35379
G1 X55.73 Y21.561 E272.51647
G1 X183.835 Y21.56 E289.55963
G1 X184.78 Y21.6 E289.68547
G1 X185.719 Y21.72 E289.81141
G1 X186.645 Y21.918 E289.93739
G1 X187.55 Y22.194 E290.06327
G1 X188.428 Y22.545 E290.18906
G1 X189.274 Y22.97 E290.31502
G1 X190.082 Y23.464 E290.44102
G1 X190.844 Y24.024 E290.56683
G1 X191.557 Y24.647 E290.69279
G1 X192.214 Y25.328 E290.81868
G1 X192.811 Y26.062 E290.94456
G1 X193.345 Y26.844 E291.07054
G1 X193.81 Y27.667 E291.1963
G1 X194.205 Y28.528 E291.32233
G1 X194.525 Y29.418 E291.44815
G1 X194.769 Y30.333 E291.57414
G1 X194.935 Y31.264 E291.69995
G1 X195.021 Y32.207 E291.82593
G1 X195.035 Y32.758 E291.89926
G1 X195.07 Y194.134 E313.36881
G1 X195.07 Y194.235 E313.38225
G1 X195.014 Y200.542 E314.22137
G1 X194.965 Y201.488 E314.34739
G1 X194.837 Y202.425 E314.47321
G1 X194.63 Y203.349 E314.59919
G1 X194.347 Y204.25 E314.72483
G1 X194.274 Y204.452 E314.75341
G1 X193.915 Y205.327 E314.87923
G1 X193.484 Y206.169 E315.00508
G1 X192.983 Y206.972 E315.13099
G1 X192.415 Y207.73 E315.25701
G1 X192.021 Y208.187 E315.33729
G1 X191.714 Y208.524 E315.39794
G1 X191.047 Y209.197 E315.524
G1 X190.327 Y209.81 E315.6498
G1 X189.557 Y210.36 E315.77569
G1 X188.743 Y210.844 E315.90168
G1 X187.892 Y211.257 E316.02753
G1 X187.008 Y211.596 E316.15349
G1 X186.073 Y211.867 E316.283
G1 X185.607 Y211.98 E316.34679
G1 X184.679 Y212.164 E316.47266
G1 X183.739 Y212.268 E316.59848
G1 X182.969 Y212.295 E316.70098
G1 X52.68 Y212.306 E334.0347
G1 X51.734 Y212.266 E334.16067
G1 X51.154 Y212.202 E334.2383
G1 X49.99 Y212.042 E334.39462
G1 X49.059 Y211.873 E334.5205
G1 X48.145 Y211.627 E334.64643
G1 X47.255 Y211.304 E334.77239
G1 X46.396 Y210.908 E334.89823
G1 X45.573 Y210.44 E335.02419
G1 X44.793 Y209.904 E335.1501
G1 X44.061 Y209.305 E335.27594
G1 X43.382 Y208.646 E335.40182
G1 X42.761 Y207.932 E335.52772
G1 X42.202 Y207.168 E335.65366
G1 X41.8 Y206.519 E335.75523
G1 X41.438 Y205.888 E335.85201
G1 X41.002 Y205.048 E335.97792
G1 X40.639 Y204.174 E336.10383
G1 X40.351 Y203.273 E336.22967
G1 X40.14 Y202.351 E336.35551
G1 X40.007 Y201.414 E336.48142
G1 X39.953 Y200.32 E336.62714
G1 X39.892 Y64.79 E354.65813
G1 X39.609 Y59.794 E355.32386
G1 X38.887 Y53.661 E356.14543
G1 X38.81 Y52.351 E356.32002
G1 X38.81 Y41.964 E357.70191
G1 X38.85 Y41.018 E357.82788
G1 X38.97 Y40.08 E357.95369
G1 X39.168 Y39.154 E358.07967
G1 X39.444 Y38.249 E358.20554
G1 X39.795 Y37.37 E358.33147
G1 X40.22 Y36.524 E358.45742
G1 X40.618 Y35.862 E358.56019
G1 X43.221 Y31.856 E359.19578
G1 X45.819 Y27.368 E359.88569
M204 S5000
M205 X30 Y30
G0 F3600 X46.511 Y27.769
M204 S500
M205 X20 Y20
G1 F1500 X47.002 Y27 E360.00707
G1 X47.559 Y26.278 E360.12839
G1 X48.158 Y25.625 E360.24628
G1 X48.376 Y25.407 E360.2873
G1 X49.049 Y24.791 E360.40867
G1 X49.772 Y24.236 E360.52994
G1 X50.542 Y23.747 E360.65129
G1 X51.352 Y23.328 E360.77262
G1 X52.195 Y22.98 E360.89395
G1 X53.065 Y22.708 E361.01522
G1 X53.956 Y22.513 E361.13656
G1 X54.861 Y22.397 E361.25795
G1 X55.73 Y22.361 E361.37366
G1 X183.835 Y22.36 E378.41682
G1 X184.746 Y22.4 E378.53814
G1 X185.65 Y22.52 E378.65946
G1 X186.54 Y22.718 E378.78076
G1 X187.409 Y22.994 E378.90207
G1 X188.251 Y23.344 E379.02338
G1 X189.059 Y23.767 E379.14471
G1 X189.827 Y24.259 E379.26606
G1 X190.548 Y24.817 E379.38735
G1 X191.218 Y25.436 E379.50871
G1 X191.832 Y26.111 E379.6301
G1 X192.383 Y26.837 E379.75136
G1 X192.869 Y27.608 E379.87261
G1 X193.286 Y28.419 E379.99394
G1 X193.63 Y29.264 E380.11531
G1 X193.898 Y30.136 E380.23668
G1 X194.09 Y31.027 E380.35794
G1 X194.202 Y31.932 E380.47926
G1 X194.235 Y32.758 E380.58924
G1 X194.27 Y194.134 E402.05879
G1 X194.27 Y194.228 E402.0713
G1 X194.214 Y200.535 E402.91042
G1 X194.166 Y201.446 E403.03178
G1 X194.038 Y202.349 E403.15312
G1 X193.832 Y203.237 E403.2744
G1 X193.595 Y203.978 E403.3779
G1 X193.522 Y204.18 E403.40648
G1 X193.175 Y205.023 E403.52776
G1 X192.755 Y205.832 E403.64903
G1 X192.266 Y206.602 E403.77038
G1 X191.429 Y207.649 E403.94871
G1 X191.122 Y207.986 E404.00936
G1 X190.479 Y208.632 E404.13062
G1 X189.782 Y209.22 E404.25194
G1 X189.036 Y209.744 E404.37323
G1 X188.247 Y210.201 E404.49454
G1 X187.42 Y210.588 E404.61601
G1 X186.564 Y210.9 E404.73722
G1 X185.885 Y211.089 E404.83099
G1 X185.419 Y211.202 E404.89478
G1 X184.524 Y211.378 E405.01614
G1 X183.617 Y211.475 E405.13749
G1 X182.969 Y211.495 E405.22374
G1 X52.68 Y211.506 E422.55746
G1 X51.769 Y211.466 E422.67878
G1 X51.263 Y211.409 E422.74652
G1 X50.099 Y211.249 E422.90284
G1 X49.202 Y211.085 E423.02415
G1 X48.322 Y210.844 E423.14554
G1 X47.468 Y210.526 E423.26678
G1 X46.644 Y210.135 E423.38812
G1 X45.858 Y209.673 E423.50942
G1 X45.115 Y209.144 E423.63076
G1 X44.421 Y208.551 E423.75221
G1 X43.782 Y207.901 E423.87347
G1 X43.203 Y207.197 E423.99474
G1 X42.494 Y206.121 E424.16617
G1 X42.132 Y205.49 E424.26296
G1 X41.713 Y204.68 E424.38428
G1 X41.367 Y203.836 E424.50564
G1 X41.096 Y202.966 E424.62687
G1 X40.903 Y202.074 E424.74829
G1 X40.788 Y201.17 E424.86952
G1 X40.753 Y200.32 E424.9827
G1 X40.692 Y64.761 E443.01755
G1 X40.407 Y59.737 E443.68702
G1 X39.681 Y53.567 E444.51354
G1 X39.61 Y52.351 E444.6756
G1 X39.61 Y41.964 E446.05749
G1 X39.65 Y41.053 E446.1788
