;FLAVOR:Marlin
;TIME:16344
;Filament used: 65.726m
;Layer height: 0.4
;POSTPROCESSED
;Generated with Cura_SteamEngine 4.0.0
M140 S70
M105
M190 S70
M104 S230
M105
M109 S230
M82 ;absolute extrusion mode
; Ender 3 Custom Start G-code
G28 ; Home all axes
G92 E0 ; Reset Extruder
G1 Z2.0 F3000 ; Move Z Axis up little to prevent scratching of Heat Bed
G1 X0.1 Y20 Z0.3 F5000.0 ; Move to start position
G1 X0.1 Y200.0 Z0.3 F1500.0 E15 ; Draw the first line
G1 X0.4 Y200.0 Z0.3 F5000.0 ; Move to side a little
G1 X0.4 Y20 Z0.3 F1500.0 E30 ; Draw the second line
G92 E0 ; Reset Extruder
G1 Z2.0 F3000 ; Move Z Axis up little to prevent scratching of Heat Bed
; End of custom start GCode
G92 E0
G1 F3000 E-10
;LAYER_COUNT:117
;LAYER:0
M107
M204 S5000
M205 X30 Y30
G0 F3600 X44.588 Y26.186 Z0.4
M204 S500
M205 X20 Y20
;TYPE:SKIRT
G1 F3000 E0
G1 F1500 X45.137 Y25.299 E0.15141
G1 X45.751 Y24.457 E0.30267
G1 X46.428 Y23.664 E0.45402
G1 X47.165 Y22.925 E0.60551
G1 X47.955 Y22.245 E0.7568
G1 X48.796 Y21.627 E0.90829
G1 X49.681 Y21.076 E1.05961
G1 X50.606 Y20.594 E1.21101
G1 X51.565 Y20.184 E1.36239
G1 X52.552 Y19.849 E1.51368
G1 X53.563 Y19.591 E1.66513
G1 X54.59 Y19.411 E1.81647
G1 X55.628 Y19.31 E1.96785
G1 X56.671 Y19.289 E2.11927
G1 X57.4 Y19.322 E2.22519
G1 X59.494 Y19.473 E2.52992
G1 X64.522 Y19.633 E3.2601
G1 X69.953 Y19.525 E4.04857
G1 X70.314 Y19.522 E4.10097
G1 X77.736 Y19.572 E5.17829
G1 X85.653 Y19.421 E6.32764
G1 X86.163 Y19.421 E6.40167
G1 X93.332 Y19.554 E7.44243
G1 X96.349 Y19.451 E7.8806
G1 X96.981 Y19.444 E7.97234
G1 X102.856 Y19.517 E8.82515
G1 X107.47 Y19.388 E9.49513
G1 X108.252 Y19.389 E9.60864
G1 X113.497 Y19.544 E10.37028
G1 X120.141 Y19.343 E11.33509
G1 X124.6 Y19.042 E11.98379
G1 X125.576 Y19.011 E12.12553
G1 X130.62 Y19.033 E12.85767
G1 X131.101 Y19.044 E12.9275
G1 X136.636 Y19.264 E13.73154
G1 X141.528 Y19.175 E14.44172
G1 X146.398 Y18.811 E15.15057
G1 X151.241 Y18.171 E15.85964
G1 X156.038 Y17.26 E16.56837
G1 X160.923 Y16.051 E17.29882
G1 X161.944 Y15.839 E17.45017
G1 X162.978 Y15.706 E17.6015
G1 X164.234 Y15.652 E17.78397
G1 X165.505 Y15.656 E17.96846
G1 X166.547 Y15.699 E18.11983
G1 X167.582 Y15.822 E18.27112
G1 X168.696 Y16.046 E18.43605
G1 X173.917 Y17.324 E19.21625
G1 X176.14 Y17.768 E19.54529
G1 X181.088 Y18.543 E20.27224
G1 X185.285 Y18.987 E20.88483
G1 X186.317 Y19.136 E21.03618
G1 X187.335 Y19.364 E21.1876
G1 X188.332 Y19.669 E21.33894
G1 X189.303 Y20.05 E21.49034
G1 X190.242 Y20.504 E21.64173
G1 X191.477 Y21.249 E21.85108
G1 X196.791 Y24.846 E22.78249
G1 X197.632 Y25.463 E22.93389
G1 X198.423 Y26.143 E23.0853
G1 X199.159 Y26.881 E23.23658
G1 X199.837 Y27.674 E23.38802
G1 X200.452 Y28.516 E23.53937
G1 X201 Y29.403 E23.6907
G1 X201.479 Y30.329 E23.84203
G1 X201.886 Y31.29 E23.99351
G1 X202.071 Y31.811 E24.07376
G1 X202.455 Y32.964 E24.25016
G1 X202.747 Y33.965 E24.40151
G1 X202.96 Y34.986 E24.55289
G1 X203.095 Y36.02 E24.70425
G1 X203.151 Y37.061 E24.85557
G1 X203.126 Y38.104 E25.00701
G1 X203.021 Y39.142 E25.15844
G1 X202.838 Y40.168 E25.30971
G1 X202.519 Y41.361 E25.48896
G1 X200.814 Y46.753 E26.3098
G1 X199.574 Y51.599 E27.03586
G1 X199.113 Y53.789 E27.3607
G1 X198.289 Y58.713 E28.08535
G1 X197.758 Y63.566 E28.79397
G1 X197.5 Y68.469 E29.50662
G1 X197.447 Y200.583 E48.68288
G1 X197.407 Y201.626 E48.83438
G1 X197.286 Y202.661 E48.98563
G1 X197.087 Y203.685 E49.13704
G1 X196.745 Y204.891 E49.319
G1 X196.639 Y205.208 E49.36751
G1 X196.271 Y206.184 E49.51891
G1 X195.829 Y207.128 E49.67021
G1 X195.315 Y208.036 E49.82166
G1 X194.734 Y208.902 E49.97303
G1 X193.826 Y210.019 E50.18197
G1 X193.522 Y210.355 E50.24774
G1 X192.793 Y211.101 E50.39914
G1 X192.009 Y211.789 E50.55054
G1 X191.175 Y212.415 E50.7019
G1 X190.295 Y212.975 E50.8533
G1 X189.375 Y213.466 E51.00467
G1 X188.42 Y213.885 E51.15604
G1 X187.436 Y214.23 E51.30739
G1 X186.792 Y214.411 E51.40449
G1 X186.352 Y214.523 E51.47039
G1 X185.332 Y214.741 E51.62179
G1 X184.299 Y214.881 E51.7731
G1 X183.011 Y214.943 E51.96026
G1 X156.052 Y214.97 E55.87335
G1 X150.942 Y215.114 E56.61535
G1 X146.079 Y215.528 E57.32377
G1 X141.255 Y216.214 E58.03101
G1 X136.365 Y217.195 E58.75493
G1 X134.168 Y217.732 E59.08322
G1 X129.344 Y219.135 E59.81243
G1 X125.658 Y220.402 E60.37817
G1 X124.66 Y220.703 E60.52948
G1 X123.641 Y220.927 E60.68092
G1 X122.609 Y221.072 E60.83218
G1 X121.242 Y221.141 E61.03085
G1 X94.499 Y221.153 E64.91258
G1 X94.275 Y221.151 E64.9451
G1 X78.07 Y220.891 E67.29754
G1 X77.028 Y220.835 E67.44901
G1 X75.995 Y220.698 E67.60026
G1 X74.974 Y220.483 E67.75171
G1 X74.156 Y220.25 E67.87516
G1 X68.224 Y218.358 E68.77892
G1 X63.329 Y217.006 E69.51603
G1 X61.009 Y216.469 E69.86168
G1 X58.731 Y216.011 E70.19895
G1 X53.644 Y215.209 E70.94644
G1 X49.925 Y214.747 E71.4904
G1 X48.896 Y214.579 E71.64174
G1 X47.883 Y214.333 E71.79305
G1 X46.891 Y214.009 E71.94452
G1 X45.927 Y213.611 E72.0959
G1 X44.997 Y213.139 E72.24728
G1 X44.106 Y212.598 E72.39858
G1 X43.258 Y211.991 E72.54995
G1 X42.089 Y210.97 E72.77524
G1 X41.759 Y210.647 E72.84226
G1 X41.042 Y209.89 E72.9936
G1 X40.386 Y209.079 E73.14501
G1 X39.793 Y208.221 E73.2964
G1 X39.268 Y207.32 E73.44776
G1 X38.813 Y206.382 E73.59908
G1 X38.479 Y205.544 E73.73002
G1 X38.361 Y205.217 E73.78048
G1 X38.045 Y204.223 E73.93187
G1 X37.806 Y203.208 E74.08323
G1 X37.646 Y202.178 E74.23453
G1 X37.565 Y201.138 E74.38594
G1 X37.554 Y200.608 E74.46289
G1 X37.53 Y153.381 E81.31785
G1 X37.386 Y148.275 E82.05928
G1 X36.972 Y143.41 E82.76798
G1 X36.285 Y138.581 E83.47597
G1 X35.305 Y133.699 E84.19872
G1 X34.771 Y131.514 E84.52521
G1 X33.381 Y126.73 E85.24832
G1 X30.608 Y118.915 E86.45195
G1 X30.297 Y117.919 E86.60341
G1 X30.064 Y116.903 E86.75471
G1 X29.908 Y115.872 E86.90606
G1 X29.833 Y114.832 E87.05741
G1 X29.837 Y113.789 E87.2088
G1 X29.884 Y113.104 E87.30846
G1 X30.48 Y106.711 E88.24042
G1 X30.633 Y101.867 E88.94388
G1 X30.511 Y96.973 E89.65446
G1 X30.097 Y91.911 E90.39166
G1 X29.77 Y89.03 E90.81252
G1 X29.692 Y87.99 E90.9639
G1 X29.694 Y86.947 E91.11529
G1 X29.823 Y85.549 E91.31907
G1 X30.54 Y80.599 E92.04505
G1 X30.968 Y75.742 E92.75278
G1 X31.122 Y70.862 E93.46146
G1 X30.997 Y65.856 E94.1883
G1 X30.863 Y63.788 E94.4891
G1 X30.836 Y62.746 E94.6404
G1 X30.854 Y62.2 E94.71969
G1 X31.269 Y54.264 E95.87317
G1 X31.409 Y52.902 E96.0719
G1 X31.857 Y49.996 E96.49869
G1 X32.055 Y48.972 E96.65008
G1 X32.378 Y47.82 E96.82374
G1 X33.371 Y44.8 E97.28518
G1 X33.735 Y43.822 E97.43665
G1 X34.172 Y42.876 E97.5879
G1 X34.433 Y42.389 E97.6681
G1 X36.202 Y39.239 E98.19249
G1 X36.993 Y37.993 E98.40671
G1 X40.059 Y33.7 E99.17243
G1 X42.694 Y29.532 E99.88817
G1 X44.588 Y26.186 E100.44625
M204 S5000
M205 X30 Y30
G0 F3600 X45.284 Y26.58
M204 S500
M205 X20 Y20
G1 F1500 X45.817 Y25.72 E100.59311
G1 X46.416 Y24.905 E100.73992
G1 X47.078 Y24.14 E100.88677
G1 X47.798 Y23.429 E101.03364
G1 X48.572 Y22.777 E101.18053
G1 X49.395 Y22.189 E101.32735
G1 X50.262 Y21.667 E101.47424
G1 X51.167 Y21.216 E101.62101
G1 X52.106 Y20.837 E101.76799
G1 X53.071 Y20.534 E101.9148
G1 X54.057 Y20.308 E102.06163
G1 X55.058 Y20.16 E102.2085
G1 X56.067 Y20.092 E102.35529
G1 X57.343 Y20.12 E102.54054
G1 X59.438 Y20.271 E102.84542
G1 X64.532 Y20.433 E103.58519
G1 X69.969 Y20.325 E104.37452
G1 X70.309 Y20.322 E104.42387
G1 X77.746 Y20.372 E105.50337
G1 X85.668 Y20.221 E106.65345
G1 X86.149 Y20.221 E106.72327
G1 X93.326 Y20.354 E107.76518
G1 X96.376 Y20.25 E108.20815
G1 X96.971 Y20.244 E108.29452
G1 X102.869 Y20.318 E109.15067
G1 X107.492 Y20.188 E109.82196
G1 X108.229 Y20.189 E109.92894
G1 X113.498 Y20.345 E110.69407
G1 X120.166 Y20.143 E111.66237
G1 X124.654 Y19.84 E112.31528
G1 X125.573 Y19.811 E112.44874
G1 X130.617 Y19.833 E113.18088
G1 X131.069 Y19.843 E113.2465
G1 X136.636 Y20.064 E114.05518
G1 X141.567 Y19.974 E114.77103
G1 X146.472 Y19.608 E115.48497
G1 X151.375 Y18.96 E116.20283
G1 X156.195 Y18.045 E116.91494
G1 X161.115 Y16.827 E117.65063
G1 X162.106 Y16.623 E117.79749
G1 X163.11 Y16.498 E117.94435
G1 X164.231 Y16.452 E118.1072
G1 X165.502 Y16.456 E118.29168
G1 X166.513 Y16.499 E118.43856
G1 X167.517 Y16.622 E118.58538
G1 X168.506 Y16.823 E118.73187
G1 X173.731 Y18.102 E119.51266
G1 X176.007 Y18.557 E119.84956
G1 X180.979 Y19.335 E120.58002
G1 X185.201 Y19.782 E121.19627
G1 X186.202 Y19.928 E121.3431
G1 X187.189 Y20.153 E121.49004
G1 X188.154 Y20.455 E121.63681
G1 X189.093 Y20.832 E121.78368
G1 X189.999 Y21.282 E121.93051
G1 X191.029 Y21.911 E122.10569
G1 X196.343 Y25.508 E123.0371
G1 X197.158 Y26.108 E123.184
G1 X197.923 Y26.77 E123.33084
G1 X198.633 Y27.491 E123.47772
G1 X199.284 Y28.265 E123.62452
G1 X199.872 Y29.089 E123.77145
G1 X200.393 Y29.956 E123.91827
G1 X200.843 Y30.862 E124.0651
G1 X201.312 Y32.063 E124.25225
G1 X201.696 Y33.216 E124.42864
G1 X201.978 Y34.188 E124.57554
G1 X202.182 Y35.179 E124.7224
G1 X202.307 Y36.183 E124.86926
G1 X202.352 Y37.194 E125.01615
G1 X202.317 Y38.205 E125.16298
G1 X202.203 Y39.21 E125.30979
G1 X202.009 Y40.203 E125.45665
G1 X201.756 Y41.12 E125.59473
G1 X200.044 Y46.533 E126.41878
G1 X198.794 Y51.419 E127.15082
G1 X198.327 Y53.635 E127.47954
G1 X197.497 Y58.6 E128.2102
G1 X196.96 Y63.507 E128.9267
G1 X196.7 Y68.446 E129.64459
G1 X196.647 Y200.583 E148.82418
G1 X196.607 Y201.594 E148.97104
G1 X196.487 Y202.599 E149.11795
G1 X196.287 Y203.591 E149.26484
G1 X195.986 Y204.637 E149.42283
G1 X195.88 Y204.954 E149.47134
G1 X195.522 Y205.9 E149.61816
G1 X195.09 Y206.815 E149.76503
G1 X194.587 Y207.693 E149.9119
G1 X194.016 Y208.528 E150.05873
G1 X193.233 Y209.483 E150.23798
G1 X192.929 Y209.819 E150.30375
G1 X192.221 Y210.542 E150.45063
G1 X191.458 Y211.206 E150.59745
G1 X190.645 Y211.809 E150.74437
G1 X189.787 Y212.345 E150.89121
G1 X188.89 Y212.812 E151.038
G1 X187.958 Y213.206 E151.18487
G1 X186.594 Y213.635 E151.39241
G1 X186.154 Y213.747 E151.45832
G1 X185.165 Y213.958 E151.6051
G1 X184.162 Y214.09 E151.75194
G1 X183.01 Y214.143 E151.91933
G1 X156.029 Y214.17 E155.8356
G1 X150.904 Y214.315 E156.57979
G1 X145.989 Y214.733 E157.29578
G1 X141.109 Y215.427 E158.01123
G1 X136.207 Y216.41 E158.73692
G1 X133.966 Y216.958 E159.07178
G1 X129.088 Y218.376 E159.80913
G1 X125.398 Y219.645 E160.37552
G1 X124.429 Y219.936 E160.52237
G1 X123.44 Y220.15 E160.66925
G1 X122.438 Y220.284 E160.81598
G1 X121.242 Y220.341 E160.98978
G1 X94.499 Y220.353 E164.87151
G1 X94.288 Y220.351 E164.90213
G1 X78.083 Y220.091 E167.25458
G1 X77.072 Y220.035 E167.40155
G1 X76.07 Y219.899 E167.54832
G1 X75.081 Y219.685 E167.6952
G1 X74.399 Y219.488 E167.79824
G1 X68.45 Y217.591 E168.70457
G1 X63.529 Y216.231 E169.44563
G1 X61.151 Y215.681 E169.7999
G1 X58.893 Y215.227 E170.13421
G1 X53.741 Y214.415 E170.89125
G1 X50.024 Y213.953 E171.43492
G1 X49.026 Y213.789 E171.58172
G1 X48.043 Y213.546 E171.7287
G1 X47.083 Y213.227 E171.87553
G1 X46.152 Y212.833 E172.02227
G1 X45.254 Y212.366 E172.16919
G1 X44.396 Y211.83 E172.31603
G1 X43.583 Y211.228 E172.46287
G1 X42.649 Y210.398 E172.64423
G1 X42.319 Y210.075 E172.71125
G1 X41.624 Y209.34 E172.85808
G1 X40.99 Y208.551 E173.005
G1 X40.42 Y207.716 E173.15174
G1 X39.918 Y206.837 E173.29867
G1 X39.486 Y205.922 E173.44554
G1 X39.232 Y205.273 E173.5467
G1 X39.114 Y204.946 E173.59716
G1 X38.808 Y203.981 E173.7441
G1 X38.58 Y202.996 E173.89085
G1 X38.43 Y201.995 E174.03777
G1 X38.354 Y200.607 E174.23954
G1 X38.33 Y153.358 E181.0977
G1 X38.185 Y148.237 E181.84131
G1 X37.767 Y143.32 E182.55758
G1 X37.074 Y138.451 E183.27144
G1 X36.084 Y133.518 E184.00173
G1 X35.545 Y131.312 E184.33135
G1 X34.14 Y126.476 E185.06232
G1 X31.362 Y118.647 E186.26811
G1 X31.062 Y117.681 E186.41493
G1 X30.838 Y116.694 E186.56184
G1 X30.694 Y115.693 E186.70863
G1 X30.629 Y114.683 E186.85553
G1 X30.68 Y113.178 E187.07411
G1 X31.278 Y106.762 E188.00942
G1 X31.433 Y101.855 E188.72202
G1 X31.31 Y96.923 E189.43812
G1 X30.895 Y91.851 E190.17678
G1 X30.565 Y88.94 E190.60202
G1 X30.49 Y87.931 E190.74888
G1 X30.496 Y86.919 E190.89577
G1 X30.615 Y85.664 E191.07875
G1 X31.334 Y80.696 E191.80736
G1 X31.766 Y75.802 E192.52049
G1 X31.922 Y70.85 E193.23962
G1 X31.796 Y65.81 E193.9714
G1 X31.662 Y63.736 E194.27307
G1 X31.652 Y62.242 E194.48993
G1 X32.067 Y54.306 E195.64341
G1 X32.199 Y53.024 E195.83047
G1 X32.647 Y50.118 E196.25726
G1 X32.841 Y49.125 E196.40412
G1 X33.138 Y48.07 E196.5632
G1 X34.131 Y45.05 E197.02464
G1 X34.485 Y44.102 E197.17152
G1 X35.13 Y42.78 E197.38503
G1 X36.899 Y39.63 E197.90942
G1 X37.644 Y38.458 E198.11099
G1 X40.728 Y34.141 E198.88107
G1 X43.374 Y29.954 E199.6
G1 X45.284 Y26.58 E200.16276
M204 S5000
M205 X30 Y30
G0 F3600 X45.981 Y26.975
M204 S500
M205 X20 Y20
G1 F1500 X46.498 Y26.143 E200.30494
G1 X47.081 Y25.356 E200.4471
G1 X47.726 Y24.619 E200.58926
G1 X48.43 Y23.937 E200.73153
G1 X49.186 Y23.315 E200.87363
G1 X49.991 Y22.756 E201.01588
G1 X50.839 Y22.265 E201.15811
G1 X51.724 Y21.845 E201.3003
G1 X52.64 Y21.499 E201.44243
G1 X53.582 Y21.228 E201.5847
G1 X54.542 Y21.035 E201.72684
G1 X55.515 Y20.921 E201.86903
G1 X56.494 Y20.887 E202.01122
G1 X57.285 Y20.918 E202.12612
G1 X59.403 Y21.071 E202.43435
G1 X64.503 Y21.233 E203.17498
G1 X69.985 Y21.124 E203.97085
G1 X70.303 Y21.122 E204.01701
G1 X77.755 Y21.172 E205.09868
G1 X85.683 Y21.021 E206.24964
G1 X86.134 Y21.021 E206.3151
G1 X93.338 Y21.154 E207.36093
G1 X96.403 Y21.05 E207.80607
G1 X96.961 Y21.044 E207.88707
G1 X102.881 Y21.118 E208.74642
G1 X107.514 Y20.988 E209.41916
G1 X108.205 Y20.988 E209.51946
G1 X113.498 Y21.144 E210.28807
G1 X120.216 Y20.942 E211.26362
G1 X124.707 Y20.638 E211.91698
G1 X125.569 Y20.611 E212.04216
G1 X130.613 Y20.633 E212.7743
G1 X131.038 Y20.642 E212.836
G1 X136.636 Y20.865 E213.64919
G1 X141.589 Y20.774 E214.36824
G1 X146.566 Y20.402 E215.09266
G1 X151.503 Y19.75 E215.81548
G1 X156.373 Y18.826 E216.53497
G1 X161.307 Y17.604 E217.27278
G1 X162.267 Y17.407 E217.41502
G1 X163.239 Y17.29 E217.55713
G1 X164.229 Y17.252 E217.70093
G1 X165.5 Y17.256 E217.88542
G1 X166.478 Y17.299 E218.02751
G1 X167.45 Y17.422 E218.16972
G1 X168.315 Y17.6 E218.29791
G1 X173.567 Y18.886 E219.08275
G1 X175.843 Y19.341 E219.41965
G1 X180.893 Y20.131 E220.16157
G1 X185.117 Y20.578 E220.7781
G1 X186.086 Y20.72 E220.92025
G1 X187.04 Y20.942 E221.06242
G1 X187.973 Y21.24 E221.20459
G1 X188.879 Y21.614 E221.34686
G1 X189.751 Y22.06 E221.48902
G1 X190.581 Y22.574 E221.63073
G1 X195.895 Y26.171 E222.56214
G1 X196.683 Y26.752 E222.70425
G1 X197.421 Y27.396 E222.84642
G1 X198.104 Y28.099 E222.98868
G1 X198.727 Y28.854 E223.13076
G1 X199.287 Y29.658 E223.27298
G1 X199.78 Y30.505 E223.41523
G1 X200.201 Y31.389 E223.55735
G1 X200.553 Y32.316 E223.70128
G1 X200.937 Y33.469 E223.87768
G1 X201.209 Y34.41 E224.01985
G1 X201.402 Y35.371 E224.16213
G1 X201.517 Y36.344 E224.30434
G1 X201.552 Y37.323 E224.44653
G1 X201.507 Y38.301 E224.58864
G1 X201.382 Y39.273 E224.73088
G1 X201.179 Y40.231 E224.87303
G1 X200.994 Y40.879 E224.97084
G1 X199.272 Y46.325 E225.7999
G1 X198.013 Y51.244 E226.5369
G1 X197.542 Y53.481 E226.86872
G1 X196.705 Y58.486 E227.60528
G1 X196.161 Y63.449 E228.32997
G1 X195.9 Y68.423 E229.05294
G1 X195.847 Y200.583 E248.23587
G1 X195.807 Y201.562 E248.37809
G1 X195.687 Y202.534 E248.52025
G1 X195.488 Y203.493 E248.66241
G1 X195.228 Y204.384 E248.79713
G1 X195.122 Y204.701 E248.84565
G1 X194.773 Y205.616 E248.98779
G1 X194.351 Y206.5 E249.12998
G1 X193.859 Y207.347 E249.27215
G1 X193.299 Y208.151 E249.41437
G1 X192.639 Y208.946 E249.56435
G1 X192.335 Y209.282 E249.63012
G1 X191.649 Y209.981 E249.77228
G1 X190.908 Y210.622 E249.91449
G1 X190.117 Y211.2 E250.05669
G1 X189.282 Y211.711 E250.19878
G1 X188.408 Y212.153 E250.34094
G1 X187.5 Y212.522 E250.48321
