;FLAVOR:Marlin
;TIME:17163
;Filament used: 70.1552m
;Layer height: 0.4
;POSTPROCESSED
;Generated with Cura_SteamEngine 4.0.0
M140 S70
M105
M190 S70
M104 S230
M105
M109 S230
M82 ;absolute extrusion mode
; Ender 3 Custom Start G-code
G28 ; Home all axes
G92 E0 ; Reset Extruder
G1 Z2.0 F3000 ; Move Z Axis up little to prevent scratching of Heat Bed
G1 X0.1 Y20 Z0.3 F5000.0 ; Move to start position
G1 X0.1 Y200.0 Z0.3 F1500.0 E15 ; Draw the first line
G1 X0.4 Y200.0 Z0.3 F5000.0 ; Move to side a little
G1 X0.4 Y20 Z0.3 F1500.0 E30 ; Draw the second line
G92 E0 ; Reset Extruder
G1 Z2.0 F3000 ; Move Z Axis up little to prevent scratching of Heat Bed
; End of custom start GCode
G92 E0
G1 F3000 E-10
;LAYER_COUNT:117
;LAYER:0
M107
M204 S5000
M205 X30 Y30
G0 F3600 X36.329 Y26.572 Z0.4
M204 S500
M205 X20 Y20
;TYPE:SKIRT
G1 F3000 E0
G1 F1500 X39.308 Y22.34 E0.7512
G1 X41.757 Y18.444 E1.41914
G1 X42.346 Y17.583 E1.57056
G1 X42.999 Y16.77 E1.72192
G1 X43.712 Y16.009 E1.87329
G1 X44.481 Y15.305 E2.02462
G1 X45.26 Y14.693 E2.16841
G1 X46.894 Y13.502 E2.4619
G1 X47.76 Y12.92 E2.61335
G1 X48.668 Y12.407 E2.76472
G1 X49.612 Y11.964 E2.91608
G1 X50.588 Y11.595 E3.06753
G1 X51.588 Y11.303 E3.21874
G1 X52.609 Y11.087 E3.37022
G1 X53.643 Y10.951 E3.5216
G1 X54.902 Y10.892 E3.70454
G1 X79.106 Y10.886 E7.21774
G1 X80.148 Y10.926 E7.36909
G1 X81.184 Y11.045 E7.52046
G1 X82.208 Y11.244 E7.67187
G1 X82.952 Y11.44 E7.78355
G1 X86.26 Y12.414 E8.28408
G1 X91.168 Y13.619 E9.01763
G1 X93.486 Y14.086 E9.36085
G1 X95.759 Y14.474 E9.69554
G1 X100.72 Y15.11 E10.42152
G1 X105.577 Y15.456 E11.1283
G1 X114.437 Y15.543 E12.41438
G1 X129.416 Y15.473 E14.5886
G1 X134.27 Y15.162 E15.2946
G1 X139.104 Y14.577 E16.00137
G1 X143.946 Y13.711 E16.71533
G1 X148.713 Y12.576 E17.4266
G1 X152.621 Y11.436 E18.01749
G1 X153.633 Y11.183 E18.1689
G1 X154.661 Y11.008 E18.32026
G1 X155.699 Y10.912 E18.47157
G1 X156.431 Y10.892 E18.57786
G1 X178.213 Y10.894 E21.7395
G1 X179.255 Y10.934 E21.89086
G1 X180.291 Y11.054 E22.04224
G1 X181.315 Y11.253 E22.19365
G1 X182.321 Y11.529 E22.34507
G1 X183.302 Y11.882 E22.4964
G1 X184.253 Y12.309 E22.64771
G1 X185.169 Y12.808 E22.79911
G1 X185.97 Y13.323 E22.93734
G1 X187.109 Y14.114 E23.13862
G1 X187.942 Y14.742 E23.29004
G1 X188.61 Y15.323 E23.41854
G1 X193.508 Y19.875 E24.3891
G1 X197.353 Y23.112 E25.11864
G1 X199.904 Y25.07 E25.58542
G1 X200.706 Y25.736 E25.73673
G1 X201.455 Y26.462 E25.88814
G1 X202.146 Y27.243 E26.0395
G1 X202.775 Y28.075 E26.19089
G1 X203.339 Y28.952 E26.34224
G1 X203.833 Y29.87 E26.49355
G1 X204.256 Y30.824 E26.64503
G1 X204.528 Y31.568 E26.76001
G1 X205.169 Y33.497 E27.05506
G1 X205.46 Y34.499 E27.2065
G1 X205.673 Y35.52 E27.35789
G1 X205.814 Y36.638 E27.52146
G1 X206.361 Y43.095 E28.46204
G1 X206.404 Y43.843 E28.57079
G1 X206.577 Y49.716 E29.42362
G1 X206.583 Y50.061 E29.47371
G1 X206.618 Y58.671 E30.72345
G1 X206.617 Y58.911 E30.75829
G1 X206.526 Y65.601 E31.72943
G1 X206.519 Y65.874 E31.76907
G1 X206.156 Y76.648 E33.33379
G1 X206.175 Y84.658 E34.49644
G1 X206.138 Y85.7 E34.64778
G1 X206.02 Y86.736 E34.79913
G1 X205.824 Y87.761 E34.9506
G1 X205.522 Y88.854 E35.1152
G1 X204.932 Y90.689 E35.39497
G1 X204.604 Y91.599 E35.53538
G1 X203.03 Y95.515 E36.14798
G1 X201.431 Y100.151 E36.85979
G1 X200.069 Y104.972 E37.58695
G1 X199.527 Y107.253 E37.92725
G1 X199.054 Y109.541 E38.26638
G1 X198.25 Y114.453 E38.98884
G1 X197.734 Y119.31 E39.69779
G1 X197.492 Y124.257 E40.41671
G1 X197.446 Y200.551 E51.49073
G1 X197.405 Y201.593 E51.64209
G1 X197.285 Y202.629 E51.79347
G1 X197.186 Y203.191 E51.8763
G1 X197.132 Y203.463 E51.91655
G1 X196.89 Y204.478 E52.06801
G1 X196.57 Y205.471 E52.21944
G1 X196.176 Y206.436 E52.37074
G1 X195.709 Y207.368 E52.52205
G1 X194.914 Y208.642 E52.74002
G1 X194.686 Y208.966 E52.79752
G1 X194.054 Y209.795 E52.94883
G1 X193.36 Y210.573 E53.10016
G1 X192.608 Y211.296 E53.25158
G1 X191.803 Y211.959 E53.40295
G1 X191.217 Y212.381 E53.50777
G1 X191.004 Y212.526 E53.54517
G1 X190.12 Y213.08 E53.69659
G1 X189.196 Y213.564 E53.848
G1 X188.238 Y213.975 E53.99931
G1 X187.251 Y214.313 E54.15074
G1 X186.242 Y214.573 E54.30198
G1 X185.108 Y214.77 E54.46904
G1 X184.563 Y214.841 E54.54882
G1 X183.524 Y214.936 E54.70026
G1 X182.805 Y214.955 E54.80465
G1 X52.01 Y214.946 E73.78946
G1 X50.968 Y214.906 E73.94082
G1 X49.932 Y214.786 E74.0922
G1 X48.908 Y214.587 E74.24361
G1 X48.074 Y214.364 E74.36892
G1 X47.578 Y214.214 E74.44413
G1 X46.592 Y213.874 E74.59552
G1 X45.635 Y213.459 E74.74692
G1 X44.713 Y212.973 E74.89821
G1 X43.83 Y212.417 E75.04966
G1 X42.993 Y211.795 E75.20103
G1 X42.206 Y211.111 E75.35237
G1 X41.474 Y210.368 E75.50377
G1 X40.8 Y209.572 E75.65516
G1 X40.19 Y208.726 E75.80655
G1 X39.756 Y208.029 E75.92573
G1 X39.394 Y207.406 E76.03031
G1 X38.905 Y206.485 E76.18167
G1 X38.488 Y205.529 E76.33306
G1 X38.146 Y204.544 E76.4844
G1 X37.88 Y203.535 E76.63586
G1 X37.692 Y202.509 E76.78727
G1 X37.583 Y201.472 E76.93861
G1 X37.553 Y200.579 E77.06831
G1 X37.492 Y62.927 E97.0484
G1 X37.216 Y58.049 E97.75757
G1 X36.665 Y53.199 E98.46607
G1 X35.837 Y48.366 E99.1778
G1 X34.736 Y43.582 E99.89035
G1 X33.734 Y40.014 E100.42828
G1 X33.49 Y39 E100.57966
G1 X33.326 Y37.97 E100.73104
G1 X33.24 Y36.931 E100.88237
G1 X33.234 Y35.888 E101.03376
G1 X33.309 Y34.847 E101.18526
G1 X33.463 Y33.816 E101.33656
G1 X33.695 Y32.799 E101.48797
G1 X33.883 Y32.164 E101.5841
G1 X34.507 Y30.228 E101.87934
G1 X34.865 Y29.248 E102.03078
G1 X35.296 Y28.299 E102.18207
G1 X35.799 Y27.386 E102.33337
G1 X36.329 Y26.572 E102.47436
M204 S5000
M205 X30 Y30
G0 F3600 X36.984 Y27.033
M204 S500
M205 X20 Y20
G1 F1500 X39.972 Y22.788 E103.22786
G1 X42.435 Y18.87 E103.89959
G1 X43.007 Y18.036 E104.04638
G1 X43.643 Y17.249 E104.19325
G1 X44.339 Y16.515 E104.34007
G1 X45.091 Y15.838 E104.48694
G1 X45.731 Y15.339 E104.60473
G1 X47.365 Y14.148 E104.89822
G1 X48.206 Y13.585 E105.04512
G1 X49.088 Y13.09 E105.19193
G1 X50.007 Y12.666 E105.33883
G1 X50.956 Y12.316 E105.48565
G1 X51.93 Y12.042 E105.63251
G1 X52.923 Y11.846 E105.77943
G1 X53.928 Y11.729 E105.92629
G1 X54.902 Y11.692 E106.06776
G1 X79.106 Y11.686 E109.58096
G1 X80.117 Y11.726 E109.72782
G1 X81.121 Y11.845 E109.87457
G1 X82.114 Y12.044 E110.02157
G1 X82.726 Y12.208 E110.11353
G1 X86.042 Y13.185 E110.6153
G1 X90.985 Y14.398 E111.35406
G1 X93.33 Y14.87 E111.70127
G1 X95.665 Y15.269 E112.0451
G1 X100.632 Y15.906 E112.77196
G1 X105.544 Y16.256 E113.48674
G1 X114.433 Y16.343 E114.77704
G1 X129.437 Y16.273 E116.95488
G1 X134.346 Y15.959 E117.66888
G1 X139.235 Y15.367 E118.3837
G1 X144.095 Y14.498 E119.10031
G1 X148.923 Y13.348 E119.8207
G1 X152.845 Y12.204 E120.41369
G1 X153.827 Y11.959 E120.5606
G1 X154.825 Y11.793 E120.70745
G1 X155.833 Y11.706 E120.8543
G1 X156.431 Y11.692 E120.94113
G1 X178.213 Y11.694 E124.10277
G1 X179.224 Y11.734 E124.24963
G1 X180.229 Y11.854 E124.39654
G1 X181.221 Y12.053 E124.5434
G1 X182.194 Y12.329 E124.6902
G1 X183.142 Y12.682 E124.83703
G1 X184.06 Y13.108 E124.98393
G1 X184.941 Y13.605 E125.13075
G1 X185.513 Y13.981 E125.2301
G1 X186.652 Y14.772 E125.43139
G1 X187.46 Y15.381 E125.57825
G1 X188.065 Y15.909 E125.6948
G1 X192.972 Y20.469 E126.66711
G1 X196.845 Y23.729 E127.40191
G1 X199.417 Y25.704 E127.8726
G1 X200.194 Y26.351 E128.01937
G1 X200.918 Y27.058 E128.16625
G1 X201.584 Y27.82 E128.31314
G1 X202.188 Y28.632 E128.46004
G1 X202.725 Y29.489 E128.60683
G1 X203.194 Y30.386 E128.75375
G1 X203.59 Y31.317 E128.9006
G1 X203.769 Y31.821 E128.97824
G1 X204.41 Y33.75 E129.27328
G1 X204.691 Y34.722 E129.42015
G1 X204.894 Y35.713 E129.56698
G1 X205.017 Y36.706 E129.71221
G1 X205.564 Y43.163 E130.6528
G1 X205.604 Y43.866 E130.755
G1 X205.777 Y49.739 E131.60783
G1 X205.783 Y50.064 E131.65501
G1 X205.818 Y58.674 E132.90476
G1 X205.817 Y58.9 E132.93756
G1 X205.726 Y65.59 E133.9087
G1 X205.72 Y65.848 E133.94616
G1 X205.356 Y76.651 E135.5151
G1 X205.375 Y84.66 E136.6776
G1 X205.337 Y85.671 E136.82445
G1 X205.22 Y86.676 E136.97131
G1 X205.024 Y87.668 E137.11809
G1 X204.761 Y88.609 E137.25991
G1 X204.171 Y90.444 E137.53968
G1 X203.861 Y91.3 E137.67183
G1 X202.288 Y95.214 E138.28411
G1 X200.666 Y99.916 E139.00606
G1 X199.297 Y104.763 E139.73713
G1 X198.739 Y107.108 E140.087
G1 X198.271 Y109.373 E140.42271
G1 X197.455 Y114.362 E141.15648
G1 X196.937 Y119.238 E141.86822
G1 X196.692 Y124.238 E142.59483
G1 X196.646 Y200.551 E153.67161
G1 X196.605 Y201.562 E153.81848
G1 X196.401 Y203.036 E154.03447
G1 X196.347 Y203.308 E154.07472
G1 X196.111 Y204.291 E154.22146
G1 X195.798 Y205.253 E154.3683
G1 X195.41 Y206.188 E154.51523
G1 X194.949 Y207.089 E154.66214
G1 X194.26 Y208.181 E154.84955
G1 X194.032 Y208.505 E154.90706
G1 X193.417 Y209.309 E155.05398
G1 X192.741 Y210.062 E155.20086
G1 X192.008 Y210.759 E155.34768
G1 X191.222 Y211.396 E155.49453
G1 X190.767 Y211.72 E155.57561
G1 X190.554 Y211.865 E155.61301
G1 X189.696 Y212.401 E155.75985
G1 X188.798 Y212.867 E155.9067
G1 X187.866 Y213.261 E156.05357
G1 X186.906 Y213.58 E156.2004
G1 X185.924 Y213.823 E156.34724
G1 X185.005 Y213.977 E156.48249
G1 X184.46 Y214.048 E156.56227
G1 X183.452 Y214.139 E156.70917
G1 X182.805 Y214.155 E156.80311
G1 X52.01 Y214.146 E175.78792
G1 X50.999 Y214.106 E175.93478
G1 X49.995 Y213.986 E176.08154
G1 X49.003 Y213.787 E176.2284
G1 X48.306 Y213.598 E176.33322
G1 X47.81 Y213.448 E176.40844
G1 X46.854 Y213.117 E176.55528
G1 X45.927 Y212.712 E176.70212
G1 X45.035 Y212.234 E176.84901
G1 X44.183 Y211.688 E176.99589
G1 X43.377 Y211.076 E177.14278
G1 X42.622 Y210.403 E177.28959
G1 X41.923 Y209.672 E177.4364
G1 X41.284 Y208.888 E177.5832
G1 X40.448 Y207.627 E177.80281
G1 X40.086 Y207.004 E177.90739
G1 X39.612 Y206.11 E178.05427
G1 X39.211 Y205.181 E178.20114
G1 X38.885 Y204.223 E178.34802
G1 X38.635 Y203.243 E178.49482
G1 X38.463 Y202.246 E178.64167
G1 X38.37 Y201.238 E178.7886
G1 X38.353 Y200.579 E178.88429
G1 X38.292 Y62.899 E198.86845
G1 X38.014 Y57.985 E199.58285
G1 X37.457 Y53.079 E200.29953
G1 X36.625 Y48.225 E201.01436
G1 X35.509 Y43.374 E201.73687
G1 X34.504 Y39.797 E202.27617
G1 X34.269 Y38.813 E202.42302
G1 X34.113 Y37.814 E202.56978
G1 X34.036 Y36.805 E202.71666
G1 X34.039 Y35.793 E202.86355
G1 X34.121 Y34.785 E203.01035
G1 X34.284 Y33.786 E203.15727
G1 X34.644 Y32.409 E203.36386
G1 X35.268 Y30.473 E203.6591
G1 X35.616 Y29.523 E203.80595
G1 X36.038 Y28.604 E203.95274
G1 X36.532 Y27.721 E204.0996
G1 X36.984 Y27.033 E204.21908
M204 S5000
M205 X30 Y30
G0 F3600 X37.638 Y27.493
M204 S500
M205 X20 Y20
G1 F1500 X40.641 Y23.226 E204.97644
G1 X43.112 Y19.296 E205.65027
G1 X43.667 Y18.489 E205.79243
G1 X44.286 Y17.729 E205.9347
G1 X44.964 Y17.023 E206.07678
G1 X45.698 Y16.374 E206.21899
G1 X46.203 Y15.986 E206.31143
G1 X47.837 Y14.795 E206.60492
G1 X48.651 Y14.25 E206.74711
G1 X49.507 Y13.774 E206.88927
G1 X50.4 Y13.37 E207.03154
G1 X51.322 Y13.039 E207.17373
G1 X52.268 Y12.785 E207.31591
G1 X53.231 Y12.609 E207.458
G1 X54.206 Y12.512 E207.60022
G1 X54.902 Y12.492 E207.70128
G1 X79.106 Y12.486 E211.21448
G1 X80.085 Y12.526 E211.3567
G1 X81.057 Y12.645 E211.49884
G1 X82.016 Y12.844 E211.641
G1 X82.5 Y12.975 E211.71378
G1 X85.845 Y13.96 E212.21992
G1 X90.802 Y15.177 E212.96079
G1 X93.207 Y15.661 E213.31687
G1 X95.525 Y16.057 E213.6582
G1 X100.561 Y16.703 E214.39516
G1 X105.512 Y17.056 E215.11562
G1 X114.429 Y17.143 E216.40998
G1 X129.458 Y17.073 E218.59145
G1 X134.423 Y16.755 E219.3136
G1 X139.349 Y16.159 E220.03382
G1 X144.261 Y15.28 E220.75812
G1 X149.134 Y14.12 E221.48519
G1 X153.069 Y12.972 E222.08016
G1 X154.02 Y12.736 E222.22239
G1 X154.987 Y12.579 E222.36459
G1 X156.431 Y12.492 E222.57456
G1 X178.213 Y12.494 E225.7362
G1 X179.192 Y12.534 E225.87842
G1 X180.164 Y12.654 E226.02058
G1 X181.123 Y12.853 E226.16274
G1 X182.063 Y13.129 E226.30494
G1 X182.977 Y13.481 E226.44711
G1 X183.86 Y13.906 E226.58935
G1 X185.057 Y14.638 E226.793
G1 X186.196 Y15.429 E226.99429
G1 X186.977 Y16.02 E227.13645
G1 X187.52 Y16.495 E227.24116
G1 X192.445 Y21.072 E228.21707
G1 X196.339 Y24.35 E228.95588
G1 X198.93 Y26.339 E229.43
G1 X199.682 Y26.966 E229.57211
G1 X200.38 Y27.653 E229.71427
G1 X201.02 Y28.395 E229.8565
G1 X201.597 Y29.187 E229.99873
G1 X202.108 Y30.022 E230.14082
G1 X202.549 Y30.897 E230.28305
G1 X203.01 Y32.073 E230.46639
G1 X203.651 Y34.002 E230.76144
G1 X203.921 Y34.943 E230.90353
G1 X204.114 Y35.904 E231.04581
G1 X204.22 Y36.773 E231.17288
G1 X204.767 Y43.23 E232.11346
G1 X204.805 Y43.89 E232.20942
G1 X204.978 Y49.763 E233.06225
G1 X204.983 Y50.067 E233.10638
G1 X205.018 Y58.677 E234.35613
G1 X205.017 Y58.889 E234.3869
G1 X204.926 Y65.579 E235.35804
G1 X204.92 Y65.821 E235.39318
G1 X204.556 Y76.626 E236.9624
G1 X204.575 Y84.662 E238.12883
G1 X204.537 Y85.641 E238.27104
G1 X204.42 Y86.613 E238.41314
G1 X204.224 Y87.573 E238.55536
G1 X203.999 Y88.364 E238.67472
G1 X203.409 Y90.199 E238.9545
G1 X203.119 Y91.002 E239.07843
G1 X201.539 Y94.932 E239.69324
G1 X199.899 Y99.69 E240.42373
G1 X198.526 Y104.549 E241.15663
G1 X197.959 Y106.931 E241.51203
G1 X197.481 Y109.248 E241.85543
G1 X196.664 Y114.237 E242.58922
G1 X196.139 Y119.185 E243.31145
G1 X195.892 Y124.219 E244.04301
G1 X195.846 Y200.55 E255.12241
G1 X195.805 Y201.529 E255.26463
G1 X195.616 Y202.88 E255.46264
G1 X195.562 Y203.152 E255.50289
G1 X195.332 Y204.104 E255.64505
G1 X195.026 Y205.034 E255.78716
G1 X194.644 Y205.937 E255.92947
G1 X194.19 Y206.805 E256.07165
G1 X193.606 Y207.721 E256.22933
G1 X193.378 Y208.045 E256.28684
G1 X192.782 Y208.822 E256.42898
G1 X192.124 Y209.549 E256.5713
G1 X191.41 Y210.219 E256.71342
G1 X190.317 Y211.059 E256.91351
G1 X190.104 Y211.204 E256.95091
G1 X189.272 Y211.721 E257.09309
G1 X188.401 Y212.17 E257.23533
G1 X187.496 Y212.545 E257.37752
G1 X186.564 Y212.846 E257.51968
G1 X185.61 Y213.069 E257.66188
G1 X184.901 Y213.183 E257.76612
G1 X184.356 Y213.254 E257.84589
G1 X183.38 Y213.341 E257.98812
G1 X182.805 Y213.355 E258.0716
G1 X52.01 Y213.346 E277.05641
G1 X51.031 Y213.306 E277.19863
G1 X50.059 Y213.186 E277.34078
G1 X49.1 Y212.988 E277.48292
G1 X48.537 Y212.832 E277.56772
G1 X48.041 Y212.682 E277.64293
G1 X47.116 Y212.361 E277.78505
G1 X46.22 Y211.965 E277.92724
G1 X45.359 Y211.497 E278.06948
G1 X44.54 Y210.96 E278.21163
G1 X43.766 Y210.359 E278.35387
G1 X43.045 Y209.696 E278.49604
G1 X42.38 Y208.977 E278.6382
G1 X41.776 Y208.206 E278.78036
G1 X41.139 Y207.225 E278.95014
G1 X40.777 Y206.602 E279.05472
G1 X40.32 Y205.735 E279.19698
G1 X39.935 Y204.835 E279.33906
G1 X39.625 Y203.906 E279.48122
G1 X39.392 Y202.954 E279.62348
G1 X39.237 Y201.987 E279.76563
G1 X39.153 Y200.578 E279.97051
G1 X39.092 Y62.889 E299.95597
G1 X38.809 Y57.901 E300.68114
G1 X38.251 Y52.979 E301.40014
G1 X37.407 Y48.054 E302.12542
G1 X36.287 Y43.188 E302.85019
G1 X35.274 Y39.581 E303.394
G1 X35.048 Y38.628 E303.53616
G1 X34.9 Y37.66 E303.6783
G1 X34.832 Y36.682 E303.8206
G1 X34.844 Y35.703 E303.96271
G1 X34.935 Y34.728 E304.10484
G1 X35.106 Y33.763 E304.2471
G1 X35.406 Y32.655 E304.41371
G1 X36.03 Y30.719 E304.70896
G1 X36.368 Y29.799 E304.85122
G1 X36.78 Y28.911 E304.99331
G1 X37.263 Y28.059 E305.13547
G1 X37.638 Y27.493 E305.23402
M204 S5000
M205 X30 Y30
G0 F3600 X38.292 Y27.954
M204 S500
M205 X20 Y20
G1 F1500 X41.305 Y23.674 E305.99375
G1 X43.789 Y19.722 E306.67129
G1 X44.326 Y18.943 E306.80862
G1 X44.927 Y18.212 E306.94598
G1 X45.588 Y17.534 E307.08342
G1 X46.674 Y16.632 E307.28833
G1 X48.308 Y15.441 E307.58182
G1 X49.096 Y14.916 E307.71926
G1 X49.925 Y14.46 E307.85659
G1 X50.789 Y14.076 E307.99383
G1 X51.683 Y13.765 E308.13122
G1 X52.6 Y13.532 E308.26855
G1 X53.534 Y13.376 E308.406
G1 X54.902 Y13.292 E308.60494
