;FLAVOR:Marlin
;TIME:2393
;Filament used: 5.75707m
;Layer height: 0.4
;Generated with Cura_SteamEngine 4.0.0
M140 S70
M105
M190 S70
M104 S230
M105
M109 S230
M82 ;absolute extrusion mode
; Ender 3 Custom Start G-code
G28 ; Home all axes
G92 E0 ; Reset Extruder
G1 Z2.0 F3000 ; Move Z Axis up little to prevent scratching of Heat Bed
G1 X0.1 Y20 Z0.3 F5000.0 ; Move to start position
G1 X0.1 Y200.0 Z0.3 F1500.0 E15 ; Draw the first line
G1 X0.4 Y200.0 Z0.3 F5000.0 ; Move to side a little
G1 X0.4 Y20 Z0.3 F1500.0 E30 ; Draw the second line
G92 E0 ; Reset Extruder
G1 Z2.0 F3000 ; Move Z Axis up little to prevent scratching of Heat Bed
; End of custom start GCode
G92 E0
G1 F3000 E-10
;LAYER_COUNT:113
;LAYER:0
M107
M204 S5000
M205 X30 Y30
G0 F3600 X96.108 Y59.921 Z0.4
M204 S500
M205 X20 Y20
;TYPE:SKIRT
G1 F3000 E0
G1 F1500 X96.68 Y59.049 E0.15137
G1 X97.317 Y58.224 E0.30266
G1 X98.016 Y57.45 E0.45404
G1 X98.772 Y56.732 E0.60538
G1 X99.738 Y55.958 E0.78505
G1 X102.15 Y54.198 E1.21844
G1 X103.015 Y53.616 E1.36977
G1 X103.922 Y53.102 E1.52109
G1 X104.867 Y52.659 E1.67258
G1 X105.842 Y52.29 E1.8239
G1 X106.843 Y51.996 E1.97533
G1 X107.863 Y51.78 E2.12666
G1 X108.897 Y51.643 E2.27806
G1 X110.143 Y51.584 E2.45912
G1 X113.129 Y51.579 E2.89253
G1 X114.171 Y51.617 E3.04388
G1 X115.208 Y51.735 E3.19537
G1 X116.232 Y51.932 E3.34673
G1 X117.238 Y52.207 E3.49811
G1 X118.22 Y52.558 E3.64948
G1 X119.172 Y52.984 E3.80086
G1 X120.089 Y53.481 E3.95226
G1 X121.147 Y54.177 E4.13607
G1 X123.591 Y55.953 E4.57459
G1 X124.41 Y56.598 E4.72591
G1 X125.374 Y57.502 E4.91773
G1 X127.982 Y60.199 E5.46229
G1 X131.572 Y63.584 E6.17849
G1 X136.251 Y67.504 E7.06449
G1 X137.024 Y68.204 E7.21585
G1 X137.76 Y68.983 E7.37141
G1 X138.677 Y70.033 E7.57376
G1 X139.333 Y70.844 E7.72516
G1 X139.924 Y71.703 E7.87651
G1 X140.264 Y72.27 E7.97247
G1 X140.775 Y73.171 E8.12282
G1 X141.254 Y74.097 E8.27414
G1 X141.661 Y75.057 E8.42549
G1 X141.889 Y75.708 E8.52561
G1 X142.319 Y77.042 E8.72905
G1 X142.601 Y78.046 E8.88042
G1 X142.805 Y79.068 E9.03169
G1 X142.905 Y79.836 E9.1441
G1 X143.019 Y80.955 E9.30737
G1 X143.085 Y81.995 E9.45863
G1 X143.054 Y83.306 E9.64897
G1 X142.987 Y84.24 E9.78489
G1 X142.873 Y85.277 E9.93631
G1 X142.679 Y86.301 E10.08759
G1 X142.55 Y86.818 E10.16493
G1 X142.203 Y88.101 E10.35785
G1 X141.893 Y89.096 E10.50912
G1 X141.507 Y90.065 E10.66052
G1 X141.06 Y90.977 E10.80794
G1 X138.78 Y95.229 E11.50825
G1 X136.563 Y99.761 E12.24055
G1 X134.669 Y104.26 E12.94909
G1 X133.031 Y108.863 E13.65825
G1 X131.63 Y113.639 E14.3807
G1 X131.054 Y115.959 E14.72767
G1 X130.565 Y118.209 E15.06188
G1 X129.709 Y123.132 E15.78717
G1 X129.146 Y127.979 E16.49544
G1 X128.858 Y132.853 E17.20413
G1 X128.846 Y137.747 E17.91449
G1 X129.11 Y142.617 E18.62241
G1 X129.65 Y147.479 E19.33246
G1 X130.48 Y152.399 E20.05669
G1 X130.959 Y154.656 E20.39159
G1 X132.402 Y160.539 E21.27081
G1 X132.611 Y161.561 E21.42222
G1 X132.742 Y162.596 E21.57365
G1 X132.783 Y163.263 E21.67065
G1 X132.823 Y164.319 E21.82404
G1 X132.823 Y165.362 E21.97543
G1 X132.755 Y166.292 E22.11078
G1 X132.667 Y167.108 E22.22991
G1 X132.515 Y168.14 E22.38132
G1 X132.288 Y169.144 E22.53072
G1 X132.007 Y170.201 E22.68948
G1 X131.701 Y171.198 E22.84085
G1 X131.41 Y171.956 E22.95871
G1 X131.1 Y172.697 E23.07529
G1 X130.661 Y173.643 E23.22667
G1 X130.161 Y174.535 E23.3751
G1 X129.62 Y175.421 E23.52578
G1 X129.043 Y176.29 E23.67719
G1 X128.094 Y177.462 E23.89608
G1 X127.079 Y178.583 E24.11558
G1 X126.35 Y179.329 E24.26697
G1 X125.566 Y180.016 E24.41828
G1 X124.723 Y180.648 E24.57121
G1 X123.6 Y181.423 E24.76926
G1 X122.719 Y181.982 E24.92071
G1 X121.799 Y182.472 E25.072
G1 X121.27 Y182.714 E25.15644
G1 X120.099 Y183.22 E25.3416
G1 X119.126 Y183.597 E25.49306
G1 X118.4 Y183.824 E25.60347
G1 X116.233 Y184.436 E25.93031
G1 X111.418 Y185.994 E26.66488
G1 X107.678 Y187.418 E27.24576
G1 X106.69 Y187.752 E27.39714
G1 X105.679 Y188.008 E27.54852
G1 X104.651 Y188.187 E27.69997
G1 X103.613 Y188.286 E27.85132
G1 X103 Y188.307 E27.94035
G1 X99.945 Y188.343 E28.38381
G1 X98.903 Y188.315 E28.53511
G1 X97.865 Y188.208 E28.68658
G1 X96.839 Y188.021 E28.83795
G1 X95.831 Y187.756 E28.98924
G1 X94.845 Y187.415 E29.14067
G1 X93.889 Y186.999 E29.292
G1 X92.967 Y186.512 E29.44335
G1 X91.848 Y185.788 E29.6368
G1 X89.41 Y184.036 E30.07257
G1 X88.588 Y183.395 E30.22388
G1 X87.816 Y182.694 E30.37523
G1 X87.101 Y181.935 E30.52659
G1 X86.446 Y181.123 E30.67801
G1 X85.855 Y180.264 E30.82936
G1 X85.331 Y179.362 E30.98077
G1 X84.878 Y178.423 E31.1321
G1 X84.414 Y177.199 E31.3221
G1 X83.48 Y174.328 E31.76032
G1 X83.196 Y173.325 E31.91163
G1 X82.989 Y172.303 E32.06298
G1 X82.891 Y171.574 E32.16975
G1 X82.238 Y165.498 E33.05675
G1 X82.16 Y164.045 E33.26796
G1 X82.16 Y158.057 E34.13711
G1 X82.2 Y157.015 E34.28847
G1 X82.32 Y155.979 E34.43985
G1 X82.591 Y154.661 E34.63516
G1 X83.173 Y152.402 E34.97376
G1 X84.231 Y147.497 E35.70209
G1 X85.284 Y140.656 E36.70675
G1 X85.482 Y139.632 E36.85814
G1 X85.746 Y138.667 E37.00335
G1 X86.693 Y135.638 E37.464
G1 X86.886 Y135.063 E37.55203
G1 X88.183 Y131.483 E38.10472
G1 X89.651 Y126.749 E38.82414
G1 X90.85 Y121.937 E39.54395
G1 X91.33 Y119.594 E39.8911
G1 X91.731 Y117.3 E40.22912
G1 X92.381 Y112.371 E40.95075
G1 X92.743 Y107.509 E41.65842
G1 X92.833 Y102.515 E42.38342
G1 X92.774 Y100.136 E42.72883
G1 X92.569 Y95.812 E43.35716
G1 X92.554 Y95.091 E43.46184
G1 X92.576 Y91.204 E44.02604
G1 X92.346 Y86.206 E44.75227
G1 X91.956 Y81.934 E45.37492
G1 X91.9 Y80.661 E45.55988
G1 X91.913 Y75.826 E46.26168
G1 X91.956 Y74.784 E46.41305
G1 X92.078 Y73.749 E46.56432
G1 X92.221 Y72.984 E46.67728
G1 X93.524 Y66.968 E47.57075
G1 X93.875 Y65.666 E47.76648
G1 X94.813 Y62.763 E48.2093
G1 X95.171 Y61.783 E48.36074
G1 X95.604 Y60.834 E48.51215
G1 X96.108 Y59.921 E48.66352
M204 S5000
M205 X30 Y30
G0 F3600 X96.84 Y60.257
M204 S500
M205 X20 Y20
G1 F1500 X97.402 Y59.416 E48.81034
G1 X98.029 Y58.622 E48.95719
G1 X98.717 Y57.879 E49.10417
G1 X99.461 Y57.194 E49.25096
G1 X100.209 Y56.604 E49.38924
G1 X102.621 Y54.844 E49.82264
G1 X103.461 Y54.28 E49.96949
G1 X104.343 Y53.785 E50.1163
G1 X105.262 Y53.361 E50.2632
G1 X106.211 Y53.01 E50.41007
G1 X107.185 Y52.736 E50.55693
G1 X108.177 Y52.539 E50.70373
G1 X109.182 Y52.422 E50.85059
G1 X110.145 Y52.384 E50.99048
G1 X113.131 Y52.379 E51.4239
G1 X114.142 Y52.417 E51.57075
G1 X115.146 Y52.535 E51.71748
G1 X116.139 Y52.732 E51.86442
G1 X117.112 Y53.007 E52.01119
G1 X118.061 Y53.358 E52.15805
G1 X118.98 Y53.783 E52.30502
G1 X119.862 Y54.278 E52.45182
G1 X120.677 Y54.824 E52.59421
G1 X123.121 Y56.6 E53.03273
G1 X123.915 Y57.227 E53.17958
G1 X124.799 Y58.058 E53.35568
G1 X127.423 Y60.772 E53.90363
G1 X131.049 Y64.19 E54.62692
G1 X135.737 Y68.118 E55.51466
G1 X136.487 Y68.797 E55.66151
G1 X137.158 Y69.509 E55.80352
G1 X138.075 Y70.559 E56.00587
G1 X138.71 Y71.347 E56.15276
G1 X139.28 Y72.182 E56.2995
G1 X139.568 Y72.664 E56.381
G1 X140.079 Y73.565 E56.53135
G1 X140.543 Y74.464 E56.6782
G1 X140.934 Y75.397 E56.82503
G1 X141.128 Y75.953 E56.91051
G1 X141.558 Y77.287 E57.11395
G1 X141.83 Y78.261 E57.26073
G1 X142.024 Y79.254 E57.40759
G1 X142.109 Y79.917 E57.50461
G1 X142.223 Y81.036 E57.66787
G1 X142.286 Y82.045 E57.81462
G1 X142.256 Y83.249 E57.98943
G1 X142.189 Y84.183 E58.12535
G1 X142.077 Y85.188 E58.27213
G1 X141.778 Y86.609 E58.4829
G1 X141.431 Y87.892 E58.67582
G1 X141.129 Y88.857 E58.82258
G1 X140.751 Y89.796 E58.96951
G1 X140.355 Y90.599 E59.09947
G1 X138.066 Y94.868 E59.80256
G1 X135.836 Y99.427 E60.53922
G1 X133.921 Y103.975 E61.25549
G1 X132.273 Y108.606 E61.96897
G1 X130.851 Y113.453 E62.70216
G1 X130.286 Y115.733 E63.04311
G1 X129.778 Y118.068 E63.38997
G1 X128.918 Y123.009 E64.11793
G1 X128.35 Y127.91 E64.83407
G1 X128.058 Y132.839 E65.55076
G1 X128.046 Y137.771 E66.26664
G1 X128.312 Y142.677 E66.97979
G1 X128.858 Y147.594 E67.69788
G1 X129.695 Y152.555 E68.42814
G1 X130.177 Y154.826 E68.76512
G1 X131.625 Y160.73 E69.64747
G1 X131.827 Y161.721 E69.79428
G1 X131.95 Y162.725 E69.9411
G1 X131.984 Y163.293 E70.02369
G1 X132.024 Y164.349 E70.17708
G1 X132.022 Y165.361 E70.32397
G1 X131.959 Y166.206 E70.44696
G1 X131.871 Y167.022 E70.56609
G1 X131.723 Y168.023 E70.71296
G1 X131.515 Y168.939 E70.8493
G1 X131.234 Y169.996 E71.00805
G1 X130.936 Y170.962 E71.15479
G1 X130.672 Y171.647 E71.26134
G1 X130.362 Y172.388 E71.37793
G1 X129.935 Y173.305 E71.52476
G1 X129.478 Y174.119 E71.66026
G1 X128.937 Y175.005 E71.81094
G1 X128.376 Y175.847 E71.9578
G1 X127.501 Y176.925 E72.15932
G1 X126.486 Y178.046 E72.37882
G1 X125.778 Y178.769 E72.5257
G1 X125.015 Y179.433 E72.67252
G1 X124.268 Y179.99 E72.80777
G1 X123.145 Y180.765 E73.00582
G1 X122.291 Y181.306 E73.15256
G1 X120.952 Y181.98 E73.37014
G1 X119.781 Y182.486 E73.5553
G1 X118.837 Y182.85 E73.70216
G1 X118.183 Y183.054 E73.8016
G1 X116.007 Y183.669 E74.12981
G1 X111.157 Y185.238 E74.86971
G1 X107.393 Y186.671 E75.45431
G1 X106.434 Y186.993 E75.60114
G1 X105.453 Y187.238 E75.74791
G1 X104.455 Y187.406 E75.8948
G1 X102.991 Y187.507 E76.10781
G1 X99.936 Y187.543 E76.55127
G1 X98.924 Y187.515 E76.69822
G1 X97.919 Y187.407 E76.84493
G1 X96.924 Y187.22 E76.99188
G1 X95.948 Y186.955 E77.13868
G1 X94.995 Y186.614 E77.28559
G1 X94.073 Y186.199 E77.43235
G1 X93.186 Y185.712 E77.57923
G1 X92.315 Y185.138 E77.73064
G1 X89.877 Y183.386 E78.16641
G1 X89.08 Y182.764 E78.31315
G1 X88.334 Y182.081 E78.45996
G1 X87.644 Y181.34 E78.60693
G1 X87.015 Y180.548 E78.75373
G1 X86.451 Y179.708 E78.90059
G1 X85.954 Y178.827 E79.04741
G1 X85.529 Y177.909 E79.19424
G1 X85.175 Y176.952 E79.34235
G1 X84.241 Y174.081 E79.78057
G1 X83.966 Y173.107 E79.92748
G1 X83.769 Y172.115 E80.07427
G1 X83.686 Y171.489 E80.16593
G1 X83.033 Y165.413 E81.05294
G1 X82.96 Y164.045 E81.25179
G1 X82.96 Y158.057 E82.12094
G1 X83 Y157.046 E82.2678
G1 X83.12 Y156.041 E82.41471
G1 X83.366 Y154.861 E82.58967
G1 X83.955 Y152.576 E82.93218
G1 X85.017 Y147.65 E83.66361
G1 X86.075 Y140.778 E84.67283
G1 X86.268 Y139.785 E84.81966
G1 X86.509 Y138.905 E84.9521
G1 X87.456 Y135.876 E85.41274
G1 X87.639 Y135.336 E85.4955
G1 X88.935 Y131.759 E86.04773
G1 X90.42 Y126.969 E86.77564
G1 X91.635 Y122.098 E87.50432
G1 X92.114 Y119.755 E87.85144
G1 X92.522 Y117.423 E88.19507
G1 X93.175 Y112.466 E88.92079
G1 X93.543 Y107.53 E89.63924
G1 X93.633 Y102.509 E90.36815
G1 X93.574 Y100.122 E90.71473
G1 X93.368 Y95.774 E91.34654
G1 X93.354 Y95.096 E91.44497
G1 X93.376 Y91.172 E92.01455
G1 X93.146 Y86.165 E92.74208
G1 X92.753 Y81.862 E93.36926
G1 X92.7 Y80.664 E93.54331
G1 X92.713 Y75.829 E94.24511
G1 X92.756 Y74.818 E94.39199
G1 X92.878 Y73.813 E94.53894
G1 X93.003 Y73.153 E94.63644
G1 X94.306 Y67.137 E95.52991
G1 X94.636 Y65.911 E95.71419
G1 X95.574 Y63.008 E96.15701
G1 X95.923 Y62.059 E96.30378
G1 X96.346 Y61.14 E96.45062
G1 X96.84 Y60.257 E96.59748
M204 S5000
M205 X30 Y30
G0 F3600 X97.571 Y60.595
M204 S500
M205 X20 Y20
G1 F1500 X98.123 Y59.786 E96.73964
G1 X98.739 Y59.024 E96.88186
G1 X99.415 Y58.315 E97.02405
G1 X100.146 Y57.664 E97.16613
G1 X100.681 Y57.25 E97.26432
G1 X103.093 Y55.49 E97.69772
G1 X103.907 Y54.946 E97.83983
G1 X104.763 Y54.469 E97.98206
G1 X105.655 Y54.064 E98.12426
G1 X106.577 Y53.733 E98.26645
G1 X107.523 Y53.479 E98.40862
G1 X108.486 Y53.302 E98.55074
G1 X109.461 Y53.205 E98.69296
G1 X110.146 Y53.184 E98.79244
G1 X113.132 Y53.179 E99.22585
G1 X114.111 Y53.217 E99.36806
G1 X115.083 Y53.335 E99.51018
G1 X116.043 Y53.532 E99.65243
G1 X116.983 Y53.807 E99.79459
G1 X117.898 Y54.157 E99.93678
G1 X118.781 Y54.581 E100.07896
G1 X119.627 Y55.076 E100.22123
G1 X120.206 Y55.471 E100.32297
G1 X122.65 Y57.247 E100.76149
G1 X123.419 Y57.855 E100.90378
G1 X124.223 Y58.614 E101.06426
G1 X126.853 Y61.334 E101.61344
G1 X130.508 Y64.779 E102.34248
G1 X135.224 Y68.731 E103.23558
G1 X135.948 Y69.39 E103.37768
G1 X136.555 Y70.035 E103.50624
G1 X137.472 Y71.085 E103.70859
G1 X138.086 Y71.849 E103.85085
G1 X138.872 Y73.059 E104.06029
G1 X139.383 Y73.96 E104.21064
G1 X139.831 Y74.831 E104.3528
G1 X140.366 Y76.198 E104.56588
G1 X140.796 Y77.532 E104.76932
G1 X141.059 Y78.476 E104.91156
G1 X141.243 Y79.438 E105.05372
G1 X141.313 Y79.998 E105.13564
G1 X141.427 Y81.117 E105.2989
G1 X141.487 Y82.095 E105.44112
G1 X141.458 Y83.192 E105.60041
G1 X141.391 Y84.126 E105.73633
G1 X141.281 Y85.099 E105.87846
G1 X141.006 Y86.4 E106.07147
G1 X140.659 Y87.683 E106.26438
G1 X140.365 Y88.617 E106.40651
G1 X139.995 Y89.525 E106.54883
G1 X139.65 Y90.221 E106.66158
G1 X137.346 Y94.517 E107.36916
G1 X135.114 Y99.079 E108.10634
G1 X133.174 Y103.686 E108.83191
G1 X131.508 Y108.371 E109.55365
G1 X130.085 Y113.224 E110.28772
G1 X129.5 Y115.581 E110.64022
G1 X128.994 Y117.904 E110.98531
G1 X128.125 Y122.904 E111.72193
G1 X127.552 Y127.84 E112.4432
G1 X127.258 Y132.808 E113.16556
G1 X127.246 Y137.794 E113.88928
G1 X127.514 Y142.739 E114.6081
G1 X128.066 Y147.708 E115.33378
G1 X128.91 Y152.711 E116.07022
G1 X129.394 Y154.988 E116.40811
G1 X130.848 Y160.92 E117.29463
G1 X131.042 Y161.88 E117.43679
G1 X131.184 Y163.324 E117.64739
G1 X131.224 Y164.38 E117.80078
G1 X131.221 Y165.359 E117.94288
G1 X131.164 Y166.121 E118.05379
G1 X131.076 Y166.937 E118.17292
G1 X130.931 Y167.906 E118.31514
G1 X130.742 Y168.733 E118.43827
G1 X130.461 Y169.79 E118.59702
G1 X130.171 Y170.726 E118.73925
G1 X129.934 Y171.338 E118.83451
G1 X129.624 Y172.079 E118.9511
G1 X129.21 Y172.967 E119.09331
G1 X128.796 Y173.702 E119.21576
G1 X128.255 Y174.588 E119.36644
G1 X127.71 Y175.402 E119.50863
G1 X126.908 Y176.388 E119.69311
G1 X125.893 Y177.509 E119.91261
G1 X125.207 Y178.208 E120.05477
G1 X124.466 Y178.848 E120.19689
G1 X123.814 Y179.331 E120.31466
G1 X122.691 Y180.106 E120.51272
G1 X121.863 Y180.629 E120.65487
G1 X120.635 Y181.246 E120.85434
G1 X119.464 Y181.752 E121.0395
G1 X118.55 Y182.103 E121.18162
G1 X117.965 Y182.284 E121.2705
G1 X115.78 Y182.901 E121.60005
G1 X110.891 Y184.483 E122.34591
G1 X107.109 Y185.923 E122.93331
G1 X106.18 Y186.234 E123.07551
G1 X105.229 Y186.468 E123.21767
G1 X104.261 Y186.624 E123.35998
G1 X102.981 Y186.707 E123.54617
G1 X99.926 Y186.743 E123.98963
G1 X98.947 Y186.715 E124.13179
G1 X97.974 Y186.607 E124.27389
G1 X97.012 Y186.419 E124.41616
G1 X96.069 Y186.154 E124.55834
G1 X95.151 Y185.813 E124.70048
G1 X94.263 Y185.398 E124.84275
G1 X93.413 Y184.912 E124.98487
G1 X92.782 Y184.489 E125.09514
G1 X90.344 Y182.737 E125.53091
G1 X89.573 Y182.133 E125.67307
G1 X88.853 Y181.469 E125.81524
G1 X88.19 Y180.748 E125.95741
G1 X87.588 Y179.975 E126.09962
G1 X87.051 Y179.156 E126.24177
G1 X86.582 Y178.295 E126.38408
G1 X86.186 Y177.399 E126.52627
G1 X85.936 Y176.704 E126.63348
G1 X85.002 Y173.833 E127.0717
G1 X84.737 Y172.89 E127.21388
G1 X84.55 Y171.929 E127.35598
G1 X84.482 Y171.403 E127.43297
G1 X83.829 Y165.327 E128.31997
G1 X83.76 Y164.045 E128.50633
G1 X83.76 Y158.057 E129.37548
G1 X83.8 Y157.078 E129.5177
G1 X83.92 Y156.106 E129.65986
G1 X84.14 Y155.06 E129.815
G1 X84.739 Y152.739 E130.16293
G1 X85.805 Y147.793 E130.89733
G1 X86.866 Y140.899 E131.90977
G1 X87.054 Y139.938 E132.0519
G1 X87.273 Y139.144 E132.17145
G1 X88.22 Y136.115 E132.6321
G1 X88.391 Y135.608 E132.70976
G1 X89.695 Y132.009 E133.26538
G1 X91.191 Y127.185 E133.99848
G1 X92.416 Y122.268 E134.734
G1 X92.899 Y119.91 E135.08336
G1 X93.312 Y117.549 E135.43127
G1 X93.972 Y112.54 E136.1646
G1 X94.342 Y107.569 E136.88814
G1 X94.433 Y102.504 E137.62344
G1 X94.374 Y100.109 E137.97117
G1 X94.167 Y95.736 E138.60662
G1 X94.154 Y95.1 E138.69896
G1 X94.176 Y91.16 E139.27085
G1 X93.943 Y86.099 E140.00623
G1 X93.55 Y81.789 E140.63442
G1 X93.5 Y80.666 E140.79759
