;FLAVOR:Marlin
;TIME:2394
;Filament used: 5.75792m
;Layer height: 0.4
;Generated with Cura_SteamEngine 4.0.0
M140 S70
M105
M190 S70
M104 S230
M105
M109 S230
M82 ;absolute extrusion mode
; Ender 3 Custom Start G-code
G28 ; Home all axes
G92 E0 ; Reset Extruder
G1 Z2.0 F3000 ; Move Z Axis up little to prevent scratching of Heat Bed
G1 X0.1 Y20 Z0.3 F5000.0 ; Move to start position
G1 X0.1 Y200.0 Z0.3 F1500.0 E15 ; Draw the first line
G1 X0.4 Y200.0 Z0.3 F5000.0 ; Move to side a little
G1 X0.4 Y20 Z0.3 F1500.0 E30 ; Draw the second line
G92 E0 ; Reset Extruder
G1 Z2.0 F3000 ; Move Z Axis up little to prevent scratching of Heat Bed
; End of custom start GCode
G92 E0
G1 F3000 E-10
;LAYER_COUNT:113
;LAYER:0
M107
M204 S5000
M205 X30 Y30
G0 F3600 X96.364 Y59.923 Z0.4
M204 S500
M205 X20 Y20
;TYPE:SKIRT
G1 F3000 E0
G1 F1500 X96.936 Y59.051 E0.15137
G1 X97.573 Y58.226 E0.30266
G1 X98.272 Y57.451 E0.45415
G1 X99.028 Y56.733 E0.60548
G1 X99.995 Y55.958 E0.78536
G1 X102.407 Y54.198 E1.21875
G1 X103.272 Y53.616 E1.37008
G1 X104.179 Y53.102 E1.5214
G1 X105.124 Y52.659 E1.67289
G1 X106.099 Y52.29 E1.82421
G1 X107.1 Y51.996 E1.97564
G1 X108.12 Y51.78 E2.12698
G1 X109.154 Y51.643 E2.27837
G1 X110.4 Y51.584 E2.45943
G1 X113.386 Y51.579 E2.89285
G1 X114.428 Y51.617 E3.04419
G1 X115.465 Y51.735 E3.19568
G1 X116.489 Y51.932 E3.34704
G1 X117.495 Y52.207 E3.49842
G1 X118.477 Y52.558 E3.64979
G1 X119.429 Y52.984 E3.80117
G1 X120.346 Y53.481 E3.95257
G1 X121.413 Y54.184 E4.13804
G1 X123.869 Y55.972 E4.57899
G1 X124.688 Y56.618 E4.73039
G1 X125.741 Y57.616 E4.94097
G1 X126.115 Y58.011 E5.01993
G1 X128.866 Y60.894 E5.59834
G1 X132.47 Y64.293 E6.31741
G1 X136.259 Y67.508 E7.03868
G1 X137.028 Y68.213 E7.19011
G1 X137.52 Y68.726 E7.29328
G1 X138.366 Y69.656 E7.47577
G1 X139.038 Y70.454 E7.6272
G1 X139.646 Y71.301 E7.77853
G1 X140.227 Y72.261 E7.94141
G1 X141.025 Y73.714 E8.18202
G1 X141.491 Y74.647 E8.3334
G1 X141.885 Y75.613 E8.48483
G1 X142.263 Y76.827 E8.66938
G1 X142.579 Y78.038 E8.85105
G1 X142.804 Y79.057 E9.00252
G1 X142.95 Y80.089 E9.1538
G1 X143.016 Y81.14 E9.30665
G1 X143.053 Y82.654 E9.52648
G1 X143.038 Y83.697 E9.67788
G1 X142.944 Y84.735 E9.82916
G1 X142.812 Y85.558 E9.95015
G1 X142.615 Y86.581 E10.10136
G1 X142.378 Y87.596 E10.25265
G1 X142.065 Y88.591 E10.40405
G1 X141.789 Y89.298 E10.51422
G1 X141.209 Y90.672 E10.73069
G1 X140.684 Y91.776 E10.90813
G1 X137.59 Y97.586 E11.86358
G1 X135.585 Y101.994 E12.56647
G1 X133.817 Y106.549 E13.27568
G1 X132.307 Y111.206 E13.98629
G1 X131.038 Y116.036 E14.71115
G1 X130.565 Y118.209 E15.03395
G1 X129.709 Y123.132 E15.75924
G1 X129.146 Y127.979 E16.46751
G1 X128.858 Y132.853 E17.1762
G1 X128.846 Y137.747 E17.88656
G1 X129.11 Y142.617 E18.59448
G1 X129.65 Y147.479 E19.30453
G1 X130.48 Y152.399 E20.02876
G1 X130.959 Y154.656 E20.36366
G1 X132.402 Y160.539 E21.24288
G1 X132.611 Y161.561 E21.3943
G1 X132.742 Y162.596 E21.54572
G1 X132.783 Y163.263 E21.64272
G1 X132.823 Y164.319 E21.79611
G1 X132.823 Y165.362 E21.9475
G1 X132.755 Y166.292 E22.08285
G1 X132.667 Y167.108 E22.20198
G1 X132.515 Y168.14 E22.35339
G1 X132.288 Y169.144 E22.5028
G1 X132.007 Y170.201 E22.66155
G1 X131.701 Y171.198 E22.81292
G1 X131.41 Y171.956 E22.93078
G1 X131.1 Y172.697 E23.04737
G1 X130.661 Y173.643 E23.19874
G1 X130.161 Y174.535 E23.34717
G1 X129.62 Y175.421 E23.49785
G1 X129.043 Y176.29 E23.64926
G1 X128.094 Y177.462 E23.86815
G1 X127.079 Y178.583 E24.08765
G1 X126.35 Y179.329 E24.23905
G1 X125.566 Y180.016 E24.39035
G1 X124.723 Y180.648 E24.54328
G1 X123.6 Y181.423 E24.74133
G1 X122.719 Y181.982 E24.89278
G1 X121.799 Y182.472 E25.04407
G1 X121.27 Y182.714 E25.12851
G1 X120.099 Y183.22 E25.31367
G1 X119.126 Y183.597 E25.46513
G1 X118.4 Y183.824 E25.57554
G1 X116.233 Y184.436 E25.90238
G1 X111.418 Y185.994 E26.63695
G1 X107.678 Y187.418 E27.21783
G1 X106.69 Y187.752 E27.36921
G1 X105.679 Y188.008 E27.52059
G1 X104.651 Y188.187 E27.67205
G1 X103.613 Y188.286 E27.82339
G1 X103 Y188.307 E27.91242
G1 X99.945 Y188.343 E28.35588
G1 X98.903 Y188.315 E28.50718
G1 X97.865 Y188.208 E28.65865
G1 X96.839 Y188.021 E28.81002
G1 X95.831 Y187.756 E28.96131
G1 X94.845 Y187.415 E29.11274
G1 X93.889 Y186.999 E29.26407
G1 X92.967 Y186.512 E29.41542
G1 X91.848 Y185.788 E29.60888
G1 X89.41 Y184.036 E30.04465
G1 X88.588 Y183.395 E30.19595
G1 X87.816 Y182.694 E30.34731
G1 X87.101 Y181.935 E30.49866
G1 X86.446 Y181.123 E30.65009
G1 X85.855 Y180.264 E30.80143
G1 X85.331 Y179.362 E30.95284
G1 X84.878 Y178.423 E31.10417
G1 X84.414 Y177.199 E31.29417
G1 X83.48 Y174.328 E31.73239
G1 X83.196 Y173.325 E31.8837
G1 X82.989 Y172.303 E32.03505
G1 X82.891 Y171.574 E32.14182
G1 X82.238 Y165.498 E33.02883
G1 X82.16 Y164.045 E33.24003
G1 X82.16 Y158.057 E34.10918
G1 X82.2 Y157.015 E34.26054
G1 X82.32 Y155.979 E34.41192
G1 X82.592 Y154.658 E34.60769
G1 X83.174 Y152.402 E34.94586
G1 X84.229 Y147.515 E35.67155
G1 X85.289 Y140.626 E36.68325
G1 X85.487 Y139.602 E36.83464
G1 X85.758 Y138.612 E36.98362
G1 X86.704 Y135.606 E37.44104
G1 X86.889 Y135.061 E37.52458
G1 X88.184 Y131.483 E38.07689
G1 X89.653 Y126.744 E38.79704
G1 X90.853 Y121.92 E39.51858
G1 X91.336 Y119.565 E39.86752
G1 X91.727 Y117.325 E40.19757
G1 X92.381 Y112.349 E40.92605
G1 X92.743 Y107.496 E41.63242
G1 X92.831 Y102.501 E42.35755
G1 X92.773 Y100.128 E42.70209
G1 X92.568 Y95.807 E43.32999
G1 X92.553 Y95.086 E43.43466
G1 X92.575 Y91.15 E44.00598
G1 X92.344 Y86.18 E44.72815
G1 X91.956 Y81.933 E45.34717
G1 X91.9 Y80.663 E45.53168
G1 X91.912 Y75.833 E46.23276
G1 X91.955 Y74.791 E46.38413
G1 X92.077 Y73.756 E46.5354
G1 X92.347 Y72.455 E46.72826
G1 X93.903 Y66.452 E47.62839
G1 X94.126 Y65.684 E47.74447
G1 X95.069 Y62.764 E48.18986
G1 X95.427 Y61.785 E48.34116
G1 X95.86 Y60.836 E48.49257
G1 X96.364 Y59.923 E48.64394
M204 S5000
M205 X30 Y30
G0 F3600 X97.096 Y60.258
M204 S500
M205 X20 Y20
G1 F1500 X97.658 Y59.417 E48.79076
G1 X98.285 Y58.623 E48.93761
G1 X98.972 Y57.881 E49.08439
G1 X99.716 Y57.195 E49.23128
G1 X100.466 Y56.604 E49.36988
G1 X102.878 Y54.844 E49.80327
G1 X103.718 Y54.28 E49.95013
G1 X104.6 Y53.785 E50.09693
G1 X105.519 Y53.361 E50.24384
G1 X106.468 Y53.01 E50.39071
G1 X107.442 Y52.736 E50.53757
G1 X108.434 Y52.539 E50.68437
G1 X109.439 Y52.422 E50.83123
G1 X110.402 Y52.384 E50.97112
G1 X113.388 Y52.379 E51.40453
G1 X114.399 Y52.417 E51.55138
G1 X115.403 Y52.535 E51.69812
G1 X116.396 Y52.732 E51.84506
G1 X117.369 Y53.007 E51.99182
G1 X118.318 Y53.358 E52.13869
G1 X119.237 Y53.783 E52.28565
G1 X120.119 Y54.278 E52.43246
G1 X120.943 Y54.831 E52.5765
G1 X123.399 Y56.619 E53.01745
G1 X124.192 Y57.246 E53.16419
G1 X125.16 Y58.166 E53.35803
G1 X125.534 Y58.561 E53.43698
G1 X128.304 Y61.464 E54.0194
G1 X131.93 Y64.883 E54.74278
G1 X135.742 Y68.118 E55.46848
G1 X136.487 Y68.803 E55.61537
G1 X136.928 Y69.265 E55.70808
G1 X137.774 Y70.195 E55.89057
G1 X138.425 Y70.969 E56.03737
G1 X139.013 Y71.793 E56.1843
G1 X139.525 Y72.646 E56.3287
G1 X140.323 Y74.099 E56.56932
G1 X140.775 Y75.005 E56.71628
G1 X141.154 Y75.943 E56.86312
G1 X141.489 Y77.029 E57.02809
G1 X141.805 Y78.24 E57.20975
G1 X142.022 Y79.228 E57.35657
G1 X142.16 Y80.231 E57.50353
G1 X142.216 Y81.159 E57.63847
G1 X142.253 Y82.673 E57.85829
G1 X142.238 Y83.685 E58.0052
G1 X142.143 Y84.692 E58.15202
G1 X142.026 Y85.406 E58.25703
G1 X141.829 Y86.429 E58.40825
G1 X141.599 Y87.415 E58.55521
G1 X141.291 Y88.378 E58.70196
G1 X141.052 Y88.987 E58.79692
G1 X140.472 Y90.361 E59.0134
G1 X139.978 Y91.4 E59.18039
G1 X136.873 Y97.23 E60.13914
G1 X134.845 Y101.689 E60.85016
G1 X133.063 Y106.282 E61.56525
G1 X131.544 Y110.966 E62.27998
G1 X130.26 Y115.851 E63.01312
G1 X129.778 Y118.068 E63.34244
G1 X128.918 Y123.009 E64.0704
G1 X128.35 Y127.91 E64.78654
G1 X128.058 Y132.839 E65.50323
G1 X128.046 Y137.771 E66.21911
G1 X128.312 Y142.677 E66.93226
G1 X128.858 Y147.594 E67.65035
G1 X129.695 Y152.555 E68.38061
G1 X130.177 Y154.826 E68.71759
G1 X131.625 Y160.73 E69.59995
G1 X131.827 Y161.721 E69.74675
G1 X131.95 Y162.725 E69.89357
G1 X131.984 Y163.293 E69.97616
G1 X132.024 Y164.349 E70.12955
G1 X132.022 Y165.361 E70.27644
G1 X131.959 Y166.206 E70.39943
G1 X131.871 Y167.022 E70.51856
G1 X131.723 Y168.023 E70.66543
G1 X131.515 Y168.939 E70.80177
G1 X131.234 Y169.996 E70.96052
G1 X130.936 Y170.962 E71.10726
G1 X130.672 Y171.647 E71.21381
G1 X130.362 Y172.388 E71.3304
G1 X129.935 Y173.305 E71.47723
G1 X129.478 Y174.119 E71.61273
G1 X128.937 Y175.005 E71.76341
G1 X128.376 Y175.847 E71.91027
G1 X127.501 Y176.925 E72.11179
G1 X126.486 Y178.046 E72.33129
G1 X125.778 Y178.769 E72.47817
G1 X125.015 Y179.433 E72.62499
G1 X124.268 Y179.99 E72.76024
G1 X123.145 Y180.765 E72.95829
G1 X122.291 Y181.306 E73.10503
G1 X120.952 Y181.98 E73.32262
G1 X119.781 Y182.486 E73.50777
G1 X118.837 Y182.85 E73.65463
G1 X118.183 Y183.054 E73.75407
G1 X116.007 Y183.669 E74.08228
G1 X111.157 Y185.238 E74.82218
G1 X107.393 Y186.671 E75.40678
G1 X106.434 Y186.993 E75.55361
G1 X105.453 Y187.238 E75.70038
G1 X104.455 Y187.406 E75.84727
G1 X102.991 Y187.507 E76.06028
G1 X99.936 Y187.543 E76.50374
G1 X98.924 Y187.515 E76.65069
G1 X97.919 Y187.407 E76.7974
G1 X96.924 Y187.22 E76.94435
G1 X95.948 Y186.955 E77.09115
G1 X94.995 Y186.614 E77.23806
G1 X94.073 Y186.199 E77.38482
G1 X93.186 Y185.712 E77.5317
G1 X92.315 Y185.138 E77.68311
G1 X89.877 Y183.386 E78.11888
G1 X89.08 Y182.764 E78.26562
G1 X88.334 Y182.081 E78.41243
G1 X87.644 Y181.34 E78.5594
G1 X87.015 Y180.548 E78.7062
G1 X86.451 Y179.708 E78.85306
G1 X85.954 Y178.827 E78.99988
G1 X85.529 Y177.909 E79.14672
G1 X85.175 Y176.952 E79.29482
G1 X84.241 Y174.081 E79.73304
G1 X83.966 Y173.107 E79.87995
G1 X83.769 Y172.115 E80.02675
G1 X83.686 Y171.489 E80.1184
G1 X83.033 Y165.413 E81.00541
G1 X82.96 Y164.045 E81.20426
G1 X82.96 Y158.057 E82.07341
G1 X83 Y157.046 E82.22027
G1 X83.12 Y156.041 E82.36718
G1 X83.366 Y154.858 E82.54257
G1 X83.956 Y152.571 E82.88539
G1 X85.017 Y147.655 E83.61538
G1 X86.08 Y140.748 E84.62973
G1 X86.273 Y139.755 E84.77656
G1 X86.521 Y138.853 E84.91234
G1 X87.467 Y135.847 E85.36975
G1 X87.641 Y135.334 E85.44838
G1 X88.941 Y131.74 E86.00313
G1 X90.422 Y126.964 E86.72893
G1 X91.636 Y122.085 E87.4587
G1 X92.12 Y119.725 E87.80838
G1 X92.517 Y117.446 E88.14416
G1 X93.176 Y112.44 E88.87705
G1 X93.543 Y107.518 E89.59346
G1 X93.631 Y102.495 E90.32265
G1 X93.573 Y100.114 E90.66836
G1 X93.367 Y95.769 E91.29974
G1 X93.353 Y95.09 E91.39831
G1 X93.375 Y91.137 E91.9721
G1 X93.141 Y86.116 E92.70168
G1 X92.753 Y81.861 E93.32186
G1 X92.7 Y80.665 E93.49563
G1 X92.712 Y75.835 E94.1967
G1 X92.755 Y74.824 E94.34358
G1 X92.877 Y73.82 E94.49038
G1 X93.121 Y72.655 E94.66315
G1 X94.677 Y66.652 E95.56327
G1 X94.887 Y65.93 E95.67242
G1 X95.83 Y63.01 E96.1178
G1 X96.179 Y62.061 E96.26457
G1 X96.602 Y61.141 E96.41155
G1 X97.096 Y60.258 E96.55841
M204 S5000
M205 X30 Y30
G0 F3600 X97.827 Y60.597
M204 S500
M205 X20 Y20
G1 F1500 X98.379 Y59.787 E96.70068
G1 X98.994 Y59.026 E96.8427
G1 X99.67 Y58.316 E96.985
G1 X100.402 Y57.665 E97.12719
G1 X100.938 Y57.25 E97.22558
G1 X103.35 Y55.49 E97.65898
G1 X104.164 Y54.946 E97.80109
G1 X105.02 Y54.469 E97.94332
G1 X105.912 Y54.064 E98.08552
G1 X106.834 Y53.733 E98.22771
G1 X107.78 Y53.479 E98.36988
G1 X108.743 Y53.302 E98.512
G1 X109.718 Y53.205 E98.65422
G1 X110.403 Y53.184 E98.75369
G1 X113.389 Y53.179 E99.18711
G1 X114.368 Y53.217 E99.32932
G1 X115.34 Y53.335 E99.47144
G1 X116.3 Y53.532 E99.61369
G1 X117.24 Y53.807 E99.75585
G1 X118.155 Y54.157 E99.89804
G1 X119.038 Y54.581 E100.04022
G1 X119.884 Y55.076 E100.18249
G1 X120.472 Y55.478 E100.28588
G1 X122.928 Y57.266 E100.72683
G1 X123.696 Y57.874 E100.86901
G1 X124.579 Y58.717 E101.04621
G1 X124.92 Y59.077 E101.11818
G1 X127.741 Y62.033 E101.71127
G1 X131.399 Y65.482 E102.44102
G1 X135.224 Y68.728 E103.16919
G1 X135.945 Y69.392 E103.31146
G1 X136.337 Y69.803 E103.3939
G1 X137.183 Y70.733 E103.57639
G1 X137.812 Y71.484 E103.71858
G1 X138.377 Y72.284 E103.86073
G1 X138.824 Y73.031 E103.98709
G1 X139.622 Y74.484 E104.22771
G1 X140.058 Y75.362 E104.37
G1 X140.421 Y76.271 E104.51207
G1 X140.715 Y77.231 E104.6578
G1 X141.031 Y78.442 E104.83946
G1 X141.24 Y79.399 E104.98164
G1 X141.369 Y80.37 E105.12382
G1 X141.416 Y81.179 E105.24145
G1 X141.453 Y82.693 E105.46127
G1 X141.437 Y83.672 E105.60339
G1 X141.341 Y84.647 E105.74559
G1 X141.241 Y85.255 E105.83503
G1 X141.044 Y86.278 E105.98624
G1 X140.819 Y87.232 E106.12852
G1 X140.518 Y88.164 E106.27068
G1 X140.315 Y88.676 E106.35062
G1 X139.735 Y90.05 E106.5671
G1 X139.272 Y91.024 E106.72363
G1 X136.157 Y96.874 E107.68563
G1 X134.106 Y101.383 E108.40463
G1 X132.31 Y106.009 E109.12492
G1 X130.773 Y110.752 E109.84861
G1 X129.482 Y115.66 E110.58524
G1 X128.994 Y117.904 E110.91857
G1 X128.125 Y122.904 E111.65519
G1 X127.552 Y127.84 E112.37646
G1 X127.258 Y132.808 E113.09882
G1 X127.246 Y137.794 E113.82254
G1 X127.514 Y142.739 E114.54136
G1 X128.066 Y147.708 E115.26704
G1 X128.91 Y152.711 E116.00348
G1 X129.394 Y154.988 E116.34137
G1 X130.848 Y160.92 E117.22789
G1 X131.042 Y161.88 E117.37005
G1 X131.184 Y163.324 E117.58065
G1 X131.224 Y164.38 E117.73404
G1 X131.221 Y165.359 E117.87614
G1 X131.164 Y166.121 E117.98706
G1 X131.076 Y166.937 E118.10618
G1 X130.931 Y167.906 E118.2484
G1 X130.742 Y168.733 E118.37153
G1 X130.461 Y169.79 E118.53029
G1 X130.171 Y170.726 E118.67252
G1 X129.934 Y171.338 E118.76778
G1 X129.624 Y172.079 E118.88436
G1 X129.21 Y172.967 E119.02658
G1 X128.796 Y173.702 E119.14902
G1 X128.255 Y174.588 E119.2997
G1 X127.71 Y175.402 E119.44189
G1 X126.908 Y176.388 E119.62637
G1 X125.893 Y177.509 E119.84587
G1 X125.207 Y178.208 E119.98803
G1 X124.466 Y178.848 E120.13015
G1 X123.814 Y179.331 E120.24793
G1 X122.691 Y180.106 E120.44598
G1 X121.863 Y180.629 E120.58813
G1 X120.635 Y181.246 E120.78761
G1 X119.464 Y181.752 E120.97276
G1 X118.55 Y182.103 E121.11488
G1 X117.965 Y182.284 E121.20376
G1 X115.78 Y182.901 E121.53331
G1 X110.891 Y184.483 E122.27918
G1 X107.109 Y185.923 E122.86658
G1 X106.18 Y186.234 E123.00878
G1 X105.229 Y186.468 E123.15093
G1 X104.261 Y186.624 E123.29325
G1 X102.981 Y186.707 E123.47943
G1 X99.926 Y186.743 E123.92289
G1 X98.947 Y186.715 E124.06505
G1 X97.974 Y186.607 E124.20715
G1 X97.012 Y186.419 E124.34942
G1 X96.069 Y186.154 E124.4916
G1 X95.151 Y185.813 E124.63374
G1 X94.263 Y185.398 E124.77602
G1 X93.413 Y184.912 E124.91814
G1 X92.782 Y184.489 E125.0284
G1 X90.344 Y182.737 E125.46417
G1 X89.573 Y182.133 E125.60633
G1 X88.853 Y181.469 E125.7485
G1 X88.19 Y180.748 E125.89067
G1 X87.588 Y179.975 E126.03288
G1 X87.051 Y179.156 E126.17504
G1 X86.582 Y178.295 E126.31735
G1 X86.186 Y177.399 E126.45954
G1 X85.936 Y176.704 E126.56674
G1 X85.002 Y173.833 E127.00496
G1 X84.737 Y172.89 E127.14714
G1 X84.55 Y171.929 E127.28925
G1 X84.482 Y171.403 E127.36623
G1 X83.829 Y165.327 E128.25324
G1 X83.76 Y164.045 E128.43959
G1 X83.76 Y158.057 E129.30874
G1 X83.8 Y157.078 E129.45096
G1 X83.92 Y156.106 E129.59312
G1 X84.141 Y155.058 E129.74858
G1 X84.732 Y152.769 E130.09172
G1 X85.805 Y147.795 E130.8303
G1 X86.871 Y140.869 E131.84744
G1 X87.059 Y139.908 E131.98958
G1 X87.284 Y139.093 E132.1123
G1 X88.23 Y136.087 E132.56971
G1 X88.393 Y135.606 E132.64343
G1 X89.701 Y131.99 E133.20157
G1 X91.193 Y127.18 E133.93256
G1 X92.419 Y122.251 E134.6698
G1 X92.903 Y119.892 E135.01934
G1 X93.312 Y117.544 E135.36528
G1 X93.972 Y112.533 E136.0989
G1 X94.342 Y107.556 E136.82331
G1 X94.432 Y102.49 E137.55875
G1 X94.373 Y100.1 E137.90576
G1 X94.166 Y95.731 E138.54063
G1 X94.153 Y95.095 E138.63296
G1 X94.175 Y91.124 E139.20936
G1 X93.939 Y86.051 E139.9465
G1 X93.55 Y81.788 E140.56784
