;FLAVOR:Marlin
;TIME:2540
;Filament used: 3.79359m
;Layer height: 0.2
;Generated with Cura_SteamEngine 4.0.0
M140 S70
M105
M190 S70
M104 S230
M105
M109 S230
M82 ;absolute extrusion mode
; Ender 3 Custom Start G-code
G28 ; Home all axes
G92 E0 ; Reset Extruder
G1 Z2.0 F3000 ; Move Z Axis up little to prevent scratching of Heat Bed
G1 X0.1 Y20 Z0.3 F5000.0 ; Move to start position
G1 X0.1 Y200.0 Z0.3 F1500.0 E15 ; Draw the first line
G1 X0.4 Y200.0 Z0.3 F5000.0 ; Move to side a little
G1 X0.4 Y20 Z0.3 F1500.0 E30 ; Draw the second line
G92 E0 ; Reset Extruder
G1 Z2.0 F3000 ; Move Z Axis up little to prevent scratching of Heat Bed
; End of custom start GCode
G92 E0
G1 F3000 E-10
;LAYER_COUNT:61
;LAYER:0
M107
M204 S5000
M205 X30 Y30
G0 F3600 X83.889 Y54.621 Z0.2
M204 S500
M205 X20 Y20
;TYPE:SKIRT
G1 F3000 E0
G1 F1500 X84.522 Y53.792 E0.0757
G1 X85.216 Y53.014 E0.15136
G1 X85.968 Y52.291 E0.22707
G1 X86.773 Y51.628 E0.30276
G1 X87.627 Y51.029 E0.37846
G1 X88.524 Y50.497 E0.45415
G1 X89.459 Y50.035 E0.52984
G1 X90.426 Y49.646 E0.60548
G1 X91.421 Y49.333 E0.68118
G1 X92.437 Y49.096 E0.7569
G1 X93.468 Y48.939 E0.83259
G1 X95.009 Y48.851 E0.94461
G1 X139.991 Y48.852 E4.20916
G1 X141.033 Y48.892 E4.28484
G1 X142.069 Y49.012 E4.36053
G1 X143.093 Y49.211 E4.43623
G1 X144.099 Y49.487 E4.51194
G1 X145.08 Y49.84 E4.58761
G1 X146.031 Y50.267 E4.66326
G1 X146.947 Y50.766 E4.73897
G1 X147.822 Y51.333 E4.81464
G1 X148.651 Y51.966 E4.89033
G1 X149.429 Y52.66 E4.966
G1 X150.152 Y53.412 E5.04171
G1 X150.815 Y54.218 E5.11745
G1 X151.414 Y55.071 E5.19309
G1 X151.946 Y55.968 E5.26878
G1 X152.408 Y56.903 E5.34447
G1 X152.796 Y57.871 E5.42016
G1 X153.11 Y58.866 E5.49588
G1 X153.346 Y59.881 E5.57151
G1 X153.504 Y60.912 E5.6472
G1 X153.591 Y62.453 E5.75922
G1 X153.59 Y72.439 E6.48395
G1 X153.55 Y73.481 E6.55963
G1 X153.43 Y74.517 E6.63532
G1 X153.231 Y75.541 E6.71103
G1 X152.955 Y76.547 E6.78673
G1 X152.602 Y77.528 E6.8624
G1 X152.093 Y78.642 E6.95129
G1 X148.87 Y84.929 E7.46403
G1 X146.957 Y89.34 E7.81296
G1 X145.263 Y93.949 E8.16934
G1 X143.841 Y98.616 E8.52342
G1 X142.656 Y103.474 E8.88632
G1 X142.221 Y105.666 E9.04851
G1 X141.454 Y110.601 E9.41096
G1 X140.977 Y115.463 E9.76551
G1 X140.776 Y120.336 E10.11947
G1 X140.852 Y125.217 E10.47375
G1 X141.204 Y130.108 E10.82963
G1 X141.828 Y134.931 E11.18258
G1 X142.749 Y139.849 E11.5457
G1 X143.274 Y142.117 E11.71466
G1 X143.868 Y144.389 E11.88509
G1 X145.353 Y149.22 E12.25189
G1 X147.459 Y155.024 E12.69998
G1 X147.777 Y156.018 E12.77572
G1 X148.018 Y157.032 E12.85136
G1 X148.18 Y158.062 E12.92703
G1 X148.263 Y159.102 E13.00275
G1 X148.266 Y160.145 E13.07845
G1 X148.19 Y161.185 E13.15413
G1 X148.033 Y162.216 E13.22981
G1 X147.798 Y163.232 E13.3055
G1 X147.623 Y163.823 E13.35023
G1 X147.32 Y164.766 E13.42211
G1 X146.963 Y165.746 E13.49781
G1 X146.532 Y166.696 E13.57352
G1 X145.814 Y167.957 E13.67883
G1 X141.769 Y174.253 E14.22194
G1 X141.172 Y175.108 E14.29762
G1 X140.511 Y175.915 E14.37332
G1 X139.791 Y176.669 E14.44899
G1 X139.015 Y177.366 E14.52469
G1 X138.187 Y178 E14.60037
G1 X136.932 Y178.791 E14.70803
G1 X136.59 Y178.981 E14.73643
G1 X135.659 Y179.452 E14.81215
G1 X134.696 Y179.85 E14.88777
G1 X133.704 Y180.174 E14.96351
G1 X132.691 Y180.42 E15.03916
G1 X131.662 Y180.588 E15.11483
G1 X130.676 Y180.674 E15.18666
G1 X128.663 Y180.776 E15.33294
G1 X122.52 Y181.356 E15.78075
G1 X121.478 Y181.414 E15.85649
G1 X120.436 Y181.392 E15.93213
G1 X119.703 Y181.329 E15.98552
G1 X116.06 Y180.914 E16.25162
G1 X111.126 Y180.582 E16.61052
G1 X106.252 Y180.529 E16.96427
G1 X101.366 Y180.754 E17.31924
G1 X94.94 Y181.427 E17.78816
G1 X93.9 Y181.496 E17.8638
G1 X92.857 Y181.485 E17.9395
G1 X91.423 Y181.338 E18.04412
G1 X86.11 Y180.507 E18.4344
G1 X83.471 Y180.205 E18.62717
G1 X82.44 Y180.046 E18.70288
G1 X81.424 Y179.81 E18.77858
G1 X80.43 Y179.496 E18.85423
G1 X79.462 Y179.107 E18.92994
G1 X78.937 Y178.858 E18.97211
G1 X75.366 Y177.073 E19.26185
G1 X74.452 Y176.571 E19.33753
G1 X73.517 Y175.957 E19.41871
G1 X72.695 Y175.367 E19.49214
G1 X71.871 Y174.726 E19.56791
G1 X71.1 Y174.025 E19.64354
G1 X70.384 Y173.267 E19.71921
G1 X69.728 Y172.456 E19.79491
G1 X69.137 Y171.597 E19.87058
G1 X68.613 Y170.695 E19.94629
G1 X68.159 Y169.756 E20.02198
G1 X67.708 Y168.572 E20.11394
G1 X67.404 Y167.649 E20.18446
G1 X67.116 Y166.647 E20.26013
G1 X66.905 Y165.626 E20.33579
G1 X66.774 Y164.591 E20.4115
G1 X66.722 Y163.55 E20.48715
G1 X66.75 Y162.507 E20.56287
G1 X66.858 Y161.47 E20.63854
G1 X67.045 Y160.444 E20.71423
G1 X67.413 Y159.112 E20.81452
G1 X69.058 Y154.156 E21.19349
G1 X70.379 Y149.435 E21.54928
G1 X71.723 Y143.191 E22.01281
G1 X71.982 Y142.18 E22.08856
G1 X72.317 Y141.193 E22.1642
G1 X72.726 Y140.234 E22.23987
G1 X73.113 Y139.478 E22.3015
G1 X73.971 Y137.925 E22.43027
G1 X76.219 Y133.466 E22.79268
G1 X78.212 Y128.886 E23.15518
G1 X79.066 Y126.671 E23.32746
G1 X79.836 Y124.488 E23.49546
G1 X81.298 Y119.714 E23.85782
G1 X82.48 Y114.9 E24.21757
G1 X82.954 Y112.546 E24.39184
G1 X83.344 Y110.264 E24.55985
G1 X83.977 Y105.335 E24.92051
G1 X84.323 Y100.454 E25.27564
G1 X84.394 Y95.558 E25.631
G1 X84.188 Y90.682 E25.98519
G1 X83.706 Y85.813 E26.34028
G1 X82.938 Y80.905 E26.70081
G1 X82.483 Y78.637 E26.86869
G1 X81.76 Y75.511 E27.10155
G1 X81.564 Y74.486 E27.17729
G1 X81.447 Y73.45 E27.25295
G1 X81.41 Y72.445 E27.32594
G1 X81.409 Y62.452 E28.05118
G1 X81.449 Y61.41 E28.12686
G1 X81.568 Y60.374 E28.20254
G1 X81.767 Y59.35 E28.27825
G1 X82.044 Y58.345 E28.3539
G1 X82.396 Y57.363 E28.42961
G1 X82.823 Y56.412 E28.50527
G1 X83.322 Y55.496 E28.58097
G1 X83.889 Y54.621 E28.65664
M204 S5000
M205 X30 Y30
G0 F3600 X84.684 Y54.885
M204 S500
M205 X20 Y20
G1 F1500 X85.314 Y54.093 E28.73009
G1 X86.005 Y53.354 E28.80351
G1 X86.751 Y52.671 E28.87692
G1 X87.549 Y52.049 E28.95035
G1 X88.394 Y51.493 E29.02376
G1 X89.28 Y51.005 E29.09717
G1 X90.202 Y50.588 E29.17061
G1 X91.154 Y50.245 E29.24404
G1 X92.13 Y49.979 E29.31746
G1 X93.124 Y49.791 E29.39088
G1 X94.13 Y49.681 E29.46432
G1 X95.009 Y49.651 E29.52815
G1 X139.991 Y49.652 E32.79271
G1 X141.002 Y49.692 E32.86614
G1 X142.007 Y49.812 E32.93959
G1 X142.999 Y50.01 E33.01301
G1 X143.972 Y50.287 E33.08643
G1 X144.92 Y50.639 E33.15982
G1 X145.838 Y51.066 E33.2333
G1 X146.719 Y51.563 E33.30671
G1 X147.558 Y52.128 E33.38012
G1 X148.35 Y52.758 E33.45356
G1 X149.089 Y53.449 E33.52699
G1 X149.772 Y54.195 E33.60039
G1 X150.394 Y54.994 E33.67388
G1 X150.95 Y55.839 E33.74729
G1 X151.438 Y56.725 E33.8207
G1 X151.855 Y57.647 E33.89414
G1 X152.197 Y58.599 E33.96755
G1 X152.463 Y59.575 E34.04097
G1 X152.652 Y60.569 E34.1144
G1 X152.761 Y61.575 E34.18784
G1 X152.791 Y62.453 E34.2516
G1 X152.79 Y72.439 E34.97633
G1 X152.75 Y73.45 E35.04976
G1 X152.63 Y74.455 E35.12321
G1 X152.431 Y75.447 E35.19664
G1 X152.155 Y76.42 E35.27004
G1 X151.802 Y77.368 E35.34346
G1 X151.381 Y78.277 E35.41616
G1 X148.148 Y84.584 E35.93052
G1 X146.213 Y89.046 E36.28349
G1 X144.505 Y93.692 E36.64274
G1 X143.071 Y98.398 E36.99978
G1 X141.871 Y103.317 E37.36724
G1 X141.433 Y105.527 E37.53075
G1 X140.661 Y110.491 E37.89534
G1 X140.179 Y115.405 E38.25368
G1 X139.976 Y120.334 E38.61171
G1 X140.052 Y125.251 E38.9686
G1 X140.407 Y130.182 E39.32739
G1 X141.04 Y135.072 E39.68524
G1 X141.965 Y140.01 E40.04985
G1 X142.494 Y142.298 E40.22028
G1 X143.099 Y144.61 E40.39372
G1 X144.592 Y149.469 E40.76264
G1 X146.707 Y155.297 E41.21259
G1 X147.015 Y156.261 E41.28604
G1 X147.245 Y157.246 E41.35945
G1 X147.396 Y158.247 E41.43292
G1 X147.469 Y159.256 E41.50634
G1 X147.461 Y160.268 E41.57978
G1 X147.373 Y161.275 E41.65314
G1 X147.206 Y162.273 E41.72658
G1 X146.861 Y163.579 E41.82461
G1 X146.558 Y164.522 E41.8965
G1 X146.211 Y165.472 E41.9699
G1 X145.79 Y166.392 E42.04333
G1 X145.141 Y167.525 E42.13809
G1 X141.096 Y173.821 E42.6812
G1 X140.516 Y174.65 E42.75462
G1 X139.872 Y175.43 E42.82803
G1 X139.169 Y176.157 E42.90143
G1 X138.41 Y176.827 E42.9749
G1 X137.601 Y177.434 E43.04831
G1 X136.543 Y178.091 E43.13869
G1 X136.201 Y178.281 E43.16708
G1 X135.298 Y178.737 E43.2405
G1 X134.362 Y179.12 E43.3139
G1 X133.398 Y179.429 E43.38737
G1 X132.413 Y179.66 E43.46079
G1 X131.413 Y179.812 E43.5342
G1 X130.635 Y179.875 E43.59085
G1 X128.594 Y179.979 E43.73916
G1 X122.445 Y180.559 E44.18741
G1 X121.434 Y180.615 E44.26089
G1 X120.423 Y180.59 E44.33429
G1 X119.793 Y180.534 E44.38019
G1 X116.138 Y180.118 E44.64716
G1 X111.153 Y179.782 E45.00977
G1 X106.223 Y179.729 E45.36758
G1 X101.315 Y179.955 E45.72416
G1 X94.857 Y180.631 E46.1954
G1 X93.847 Y180.697 E46.26886
G1 X92.836 Y180.682 E46.34224
G1 X91.546 Y180.547 E46.43637
G1 X86.225 Y179.715 E46.82724
G1 X83.562 Y179.41 E47.02177
G1 X82.562 Y179.255 E47.09521
G1 X81.578 Y179.022 E47.1686
G1 X80.615 Y178.712 E47.24202
G1 X79.295 Y178.142 E47.34637
G1 X75.724 Y176.357 E47.6361
G1 X74.838 Y175.87 E47.70948
G1 X73.983 Y175.307 E47.78377
G1 X73.161 Y174.717 E47.85721
G1 X72.363 Y174.095 E47.93064
G1 X71.617 Y173.412 E48.00404
G1 X70.927 Y172.672 E48.07747
G1 X70.297 Y171.88 E48.15092
G1 X69.732 Y171.04 E48.22439
G1 X69.235 Y170.159 E48.2978
G1 X68.81 Y169.241 E48.37121
G1 X68.467 Y168.322 E48.4424
G1 X68.163 Y167.399 E48.51293
G1 X67.885 Y166.427 E48.5863
G1 X67.685 Y165.435 E48.65974
G1 X67.563 Y164.43 E48.73322
G1 X67.521 Y163.42 E48.80658
G1 X67.559 Y162.409 E48.88001
G1 X67.677 Y161.404 E48.95344
G1 X67.874 Y160.411 E49.02691
G1 X68.172 Y159.364 E49.10592
G1 X69.822 Y154.39 E49.48625
G1 X71.161 Y149.61 E49.84651
G1 X72.506 Y143.359 E50.31056
G1 X72.757 Y142.379 E50.38397
G1 X73.086 Y141.422 E50.45742
G1 X73.489 Y140.494 E50.53084
G1 X73.814 Y139.865 E50.58223
G1 X74.665 Y138.325 E50.70992
G1 X76.948 Y133.795 E51.07808
G1 X78.955 Y129.184 E51.44304
G1 X79.816 Y126.952 E51.61666
G1 X80.593 Y124.749 E51.7862
G1 X82.065 Y119.94 E52.15119
G1 X83.27 Y115.038 E52.51755
G1 X83.739 Y112.707 E52.69011
G1 X84.133 Y110.4 E52.85996
G1 X84.774 Y105.405 E53.22545
G1 X85.123 Y100.488 E53.58319
G1 X85.194 Y95.555 E53.94124
G1 X84.986 Y90.622 E54.29957
G1 X84.501 Y85.716 E54.65736
G1 X83.726 Y80.767 E55.02091
G1 X83.257 Y78.43 E55.19389
G1 X82.54 Y75.33 E55.42482
G1 X82.351 Y74.336 E55.49825
G1 X82.241 Y73.331 E55.57162
G1 X82.21 Y72.445 E55.63596
G1 X82.209 Y62.452 E56.3612
G1 X82.249 Y61.441 E56.43463
G1 X82.368 Y60.437 E56.508
G1 X82.567 Y59.445 E56.58143
G1 X82.843 Y58.471 E56.6549
G1 X83.196 Y57.523 E56.72832
G1 X83.622 Y56.605 E56.80177
G1 X84.119 Y55.724 E56.87518
G1 X84.684 Y54.885 E56.94859
M204 S5000
M205 X30 Y30
G0 F3600 X85.479 Y55.159
M204 S500
M205 X20 Y20
G1 F1500 X86.105 Y54.406 E57.01965
G1 X86.791 Y53.706 E57.09078
G1 X87.532 Y53.065 E57.16189
G1 X88.322 Y52.487 E57.23293
G1 X89.157 Y51.974 E57.30406
G1 X90.031 Y51.532 E57.37514
G1 X90.939 Y51.162 E57.44629
G1 X91.873 Y50.868 E57.51736
G1 X92.828 Y50.651 E57.58843
G1 X93.798 Y50.512 E57.65955
G1 X95.009 Y50.451 E57.74755
G1 X139.991 Y50.452 E61.0121
G1 X140.97 Y50.492 E61.08321
G1 X141.942 Y50.612 E61.15429
G1 X142.902 Y50.81 E61.22543
G1 X143.841 Y51.087 E61.29648
G1 X144.756 Y51.438 E61.3676
G1 X145.638 Y51.864 E61.43869
G1 X146.483 Y52.36 E61.5098
G1 X147.284 Y52.923 E61.58086
G1 X148.037 Y53.549 E61.65192
G1 X148.737 Y54.235 E61.72305
G1 X149.378 Y54.976 E61.79416
G1 X149.956 Y55.767 E61.86526
G1 X150.468 Y56.602 E61.93634
G1 X150.911 Y57.476 E62.00746
G1 X151.28 Y58.383 E62.07852
G1 X151.574 Y59.317 E62.14959
G1 X151.791 Y60.273 E62.22073
G1 X151.93 Y61.242 E62.29178
G1 X151.991 Y62.453 E62.37978
G1 X151.99 Y72.439 E63.10451
G1 X151.95 Y73.418 E63.17562
G1 X151.83 Y74.39 E63.24669
G1 X151.631 Y75.349 E63.31778
G1 X151.355 Y76.289 E63.38888
G1 X151.003 Y77.203 E63.45996
G1 X150.669 Y77.912 E63.51684
G1 X147.425 Y84.24 E64.03292
G1 X145.469 Y88.751 E64.38976
G1 X143.749 Y93.43 E64.75155
G1 X142.293 Y98.207 E65.11398
G1 X141.092 Y103.133 E65.48196
G1 X140.648 Y105.368 E65.64733
G1 X139.866 Y110.396 E66.01663
G1 X139.381 Y115.347 E66.37766
G1 X139.176 Y120.313 E66.73838
G1 X139.254 Y125.304 E67.10064
G1 X139.61 Y130.254 E67.46081
G1 X140.25 Y135.2 E67.82276
G1 X141.18 Y140.167 E68.1895
G1 X141.721 Y142.503 E68.36352
G1 X142.331 Y144.837 E68.5386
G1 X143.832 Y149.718 E68.90921
G1 X145.955 Y155.57 E69.361
G1 X146.252 Y156.504 E69.43213
G1 X146.471 Y157.459 E69.50324
G1 X146.611 Y158.428 E69.57429
G1 X146.672 Y159.406 E69.64541
G1 X146.653 Y160.385 E69.71647
G1 X146.554 Y161.36 E69.7876
G1 X146.376 Y162.323 E69.85867
G1 X146.1 Y163.334 E69.93473
G1 X145.797 Y164.277 E70.00661
G1 X145.459 Y165.197 E70.07775
G1 X145.048 Y166.086 E70.14883
G1 X144.468 Y167.092 E70.2331
G1 X140.423 Y173.388 E70.77621
G1 X139.86 Y174.19 E70.84732
G1 X139.234 Y174.943 E70.91839
G1 X138.548 Y175.643 E70.98952
G1 X137.808 Y176.285 E71.06062
G1 X137.018 Y176.864 E71.1317
G1 X136.155 Y177.392 E71.20513
G1 X135.813 Y177.582 E71.23352
G1 X134.938 Y178.022 E71.3046
G1 X134.03 Y178.39 E71.37571
G1 X133.095 Y178.682 E71.44679
G1 X132.139 Y178.897 E71.51791
G1 X131.169 Y179.033 E71.58899
G1 X130.594 Y179.077 E71.63085
G1 X128.523 Y179.182 E71.78134
G1 X122.369 Y179.763 E72.22995
G1 X121.391 Y179.815 E72.30103
G1 X120.412 Y179.787 E72.37211
G1 X119.884 Y179.739 E72.41059
G1 X116.218 Y179.321 E72.67837
G1 X111.181 Y178.982 E73.04476
G1 X106.213 Y178.929 E73.40533
G1 X101.263 Y179.156 E73.76495
G1 X94.774 Y179.836 E74.23847
G1 X93.796 Y179.898 E74.30959
G1 X92.817 Y179.88 E74.38065
G1 X91.67 Y179.757 E74.46437
G1 X86.32 Y178.92 E74.85737
G1 X83.653 Y178.615 E75.05218
G1 X82.685 Y178.464 E75.12329
G1 X81.733 Y178.235 E75.19435
G1 X80.802 Y177.928 E75.26549
G1 X79.653 Y177.427 E75.35646
G1 X76.082 Y175.642 E75.6462
G1 X75.224 Y175.168 E75.71734
G1 X74.45 Y174.657 E75.78465
G1 X73.628 Y174.067 E75.85809
G1 X72.856 Y173.464 E75.92918
G1 X72.136 Y172.799 E76.00031
G1 X71.472 Y172.079 E76.07139
G1 X70.87 Y171.306 E76.1425
G1 X70.332 Y170.487 E76.21361
G1 X69.863 Y169.627 E76.28471
G1 X69.466 Y168.732 E76.35576
G1 X69.227 Y168.072 E76.40671
G1 X68.923 Y167.149 E76.47723
G1 X68.655 Y166.207 E76.54831
G1 X68.465 Y165.246 E76.61941
G1 X68.353 Y164.273 E76.69049
G1 X68.321 Y163.294 E76.76158
G1 X68.37 Y162.315 E76.83272
G1 X68.498 Y161.344 E76.9038
G1 X68.704 Y160.386 E76.97491
G1 X68.932 Y159.616 E77.03319
G1 X70.582 Y154.643 E77.41345
G1 X71.938 Y149.8 E77.77845
G1 X73.288 Y143.527 E78.24413
G1 X73.533 Y142.579 E78.31519
G1 X73.854 Y141.654 E78.38625
G1 X74.25 Y140.758 E78.45735
G1 X74.514 Y140.252 E78.49877
G1 X75.38 Y138.683 E78.62883
G1 X77.672 Y134.138 E78.99825
G1 X79.689 Y129.502 E79.36517
G1 X80.565 Y127.233 E79.54169
G1 X81.356 Y124.99 E79.7143
G1 X82.838 Y120.151 E80.08159
G1 X84.048 Y115.221 E80.45
G1 X84.523 Y112.863 E80.62457
G1 X84.928 Y110.493 E80.79907
G1 X85.569 Y105.495 E81.16477
G1 X85.923 Y100.52 E81.52674
G1 X85.994 Y95.532 E81.88878
G1 X85.786 Y90.582 E82.24834
G1 X85.295 Y85.617 E82.61043
G1 X84.51 Y80.606 E82.97854
G1 X84.047 Y78.294 E83.14966
G1 X83.319 Y75.15 E83.38387
G1 X83.137 Y74.187 E83.455
G1 X83.035 Y73.213 E83.52607
G1 X83.01 Y72.445 E83.58184
G1 X83.009 Y62.452 E84.30708
G1 X83.049 Y61.473 E84.37819
G1 X83.168 Y60.501 E84.44926
G1 X83.367 Y59.542 E84.52034
G1 X83.643 Y58.602 E84.59144
G1 X83.995 Y57.688 E84.66252
G1 X84.42 Y56.805 E84.73364
G1 X84.916 Y55.96 E84.80475
G1 X85.479 Y55.159 E84.87581
M204 S5000
M205 X30 Y30
G0 F3600 X85.712 Y56.205
M204 S500
M205 X20 Y20
G1 F1500 X86.273 Y55.443 E84.94448
G1 X86.895 Y54.73 E85.01315
G1 X87.576 Y54.073 E85.08182
G1 X88.31 Y53.475 E85.15053
G1 X89.092 Y52.942 E85.21922
G1 X89.916 Y52.476 E85.28792
G1 X90.776 Y52.082 E85.35657
G1 X91.666 Y51.761 E85.42524
G1 X92.581 Y51.517 E85.49396
